; generated by PrusaSlicer 2.7.1+win64 on 2024-04-24 at 06:11:45 UTC


;
;
; 

; external perimeters extrusion width = 0.60mm
; perimeters extrusion width = 0.50mm
; infill extrusion width = 0.50mm
; solid infill extrusion width = 0.50mm
; top infill extrusion width = 0.45mm
; first layer extrusion width = 0.42mm

M73 P0 R108
M73 Q0 S108
M201 X1000 Y1000 Z200 E5000 ; sets maximum accelerations, mm/sec^2
M203 X200 Y200 Z12 E120 ; sets maximum feedrates, mm / sec
M204 S1250 T1250 ; sets acceleration (S) and retract acceleration (R), mm/sec^2
M205 X8.00 Y8.00 Z0.40 E4.50 ; sets the jerk limits, mm/sec
M205 S0 T0 ; sets the minimum extruding and travel feed rate, mm/sec

; printing object mk3-Environment-sensors-case_top.stl id:0 copy 0
; stop printing object mk3-Environment-sensors-case_top.stl id:0 copy 0

;TYPE:Custom
M862.3 P "MK3S" ; printer model check
M862.1 P0.4 ; nozzle diameter check
M115 U3.13.2 ; tell printer latest fw version
G90 ; use absolute coordinates
M83 ; extruder relative mode
M104 S230 ; set extruder temp
M140 S85 ; set bed temp
M190 S85 ; wait for bed temp
M109 S230 ; wait for extruder temp
G28 W ; home all without mesh bed level
G80 ; mesh bed leveling

G1 Z0.2 F720
G1 Y-3 F1000 ; go outside print area
G92 E0
G1 X60 E9 F1000 ; intro line
G1 X100 E12.5 F1000 ; intro line
M73 P0 R107

G92 E0
M221 S95

; Don't change E values below. Excessive value can damage the printer.

M907 E538 ; set extruder motor current
G21 ; set units to millimeters
G90 ; use absolute coordinates
M83 ; use relative distances for extrusion
M900 K0.08 ; Filament gcode LA 1.5
M900 K45 ; Filament gcode LA 1.0

M107
;LAYER_CHANGE
;Z:0.2
;HEIGHT:0.2
;BEFORE_LAYER_CHANGE
G92 E0.0
;0.2


G1 E-1 F2100
G1 Z.2 F720
;AFTER_LAYER_CHANGE
;0.2
G1 X81.015 Y69.193 F10800
G1 Z.2 F720
G1 E1 F2100
M204 S800
;TYPE:Skirt/Brim
;WIDTH:0.42
G1 F1200
G1 X82.06 Y68.317 E.04275
G1 X83 Y68.123 E.03009
G1 X167 Y68.123 E2.63376
G1 X168.307 Y68.515 E.04278
G1 X169.183 Y69.56 E.04275
G1 X169.377 Y70.5 E.03009
G1 X169.377 Y139.5 E2.16345
G1 X168.985 Y140.807 E.04278
G1 X167.94 Y141.683 E.04275
G1 X167 Y141.877 E.03009
G1 X83 Y141.877 E2.63376
G1 X81.693 Y141.485 E.04278
G1 X80.817 Y140.44 E.04275
G1 X80.623 Y139.5 E.03009
G1 X80.623 Y70.5 E2.16345
G1 X80.997 Y69.25 E.04091
M204 S1000
; printing object mk3-Environment-sensors-case_top.stl id:0 copy 0
;WIPE_START
G1 F8640
G1 X81.015 Y69.193 E-.0138
G1 X82.06 Y68.317 E-.31486
G1 X83 Y68.123 E-.22162
G1 X84.948 Y68.123 E-.44972
;WIPE_END
G1 Z.4 F720
G1 X162.8 Y134.167 F10800
G1 Z.2 F720
G1 E1 F2100
M204 S800
;TYPE:Perimeter
;WIDTH:0.419999
G1 F1200
G1 X162.252 Y134.752 E.02513
G1 X161.679 Y135.325 E.02541
G1 X161.536 Y135.429 E.00554
G1 X160.219 Y136.1 E.04634
G1 X160.051 Y136.155 E.00554
G1 X158.59 Y136.386 E.04638
G1 X158.414 Y136.386 E.00552
G1 X156.953 Y136.155 E.04638
G1 X156.785 Y136.1 E.00554
G1 X155.468 Y135.429 E.04634
G1 X155.325 Y135.325 E.00554
G1 X154.28 Y134.28 E.04634
G1 X153.505 Y132.82 E.05183
G1 X153.219 Y131.191 E.05186
G1 X153.219 Y131.015 E.00552
G1 X153.462 Y129.556 E.04638
;WIDTH:0.395538
G1 X153.926 Y128.631 E.03034
;WIDTH:0.40312
G1 X153.935 Y128.56 E.00214
;WIDTH:0.451586
G1 X153.944 Y128.49 E.0024
;WIDTH:0.500051
G1 X153.952 Y128.42 E.00268
;WIDTH:0.548517
G1 X153.961 Y128.349 E.00301
;WIDTH:0.596983
G1 X153.97 Y128.279 E.00325
;WIDTH:0.645448
G1 X153.978 Y128.208 E.00358
G1 X153.924 Y128.254 E.00355
;WIDTH:0.596983
G1 X153.87 Y128.3 E.00327
;WIDTH:0.548517
G1 X153.815 Y128.345 E.00299
;WIDTH:0.500051
G1 X153.761 Y128.391 E.0027
;WIDTH:0.451586
G1 X153.707 Y128.436 E.00239
;WIDTH:0.40312
G1 X153.652 Y128.482 E.00215
;WIDTH:0.377283
G1 X153.23 Y129.236 E.02402
;WIDTH:0.395538
G1 X153.125 Y129.437 E.00665
;WIDTH:0.419999
G1 X152.246 Y130.982 E.05573
G1 X151.999 Y131.19 E.01012
G1 X151.772 Y131.237 E.00727
G1 X148.862 Y131.232 E.09124
G1 X148.328 Y131.2 E.01677
G1 X147.794 Y131.134 E.01687
G1 X147.649 Y131.091 E.00474
G1 X147.248 Y131.976 E.03046
G1 X145.773 Y134.546 E.09291
G1 X145.585 Y134.743 E.00854
G1 X145.381 Y134.822 E.00686
G1 X145.283 Y134.83 E.00308
G1 X141.319 Y134.83 E.12429
G1 X141.018 Y134.743 E.00982
G1 X140.829 Y134.547 E.00854
G1 X138.847 Y131.115 E.12426
G1 X138.772 Y130.854 E.00851
G1 X138.836 Y130.569 E.00916
G1 X140.071 Y128.432 E.07739
G1 X140.676 Y127.53 E.03405
G1 X140.997 Y127.182 E.01484
G1 X140.628 Y126.781 E.01709
G1 X140.337 Y126.373 E.01571
G1 X139.192 Y124.391 E.07177
G1 X138.903 Y123.731 E.02259
G1 X138.199 Y123.795 E.02216
G1 X136.918 Y123.825 E.04018
G1 X135.89 Y123.825 E.03223
G1 X134.839 Y123.754 E.03303
G1 X134.733 Y123.73 E.00341
G1 X134.27 Y124.697 E.03362
G1 X132.801 Y127.253 E.09243
G1 X132.595 Y127.46 E.00916
G1 X132.311 Y127.536 E.00922
G1 X128.348 Y127.536 E.12426
G1 X128.125 Y127.49 E.00714
G1 X127.907 Y127.324 E.00859
G1 X127.858 Y127.253 E.0027
G1 X126.407 Y124.731 E.09123
G1 X125.926 Y123.73 E.03482
G1 X124.77 Y123.825 E.03637
G1 X121.861 Y123.829 E.09121
G1 X121.61 Y123.771 E.00808
G1 X121.399 Y123.591 E.0087
G1 X121.046 Y122.983 E.02204
G1 X119.919 Y121.024 E.07086
G1 X119.438 Y120.022 E.03485
G1 X118.282 Y120.117 E.03637
G1 X115.373 Y120.121 E.09121
G1 X115.15 Y120.076 E.00713
G1 X114.942 Y119.922 E.00811
G1 X113.431 Y117.316 E.09445
G1 X112.95 Y116.314 E.03485
G1 X111.891 Y116.404 E.03332
G1 X109.938 Y116.409 E.06124
G1 X108.887 Y116.338 E.03303
G1 X108.781 Y116.314 E.00341
G1 X108.318 Y117.282 E.03364
G1 X106.849 Y119.838 E.09243
G1 X106.68 Y120.021 E.00781
G1 X106.415 Y120.118 E.00885
G1 X103.449 Y120.117 E.093
G1 X102.399 Y120.046 E.033
G1 X102.293 Y120.022 E.00341
G1 X101.83 Y120.99 E.03364
G1 X100.361 Y123.546 E.09243
G1 X100.196 Y123.727 E.00768
G1 X99.932 Y123.826 E.00884
G1 X95.908 Y123.829 E.12617
G1 X95.634 Y123.758 E.00887
G1 X95.455 Y123.602 E.00744
G1 X95.418 Y123.546 E.0021
G1 X93.436 Y120.114 E.12426
G1 X93.361 Y119.831 E.00918
G1 X93.437 Y119.547 E.00922
G1 X94.897 Y117.03 E.09123
G1 X95.194 Y116.582 E.01685
G1 X95.555 Y116.123 E.01831
G1 X94.897 Y115.216 E.03513
G1 X93.437 Y112.699 E.09123
G1 X93.361 Y112.415 E.00922
G1 X93.436 Y112.132 E.00918
G1 X95.418 Y108.7 E.12426
G1 X95.579 Y108.523 E.0075
G1 X95.809 Y108.426 E.00783
G1 X95.909 Y108.417 E.00315
G1 X98.818 Y108.421 E.09121
G1 X99.868 Y108.492 E.033
G1 X99.974 Y108.516 E.00341
G1 X100.437 Y107.548 E.03364
G1 X100.921 Y106.702 E.03056
G1 X101.651 Y105.503 E.04401
G1 X102.043 Y105 E.01999
G1 X101.384 Y104.092 E.03518
G1 X100.455 Y102.486 E.05817
G1 X99.974 Y101.483 E.03488
G1 X98.915 Y101.573 E.03332
G1 X95.909 Y101.582 E.09425
G1 X95.64 Y101.515 E.00869
G1 X95.418 Y101.299 E.00971
G1 X93.436 Y97.867 E.12426
G1 X93.361 Y97.584 E.00918
G1 X93.437 Y97.3 E.00922
G1 X94.897 Y94.783 E.09123
G1 X95.194 Y94.335 E.01685
G1 X95.556 Y93.877 E.0183
G1 X94.897 Y92.97 E.03515
G1 X93.437 Y90.453 E.09123
G1 X93.361 Y90.169 E.00922
G1 X93.436 Y89.886 E.00918
G1 X95.418 Y86.454 E.12426
G1 X95.587 Y86.271 E.00781
G1 X95.85 Y86.174 E.00879
G1 X99.871 Y86.171 E.12608
G1 X100.154 Y86.247 E.00919
G1 X100.361 Y86.454 E.00918
G1 X101.812 Y88.976 E.09123
G1 X102.293 Y89.978 E.03485
G1 X103.352 Y89.888 E.03332
G1 X106.358 Y89.879 E.09425
G1 X106.586 Y89.927 E.00731
G1 X106.812 Y90.106 E.00904
G1 X106.876 Y90.209 E.0038
G1 X108.3 Y92.684 E.08953
G1 X108.781 Y93.685 E.03482
G1 X109.423 Y93.612 E.02026
G1 X110.856 Y93.587 E.04494
G1 X111.795 Y93.59 E.02944
G1 X112.844 Y93.661 E.03297
G1 X112.95 Y93.685 E.00341
G1 X113.413 Y92.718 E.03362
G1 X114.882 Y90.162 E.09243
G1 X115.064 Y89.97 E.00829
G1 X115.298 Y89.884 E.00782
G1 X118.282 Y89.883 E.09356
G1 X119.332 Y89.954 E.033
G1 X119.438 Y89.978 E.00341
G1 X119.951 Y88.919 E.03689
G1 X121.37 Y86.454 E.08918
G1 X121.547 Y86.265 E.00812
G1 X121.79 Y86.175 E.00812
G1 X121.926 Y86.171 E.00427
G1 X124.77 Y86.175 E.08917
G1 X125.82 Y86.246 E.033
G1 X125.926 Y86.27 E.00341
G1 X126.389 Y85.302 E.03364
G1 X127.86 Y82.742 E.09257
G1 X128.059 Y82.542 E.00885
G1 X128.271 Y82.468 E.00704
G1 X132.311 Y82.463 E.12667
G1 X132.594 Y82.539 E.00919
G1 X132.801 Y82.746 E.00918
G1 X134.252 Y85.268 E.09123
G1 X134.733 Y86.27 E.03485
G1 X135.375 Y86.197 E.02026
G1 X136.774 Y86.172 E.04387
G1 X137.747 Y86.175 E.03051
G1 X138.797 Y86.246 E.033
G1 X138.902 Y86.27 E.00338
G1 X139.365 Y85.302 E.03364
G1 X140.312 Y83.661 E.05941
G1 X140.608 Y83.213 E.01684
G1 X140.967 Y82.753 E.0183
G1 X140.326 Y81.873 E.03414
G1 X138.847 Y79.322 E.09246
G1 X138.772 Y79.032 E.00939
G1 X138.847 Y78.757 E.00894
G1 X140.829 Y75.325 E.12426
G1 X141.018 Y75.129 E.00854
G1 X141.221 Y75.05 E.00683
G1 X145.283 Y75.042 E.12736
G1 X145.585 Y75.129 E.00985
G1 X145.773 Y75.325 E.00852
G1 X147.224 Y77.847 E.09123
G1 X147.705 Y78.849 E.03485
G1 X148.862 Y78.754 E.0364
G1 X151.772 Y78.75 E.09124
G1 X152.052 Y78.824 E.00908
G1 X152.263 Y79.033 E.00931
G1 X152.499 Y79.442 E.01481
;WIDTH:0.463592
G1 X152.888 Y80.072 E.0259
;WIDTH:0.507185
G1 X153.276 Y80.701 E.02853
;WIDTH:0.555626
G1 X153.349 Y80.779 E.00455
;WIDTH:0.604066
G1 X153.423 Y80.858 E.00505
G1 X153.415 Y80.756 E.00477
;WIDTH:0.555626
G1 X153.407 Y80.654 E.00436
;WIDTH:0.507185
G1 X153.313 Y79.921 E.02853
;WIDTH:0.463592
G1 X153.219 Y79.187 E.02588
;WIDTH:0.419999
G1 X153.45 Y77.55 E.05184
G1 X154.176 Y76.065 E.05183
G1 X154.28 Y75.922 E.00554
G1 X155.325 Y74.877 E.04634
G1 X155.468 Y74.773 E.00554
G1 X156.785 Y74.102 E.04634
G1 X156.953 Y74.047 E.00554
G1 X158.413 Y73.815 E.04635
G1 X158.591 Y73.815 E.00558
G1 X160.051 Y74.047 E.04635
G1 X160.219 Y74.102 E.00554
G1 X161.536 Y74.773 E.04634
G1 X162.151 Y75.349 E.02642
G1 X162.724 Y75.922 E.02541
G1 X162.828 Y76.065 E.00554
G1 X163.499 Y77.382 E.04634
G1 X163.554 Y77.55 E.00554
G1 X163.786 Y79.01 E.04635
G1 X163.786 Y79.188 E.00558
G1 X163.554 Y80.648 E.04635
G1 X163.499 Y80.816 E.00554
G1 X162.828 Y82.133 E.04634
G1 X162.724 Y82.276 E.00554
G1 X161.679 Y83.321 E.04634
G1 X161.536 Y83.425 E.00554
G1 X160.219 Y84.096 E.04634
G1 X159.32 Y84.266 E.02869
G1 X158.59 Y84.382 E.02318
G1 X158.414 Y84.382 E.00552
G1 X156.953 Y84.151 E.04638
G1 X156.649 Y84.027 E.01029
G1 X155.468 Y83.425 E.04156
G1 X154.944 Y82.94 E.02239
;WIDTH:0.450724
G1 X154.647 Y82.665 E.01373
;WIDTH:0.481449
G1 X154.35 Y82.389 E.01478
;WIDTH:0.508335
G1 X154.276 Y82.333 E.00359
;WIDTH:0.53522
G1 X154.202 Y82.276 E.00382
G1 X154.237 Y82.363 E.00384
;WIDTH:0.508335
G1 X154.271 Y82.45 E.00361
;WIDTH:0.481449
G1 X154.258 Y82.741 E.01062
;WIDTH:0.450724
G1 X154.244 Y83.032 E.00988
;WIDTH:0.419999
G1 X152.785 Y85.549 E.09122
G1 X152.489 Y85.996 E.01681
G1 X152.129 Y86.457 E.01834
G1 X152.77 Y87.34 E.03421
G1 X153.716 Y88.975 E.05923
G1 X154.194 Y89.975 E.03475
G1 X155.245 Y89.883 E.03308
G1 X158.261 Y89.873 E.09456
G1 X158.504 Y89.928 E.00781
G1 X158.725 Y90.114 E.00906
G1 X158.752 Y90.156 E.00157
G1 X160.734 Y93.588 E.12426
G1 X160.809 Y93.872 E.00921
G1 X160.733 Y94.155 E.00919
G1 X159.273 Y96.672 E.09123
G1 X158.976 Y97.12 E.01685
G1 X158.614 Y97.579 E.01833
G1 X159.256 Y98.457 E.0341
G1 X160.733 Y101.002 E.09226
G1 X160.809 Y101.286 E.00922
G1 X160.733 Y101.57 E.00922
G1 X159.273 Y104.087 E.09123
G1 X158.976 Y104.535 E.01685
G1 X158.614 Y104.994 E.01833
G1 X159.256 Y105.872 E.0341
G1 X160.733 Y108.417 E.09226
G1 X160.809 Y108.701 E.00922
G1 X160.733 Y108.985 E.00922
G1 X159.273 Y111.502 E.09123
G1 X158.976 Y111.95 E.01685
G1 X158.614 Y112.409 E.01833
G1 X159.256 Y113.287 E.0341
G1 X160.733 Y115.832 E.09226
G1 X160.809 Y116.116 E.00922
G1 X160.734 Y116.399 E.00918
G1 X158.752 Y119.831 E.12426
G1 X158.595 Y120.006 E.00737
G1 X158.326 Y120.11 E.00904
G1 X155.352 Y120.11 E.09325
G1 X154.301 Y120.04 E.03303
G1 X154.2 Y120.017 E.00325
G1 X153.735 Y120.991 E.03384
G1 X153.025 Y122.23 E.04477
G1 X152.701 Y122.747 E.01913
G1 X152.125 Y123.537 E.03065
G1 X152.784 Y124.438 E.035
G1 X154.244 Y126.955 E.09123
;WIDTH:0.44819
G1 X154.256 Y127.246 E.00981
;WIDTH:0.476381
G1 X154.269 Y127.536 E.01046
;WIDTH:0.521448
G1 X154.251 Y127.613 E.00315
;WIDTH:0.566515
G1 X154.232 Y127.689 E.00341
;WIDTH:0.611582
G1 X154.214 Y127.766 E.00374
;WIDTH:0.656648
G1 X154.196 Y127.843 E.00404
G1 X154.265 Y127.805 E.00402
;WIDTH:0.611582
G1 X154.335 Y127.768 E.00374
;WIDTH:0.566515
G1 X154.404 Y127.73 E.00343
;WIDTH:0.521448
G1 X154.473 Y127.693 E.00312
;WIDTH:0.476381
G1 X154.804 Y127.382 E.01637
;WIDTH:0.44819
G1 X155.134 Y127.072 E.01526
;WIDTH:0.419999
G1 X155.468 Y126.777 E.01397
G1 X156.785 Y126.106 E.04634
G1 X156.953 Y126.051 E.00554
G1 X158.414 Y125.82 E.04638
G1 X160.051 Y126.051 E.05184
G1 X160.219 Y126.106 E.00554
G1 X161.536 Y126.777 E.04634
G1 X161.679 Y126.881 E.00554
G1 X162.724 Y127.926 E.04634
G1 X162.828 Y128.069 E.00554
G1 X163.499 Y129.386 E.04634
G1 X163.554 Y129.554 E.00554
G1 X163.786 Y131.014 E.04635
G1 X163.786 Y131.192 E.00558
G1 X163.554 Y132.652 E.04635
G1 X163.499 Y132.82 E.00554
G1 X162.837 Y134.12 E.04574
M204 S1000
G1 X162.492 Y133.965 F10800
M204 S800
;TYPE:External perimeter
G1 F1200
G1 X161.412 Y135.059 E.0482
G1 X159.992 Y135.782 E.04996
G1 X158.531 Y136.013 E.04638
G1 X157.012 Y135.782 E.04817
G1 X155.64 Y135.093 E.04814
G1 X154.546 Y134.013 E.0482
G1 X153.841 Y132.649 E.04814
G1 X153.592 Y131.074 E.05
G1 X153.823 Y129.613 E.04638
G1 X154.233 Y128.787 E.02891
G1 X154.512 Y128.241 E.01922
G1 X155.64 Y127.113 E.05002
G1 X157.012 Y126.424 E.04814
G1 X158.473 Y126.193 E.04638
G1 X159.992 Y126.424 E.04817
G1 X161.364 Y127.113 E.04814
G1 X162.458 Y128.193 E.0482
G1 X163.181 Y129.613 E.04996
G1 X163.413 Y131.133 E.04821
G1 X163.181 Y132.596 E.04644
G1 X162.519 Y133.912 E.04619
M204 S1000
;WIPE_START
G1 F8640
G1 X162.492 Y133.965 E-.01373
G1 X161.412 Y135.059 E-.35496
G1 X159.992 Y135.782 E-.36794
G1 X158.866 Y135.96 E-.26337
;WIPE_END
G1 Z.4 F720
G1 X147.749 Y123.723 F10800
G1 Z.2 F720
G1 E1 F2100
M204 S800
;WIDTH:0.491334
G1 F1200
G1 X147.811 Y123.723 E.00231
;WIDTH:0.455666
G1 X147.874 Y123.724 E.00216
;WIDTH:0.420005
G1 X151.712 Y123.724 E.12034
G1 X151.863 Y123.802 E.00533
G1 X152.448 Y124.612 E.03133
G1 X152.705 Y125.053 E.016
G1 X153.918 Y127.144 E.0758
G1 X153.918 Y127.333 E.00593
G1 X151.936 Y130.766 E.12429
G1 X151.848 Y130.844 E.00369
G1 X148.862 Y130.855 E.09363
G1 X147.84 Y130.76 E.03218
G1 X147.701 Y130.666 E.00526
;WIDTH:0.418585
G1 X147.634 Y130.55 E.00418
;WIDTH:0.417865
G1 X147.634 Y130.549 E.00003
;WIDTH:0.419428
G1 X146.411 Y128.427 E.07668
;WIDTH:0.429957
G1 X145.962 Y127.658 E.02866
;WIDTH:0.472583
G1 X145.835 Y127.435 E.00917
;WIDTH:0.515208
G1 X145.709 Y127.213 E.01002
G1 X145.967 Y126.77 E.02013
;WIDTH:0.469834
G1 X146.225 Y126.326 E.01823
;WIDTH:0.42446
G1 X146.257 Y126.269 E.00207
;WIDTH:0.425247
G1 X147.422 Y124.265 E.07369
;WIDTH:0.434275
G1 X147.685 Y123.838 E.01632
;WIDTH:0.462805
G1 X147.717 Y123.781 E.00228
;WIDTH:0.491334
G1 X147.72 Y123.775 E.00025
M204 S1000
G1 X147.405 Y123.536 F10800
M204 S800
G1 F1200
G1 X147.251 Y123.799 E.01136
;WIDTH:0.458352
G1 X147.098 Y124.062 E.01051
;WIDTH:0.42537
G1 X147.091 Y124.073 E.00041
;WIDTH:0.425247
G1 X145.928 Y126.079 E.07371
;WIDTH:0.449354
G1 X145.657 Y126.494 E.01675
;WIDTH:0.475751
G1 X145.386 Y126.908 E.01781
;WIDTH:0.515208
G1 X145.333 Y126.997 E.00407
G1 X145.261 Y126.997 E.00283
;WIDTH:0.467603
G1 X145.188 Y126.996 E.00258
;WIDTH:0.420013
G1 X141.419 Y126.996 E.11818
G1 X141.275 Y126.928 E.00499
G1 X140.934 Y126.561 E.01571
G1 X140.469 Y125.856 E.02648
G1 X139.544 Y124.253 E.05803
G1 X139.291 Y123.689 E.01938
;WIDTH:0.4208
G1 X139.241 Y123.554 E.00452
G1 X139.265 Y123.441 E.00363
G1 X140.698 Y120.962 E.08997
;WIDTH:0.434314
G1 X141.202 Y120.129 E.03169
;WIDTH:0.462147
G1 X141.233 Y120.074 E.0022
;WIDTH:0.489979
G1 X141.263 Y120.019 E.00233
G1 X141.323 Y120.019 E.00223
;WIDTH:0.45499
G1 X141.383 Y120.019 E.00206
;WIDTH:0.42
G1 X145.229 Y120.019 E.12059
;WIDTH:0.454877
G1 X145.289 Y120.019 E.00206
;WIDTH:0.489753
G1 X145.349 Y120.019 E.00223
G1 X145.379 Y120.073 E.0023
;WIDTH:0.461961
G1 X145.409 Y120.127 E.00215
;WIDTH:0.434168
G1 X146.378 Y121.764 E.06189
;WIDTH:0.421714
G1 X146.876 Y122.629 E.03144
;WIDTH:0.437662
G1 X147.352 Y123.44 E.03087
;WIDTH:0.464498
G1 X147.376 Y123.483 E.00173
M204 S1000
G1 X147.751 Y123.346 F10800
M204 S800
