; generated by PrusaSlicer 2.7.1+win64 on 2024-04-29 at 05:58:58 UTC


;
;
; 

; external perimeters extrusion width = 0.60mm
; perimeters extrusion width = 0.50mm
; infill extrusion width = 0.50mm
; solid infill extrusion width = 0.50mm
; top infill extrusion width = 0.45mm
; first layer extrusion width = 0.42mm

M73 P0 R47
M73 Q0 S48
M201 X1000 Y1000 Z200 E5000 ; sets maximum accelerations, mm/sec^2
M203 X200 Y200 Z12 E120 ; sets maximum feedrates, mm / sec
M204 S1250 T1250 ; sets acceleration (S) and retract acceleration (R), mm/sec^2
M205 X8.00 Y8.00 Z0.40 E4.50 ; sets the jerk limits, mm/sec
M205 S0 T0 ; sets the minimum extruding and travel feed rate, mm/sec

; printing object mk3-Environment-sensors-case_bottom.stl id:0 copy 0
; stop printing object mk3-Environment-sensors-case_bottom.stl id:0 copy 0

;TYPE:Custom
M862.3 P "MK3S" ; printer model check
M862.1 P0.4 ; nozzle diameter check
M115 U3.13.2 ; tell printer latest fw version
G90 ; use absolute coordinates
M83 ; extruder relative mode
M104 S230 ; set extruder temp
M140 S85 ; set bed temp
M190 S85 ; wait for bed temp
M109 S230 ; wait for extruder temp
G28 W ; home all without mesh bed level
G80 ; mesh bed leveling

G1 Z0.2 F720
G1 Y-3 F1000 ; go outside print area
G92 E0
G1 X60 E9 F1000 ; intro line
G1 X100 E12.5 F1000 ; intro line

G92 E0
M221 S95

; Don't change E values below. Excessive value can damage the printer.

M907 E538 ; set extruder motor current
G21 ; set units to millimeters
G90 ; use absolute coordinates
M83 ; use relative distances for extrusion
M900 K0.08 ; Filament gcode LA 1.5
M900 K45 ; Filament gcode LA 1.0

M107
;LAYER_CHANGE
;Z:0.2
;HEIGHT:0.2
;BEFORE_LAYER_CHANGE
G92 E0.0
;0.2


G1 E-1 F2100
M73 Q0 S47
G1 Z.2 F720
;AFTER_LAYER_CHANGE
;0.2
G1 X81.015 Y69.193 F10800
G1 Z.2 F720
G1 E1 F2100
M204 S800
;TYPE:Skirt/Brim
;WIDTH:0.42
G1 F1200
G1 X82.06 Y68.317 E.04275
G1 X83 Y68.123 E.03009
G1 X167 Y68.123 E2.63376
G1 X168.307 Y68.515 E.04278
G1 X169.183 Y69.56 E.04275
G1 X169.377 Y70.5 E.03009
G1 X169.377 Y139.5 E2.16345
G1 X168.985 Y140.807 E.04278
G1 X167.94 Y141.683 E.04275
G1 X167 Y141.877 E.03009
G1 X83 Y141.877 E2.63376
G1 X81.693 Y141.485 E.04278
G1 X80.817 Y140.44 E.04275
G1 X80.623 Y139.5 E.03009
G1 X80.623 Y70.5 E2.16345
G1 X80.997 Y69.25 E.04091
M204 S1000
; printing object mk3-Environment-sensors-case_bottom.stl id:0 copy 0
;WIPE_START
G1 F8640
G1 X81.015 Y69.193 E-.0138
G1 X82.06 Y68.317 E-.31486
G1 X83 Y68.123 E-.22162
G1 X84.948 Y68.123 E-.44972
;WIPE_END
G1 Z.4 F720
G1 X83.787 Y138.713 F10800
G1 Z.2 F720
G1 E1 F2100
M204 S800
;TYPE:Perimeter
;WIDTH:0.419999
G1 F1200
G1 X83.787 Y71.287 E2.11409
G1 X166.213 Y71.287 E2.58441
G1 X166.213 Y79.265 E.25014
M73 P1 R47
M73 Q1 S47
G1 X166.213 Y138.713 E1.86395
G1 X83.847 Y138.713 E2.58252
M204 S1000
G1 X83.41 Y139.09 F10800
M204 S800
;TYPE:External perimeter
G1 F1200
G1 X83.41 Y70.91 E2.13773
G1 X166.59 Y70.91 E2.60805
G1 X166.59 Y79.265 E.26196
M73 P1 R46
G1 X166.59 Y139.09 E1.87577
G1 X83.47 Y139.09 E2.60616
M204 S1000
;WIPE_START
G1 F8640
G1 X83.41 Y139.09 E-.01385
G1 X83.41 Y134.819 E-.98615
;WIPE_END
G1 Z.4 F720
G1 X147.906 Y76.644 F10800
G1 Z.2 F720
G1 E1 F2100
M204 S800
;TYPE:Perimeter
G1 F1200
G1 X147.926 Y76.697 E.00178
G1 X147.931 Y76.77 E.00229
G1 X147.931 Y81.23 E.13984
G1 X147.888 Y81.447 E.00694
G1 X147.746 Y81.648 E.00772
G1 X143.783 Y83.949 E.14368
G1 X143.524 Y84.024 E.00845
G1 X143.279 Y83.979 E.00781
G1 X139.352 Y81.72 E.14205
G1 X139.16 Y81.537 E.00832
G1 X139.071 Y81.278 E.00859
G1 X139.069 Y76.77 E.14134
G1 X139.09 Y76.616 E.00487
G1 X139.176 Y76.439 E.00617
G1 X139.352 Y76.28 E.00744
G1 X143.217 Y74.051 E.13989
G1 X143.5 Y73.976 E.00918
G1 X143.783 Y74.051 E.00918
G1 X147.648 Y76.28 E.13989
G1 X147.824 Y76.439 E.00744
G1 X147.883 Y76.589 E.00505
M204 S1000
G1 X147.554 Y76.77 F10800
M204 S800
;TYPE:External perimeter
G1 F1200
G1 X147.554 Y81.23 E.13984
G1 X147.492 Y81.369 E.00477
G1 X143.594 Y83.622 E.14117
G1 X143.451 Y83.641 E.00452
G1 X139.54 Y81.393 E.14144
G1 X139.449 Y81.263 E.00498
M73 Q2 S47
G1 X139.453 Y76.719 E.14247
G1 X139.54 Y76.607 E.00445
M73 P2 R46
G1 X143.406 Y74.378 E.13992
G1 X143.533 Y74.356 E.00404
G1 X147.46 Y76.607 E.14192
G1 X147.542 Y76.712 E.00418
M204 S1000
;WIPE_START
G1 F8640
G1 X147.554 Y76.77 E-.01368
G1 X147.554 Y81.042 E-.98632
;WIPE_END
G1 Z.4 F720
G1 X123.772 Y93.877 F10800
G1 Z.2 F720
G1 E1 F2100
M204 S800
;WIDTH:0.489782
G1 F1200
G1 X123.745 Y93.926 E.00208
;WIDTH:0.461931
G1 X123.718 Y93.975 E.00195
;WIDTH:0.43408
G1 X123.228 Y94.81 E.03149
;WIDTH:0.421098
G1 X122.278 Y96.453 E.05968
;WIDTH:0.434307
G1 X121.774 Y97.286 E.03168
;WIDTH:0.462142
G1 X121.743 Y97.341 E.0022
;WIDTH:0.489977
G1 X121.713 Y97.396 E.00233
G1 X121.653 Y97.396 E.00223
;WIDTH:0.454989
G1 X119.61 Y97.396 E.07
;WIDTH:0.489969
G1 X117.627 Y97.396 E.07371
G1 X117.354 Y96.94 E.01976
;WIDTH:0.45554
G1 X117.08 Y96.485 E.01822
;WIDTH:0.42111
G1 X116.116 Y94.818 E.06056
;WIDTH:0.434301
G1 X115.621 Y93.975 E.03181
;WIDTH:0.462135
G1 X115.594 Y93.926 E.00195
;WIDTH:0.489968
G1 X115.567 Y93.877 E.00208
G1 X115.839 Y93.41 E.02009
;WIDTH:0.455586
G1 X116.112 Y92.944 E.01853
;WIDTH:0.421203
G1 X117.062 Y91.3 E.05972
;WIDTH:0.434185
G1 X117.566 Y90.467 E.03168
;WIDTH:0.461976
G1 X117.597 Y90.412 E.0022
;WIDTH:0.489766
G1 X117.627 Y90.358 E.0023
G1 X117.687 Y90.358 E.00223
;WIDTH:0.454883
G1 X117.747 Y90.358 E.00206
;WIDTH:0.42
G1 X121.593 Y90.358 E.12059
;WIDTH:0.454877
G1 X121.653 Y90.358 E.00206
;WIDTH:0.489754
G1 X121.713 Y90.358 E.00223
G1 X121.743 Y90.411 E.00226
;WIDTH:0.462024
G1 X121.773 Y90.465 E.00215
;WIDTH:0.434293
G1 X122.743 Y92.103 E.06195
;WIDTH:0.420834
G1 X123.223 Y92.934 E.03016
;WIDTH:0.434346
G1 X123.718 Y93.779 E.03187
;WIDTH:0.462064
G1 X123.743 Y93.824 E.00179
M204 S1000
G1 X124.116 Y94.065 F10800
M204 S800
;WIDTH:0.489938
G1 F1200
G1 X128.201 Y94.065 E.15184
G1 X128.231 Y94.119 E.0023
;WIDTH:0.46216
G1 X128.261 Y94.173 E.00215
;WIDTH:0.434382
G1 X129.2 Y95.756 E.05991
;WIDTH:0.42078
G1 X129.712 Y96.642 E.03215
;WIDTH:0.434303
G1 X130.207 Y97.486 E.03184
;WIDTH:0.462136
G1 X130.234 Y97.535 E.00195
;WIDTH:0.489968
G1 X130.261 Y97.584 E.00208
G1 X129.989 Y98.051 E.02009
;WIDTH:0.455586
G1 X129.716 Y98.517 E.01853
;WIDTH:0.421203
G1 X128.766 Y100.161 E.05972
;WIDTH:0.434184
G1 X128.262 Y100.994 E.03167
;WIDTH:0.461959
G1 X128.231 Y101.049 E.0022
;WIDTH:0.489733
G1 X128.201 Y101.103 E.0023
G1 X126.218 Y101.103 E.07367
;WIDTH:0.454866
G1 X124.175 Y101.103 E.06998
;WIDTH:0.489548
G1 X124.115 Y101.103 E.00223
G1 X124.085 Y101.05 E.00226
;WIDTH:0.461798
G1 X124.056 Y100.996 E.00213
;WIDTH:0.434048
G1 X123.086 Y99.358 E.06191
;WIDTH:0.420854
G1 X122.59 Y98.5 E.03114
;WIDTH:0.43457
G1 X122.11 Y97.682 E.03089
;WIDTH:0.462274
G1 X122.083 Y97.633 E.00195
;WIDTH:0.489977
G1 X122.056 Y97.584 E.00208
G1 X122.328 Y97.118 E.02006
;WIDTH:0.455546
G1 X122.6 Y96.652 E.01851
;WIDTH:0.421114
G1 X123.55 Y95.008 E.05971
;WIDTH:0.43408
G1 X124.054 Y94.175 E.03167
;WIDTH:0.461931
G1 X124.085 Y94.12 E.0022
;WIDTH:0.489782
G1 X124.086 Y94.117 E.00012
M204 S1000
;WIPE_START
G1 F8640
G1 X124.116 Y94.065 E-.01386
G1 X128.201 Y94.065 E-.94324
G1 X128.231 Y94.119 E-.01426
;WIPE_END
G1 E-.02864 F2100
G1 Z.4 F720
G1 X123.772 Y101.292 F10800
G1 Z.2 F720
G1 E1 F2100
M204 S800
;WIDTH:0.489548
G1 F1200
G1 X123.5 Y101.759 E.02007
;WIDTH:0.455318
G1 X123.228 Y102.226 E.01853
;WIDTH:0.421088
G1 X122.278 Y103.869 E.05968
;WIDTH:0.434218
G1 X121.774 Y104.702 E.03168
;WIDTH:0.461989
G1 X121.743 Y104.757 E.0022
;WIDTH:0.48976
G1 X121.713 Y104.811 E.0023
G1 X121.653 Y104.811 E.00223
;WIDTH:0.45488
G1 X119.61 Y104.811 E.06998
;WIDTH:0.489767
G1 X117.627 Y104.811 E.07368
G1 X117.346 Y104.342 E.02031
;WIDTH:0.455438
G1 X117.064 Y103.873 E.01877
;WIDTH:0.421109
G1 X116.117 Y102.234 E.05953
;WIDTH:0.434184
G1 X115.621 Y101.39 E.03185
;WIDTH:0.461973
G1 X115.594 Y101.341 E.00195
;WIDTH:0.489762
G1 X115.567 Y101.292 E.00208
G1 X115.839 Y100.825 E.02008
;WIDTH:0.455436
G1 X116.112 Y100.359 E.01853
;WIDTH:0.42111
G1 X117.062 Y98.715 E.05971
;WIDTH:0.43456
G1 X117.566 Y97.883 E.03168
;WIDTH:0.462265
G1 X117.597 Y97.828 E.0022
;WIDTH:0.489969
G1 X117.627 Y97.773 E.00233
G1 X119.61 Y97.773 E.07371
;WIDTH:0.454985
G1 X121.653 Y97.773 E.07
;WIDTH:0.489977
G1 X121.713 Y97.773 E.00223
G1 X121.986 Y98.229 E.01976
;WIDTH:0.455456
G1 X122.26 Y98.684 E.01822
;WIDTH:0.420934
G1 X122.759 Y99.547 E.03133
;WIDTH:0.434048
G1 X123.718 Y101.194 E.06198
;WIDTH:0.461798
G1 X123.743 Y101.239 E.00179
M204 S1000
;WIPE_START
G1 F8640
G1 X123.772 Y101.292 E-.01395
G1 X123.5 Y101.759 E-.12479
;WIPE_END
G1 E-.86126 F2100
G1 Z.4 F720
G1 X124.115 Y108.519 F10800
G1 Z.2 F720
G1 E1 F2100
M204 S800
;WIDTH:0.48975
G1 F1200
G1 X124.085 Y108.465 E.0023
;WIDTH:0.461957
G1 X124.056 Y108.411 E.00214
;WIDTH:0.434163
G1 X123.086 Y106.774 E.0619
;WIDTH:0.42002
G1 X123.066 Y106.74 E.00124
;WIDTH:0.434307
G1 X122.11 Y105.098 E.06183
;WIDTH:0.462034
G1 X122.083 Y105.049 E.00195
;WIDTH:0.48976
G1 X122.056 Y105 E.00208
G1 X122.328 Y104.533 E.02008
;WIDTH:0.45544
G1 X122.601 Y104.067 E.01853
;WIDTH:0.42112
G1 X123.553 Y102.419 E.05985
;WIDTH:0.433966
G1 X124.054 Y101.59 E.0315
;WIDTH:0.461757
G1 X124.085 Y101.535 E.0022
;WIDTH:0.489548
G1 X124.115 Y101.481 E.00229
G1 X124.175 Y101.481 E.00223
;WIDTH:0.454774
G1 X126.218 Y101.481 E.06996
;WIDTH:0.489733
G1 X128.201 Y101.481 E.07367
G1 X128.231 Y101.534 E.00226
;WIDTH:0.461998
G1 X128.261 Y101.588 E.00215
;WIDTH:0.434263
G1 X129.2 Y103.172 E.05992
;WIDTH:0.420777
G1 X129.712 Y104.058 E.03215
;WIDTH:0.434196
G1 X130.207 Y104.902 E.03183
;WIDTH:0.461983
G1 X130.234 Y104.951 E.00195
;WIDTH:0.48977
G1 X130.261 Y105 E.00208
G1 X129.989 Y105.467 E.02008
;WIDTH:0.45544
G1 X129.717 Y105.933 E.01851
;WIDTH:0.42111
G1 X128.766 Y107.577 E.05972
;WIDTH:0.43429
G1 X128.262 Y108.409 E.03166
M73 Q2 S46
;WIDTH:0.462224
G1 X128.231 Y108.464 E.0022
;WIDTH:0.490157
G1 X128.201 Y108.519 E.00233
G1 X128.14 Y108.519 E.00227
;WIDTH:0.455079
G1 X128.079 Y108.519 E.00209
;WIDTH:0.454875
G1 X126.097 Y108.519 E.06789
;WIDTH:0.48975
G1 X124.175 Y108.519 E.07141
M204 S1000
;WIPE_START
G1 F8640
G1 X124.115 Y108.519 E-.01385
G1 X124.085 Y108.465 E-.01426
;WIPE_END
G1 E-.97189 F2100
G1 Z.4 F720
G1 X136.749 Y101.292 F10800
G1 Z.2 F720
G1 E1 F2100
M204 S800
;WIDTH:0.489762
G1 F1200
G1 X136.477 Y101.759 E.02008
;WIDTH:0.455433
G1 X136.204 Y102.225 E.01853
;WIDTH:0.421104
G1 X135.254 Y103.869 E.05971
;WIDTH:0.434188
G1 X134.75 Y104.702 E.03168
;WIDTH:0.461978
G1 X134.719 Y104.757 E.0022
;WIDTH:0.489768
G1 X134.689 Y104.811 E.0023
G1 X134.629 Y104.811 E.00223
;WIDTH:0.454884
G1 X134.569 Y104.811 E.00206
;WIDTH:0.42144
G1 X130.708 Y104.811 E.12152
;WIDTH:0.455605
G1 X130.656 Y104.811 E.00178
;WIDTH:0.48977
G1 X130.604 Y104.811 E.00193
G1 X130.323 Y104.342 E.02031
;WIDTH:0.455309
G1 X130.041 Y103.873 E.01877
;WIDTH:0.420848
G1 X129.524 Y102.978 E.03248
;WIDTH:0.434263
G1 X128.598 Y101.39 E.05982
;WIDTH:0.461998
G1 X128.571 Y101.341 E.00195
;WIDTH:0.489733
G1 X128.544 Y101.292 E.00208
G1 X128.816 Y100.825 E.02008
;WIDTH:0.455421
G1 X129.089 Y100.359 E.01852
;WIDTH:0.421109
G1 X130.039 Y98.715 E.05971
;WIDTH:0.434558
G1 X130.543 Y97.883 E.03168
;WIDTH:0.462263
G1 X130.574 Y97.828 E.0022
;WIDTH:0.489968
G1 X130.604 Y97.773 E.00233
G1 X130.664 Y97.773 E.00223
;WIDTH:0.454984
G1 X132.707 Y97.773 E.07
;WIDTH:0.489969
G1 X134.689 Y97.773 E.07368
G1 X134.97 Y98.242 E.02032
;WIDTH:0.455586
G1 X135.252 Y98.711 E.01878
;WIDTH:0.421202
G1 X136.199 Y100.35 E.05954
;WIDTH:0.434184
G1 X136.695 Y101.194 E.03185
;WIDTH:0.461973
G1 X136.72 Y101.239 E.00179
M204 S1000
;WIPE_START
G1 F8640
G1 X136.749 Y101.292 E-.01395
G1 X136.477 Y101.759 E-.12479
;WIPE_END
G1 E-.86126 F2100
G1 Z.4 F720
G1 X143.237 Y105 F10800
G1 Z.2 F720
G1 E1 F2100
M204 S800
;WIDTH:0.489749
G1 F1200
G1 X142.965 Y105.467 E.02008
;WIDTH:0.45543
G1 X142.693 Y105.933 E.01851
;WIDTH:0.421111
G1 X141.743 Y107.577 E.05971
;WIDTH:0.434293
G1 X141.239 Y108.409 E.03166
;WIDTH:0.462119
G1 X141.208 Y108.464 E.0022
;WIDTH:0.489945
G1 X141.178 Y108.519 E.00233
G1 X137.092 Y108.519 E.15188
G1 X136.811 Y108.05 E.02032
;WIDTH:0.455537
G1 X136.529 Y107.581 E.01878
;WIDTH:0.42111
G1 X135.582 Y105.942 E.05953
;WIDTH:0.43419
G1 X135.086 Y105.098 E.03185
;WIDTH:0.461979
G1 X135.059 Y105.049 E.00195
;WIDTH:0.489768
G1 X135.032 Y105 E.00208
G1 X135.304 Y104.533 E.02008
;WIDTH:0.455438
G1 X135.577 Y104.067 E.01853
;WIDTH:0.421108
G1 X136.527 Y102.423 E.05971
;WIDTH:0.434182
G1 X137.031 Y101.59 E.03167
;WIDTH:0.461972
G1 X137.062 Y101.535 E.0022
;WIDTH:0.489762
G1 X137.092 Y101.481 E.0023
G1 X139.075 Y101.481 E.07368
;WIDTH:0.454881
G1 X141.118 Y101.481 E.06998
;WIDTH:0.489744
G1 X141.178 Y101.481 E.00223
G1 X141.208 Y101.535 E.0023
;WIDTH:0.461996
G1 X141.238 Y101.589 E.00215
;WIDTH:0.434247
G1 X141.974 Y102.821 E.0467
;WIDTH:0.420114
G1 X142.459 Y103.662 E.03045
;WIDTH:0.434253
G1 X143.183 Y104.902 E.04672
;WIDTH:0.462001
G1 X143.208 Y104.947 E.00179
M204 S1000
;WIPE_START
G1 F8640
G1 X143.237 Y105 E-.01395
G1 X142.965 Y105.467 E-.12479
;WIPE_END
G1 E-.86126 F2100
G1 Z.4 F720
G1 X130.604 Y112.226 F10800
G1 Z.2 F720
G1 E1 F2100
M204 S800
;WIDTH:0.489763
G1 F1200
G1 X130.581 Y112.184 E.00178
;WIDTH:0.462409
G1 X130.557 Y112.141 E.00172
;WIDTH:0.435054
G1 X130.041 Y111.288 E.03251
;WIDTH:0.420845
G1 X129.363 Y110.115 E.04258
;WIDTH:0.42501
G1 X128.688 Y108.951 E.04275
;WIDTH:0.457584
G1 X128.616 Y108.829 E.00488
;WIDTH:0.490157
G1 X128.544 Y108.707 E.00527
G1 X128.816 Y108.241 E.02007
;WIDTH:0.455633
G1 X129.088 Y107.775 E.01852
;WIDTH:0.421109
G1 X130.039 Y106.131 E.05972
;WIDTH:0.43419
G1 X130.543 Y105.298 E.03168
;WIDTH:0.46198
G1 X130.574 Y105.243 E.0022
;WIDTH:0.48977
G1 X130.604 Y105.189 E.0023
G1 X130.664 Y105.189 E.00223
;WIDTH:0.454885
G1 X130.724 Y105.189 E.00206
;WIDTH:0.421438
G1 X134.585 Y105.189 E.12152
;WIDTH:0.455603
G1 X134.637 Y105.189 E.00178
;WIDTH:0.489768
G1 X134.689 Y105.189 E.00193
G1 X134.97 Y105.658 E.02031
;WIDTH:0.455439
G1 X135.252 Y106.127 E.01877
;WIDTH:0.42111
G1 X136.199 Y107.766 E.05953
;WIDTH:0.434292
G1 X136.695 Y108.609 E.03183
;WIDTH:0.462128
G1 X136.722 Y108.658 E.00195
;WIDTH:0.489964
G1 X136.749 Y108.707 E.00208
G1 X136.477 Y109.174 E.02009
;WIDTH:0.455584
G1 X136.204 Y109.64 E.01853
;WIDTH:0.421203
G1 X135.254 Y111.284 E.05972
;WIDTH:0.434183
G1 X134.75 Y112.117 E.03167
;WIDTH:0.461974
G1 X134.719 Y112.172 E.0022
;WIDTH:0.489764
G1 X134.689 Y112.226 E.0023
G1 X134.629 Y112.226 E.00223
;WIDTH:0.454882
G1 X134.569 Y112.226 E.00206
;WIDTH:0.42144
G1 X130.708 Y112.226 E.12152
;WIDTH:0.455602
G1 X130.664 Y112.226 E.00151
M204 S1000
G1 X130.261 Y112.415 F10800
M204 S800
;WIDTH:0.489763
G1 F1200
G1 X129.989 Y112.882 E.02008
;WIDTH:0.455434
G1 X129.716 Y113.348 E.01853
;WIDTH:0.421104
G1 X128.766 Y114.992 E.05971
;WIDTH:0.434183
G1 X128.262 Y115.825 E.03167
;WIDTH:0.461974
G1 X128.231 Y115.88 E.0022
;WIDTH:0.489765
G1 X128.201 Y115.934 E.0023
G1 X128.141 Y115.934 E.00223
;WIDTH:0.454883
G1 X128.081 Y115.934 E.00206
;WIDTH:0.421441
G1 X124.219 Y115.934 E.12155
;WIDTH:0.455495
G1 X124.167 Y115.934 E.00178
;WIDTH:0.489548
G1 X124.115 Y115.934 E.00193
G1 X124.086 Y115.881 E.00224
;WIDTH:0.461798
G1 X124.056 Y115.827 E.00215
;WIDTH:0.434048
G1 X123.086 Y114.189 E.06191
;WIDTH:0.42001
G1 X122.875 Y113.824 E.01322
;WIDTH:0.424792
G1 X122.2 Y112.66 E.04273
;WIDTH:0.457383
G1 X122.128 Y112.537 E.00491
;WIDTH:0.489973
G1 X122.056 Y112.415 E.00527
G1 X122.328 Y111.948 E.02009
;WIDTH:0.455547
G1 X122.601 Y111.482 E.01853
;WIDTH:0.42112
G1 X123.55 Y109.839 E.05967
;WIDTH:0.43434
G1 X124.054 Y109.005 E.03172
;WIDTH:0.435185
G1 X124.068 Y108.982 E.00088
;WIDTH:0.462468
G1 X124.092 Y108.939 E.00172
;WIDTH:0.48975
G1 X124.116 Y108.896 E.00183
G1 X124.175 Y108.896 E.00219
;WIDTH:0.454875
G1 X124.235 Y108.896 E.00206
;WIDTH:0.42144
G1 X128.096 Y108.896 E.12152
;WIDTH:0.455799
G1 X128.148 Y108.896 E.00179
;WIDTH:0.490157
G1 X128.2 Y108.896 E.00193
G1 X128.279 Y109.02 E.00547
;WIDTH:0.457584
G1 X128.358 Y109.144 E.00507
;WIDTH:0.42501
G1 X129.038 Y110.306 E.04277
