(VECTRIC POST REVISION)
(B2925ED459631B7A3767E32CB7BCFE47)
%
G21
G40
G94
G97
G64
G90
T1 M6
M8
M3 S10000
G0 X6.045 Y6.512
G0 Z5.080
G1 X6.045 Y6.512 Z-0.450 F1000.0
G1 X6.016 Y6.545 Z-0.450 F3000.0
G1 X5.980 Y6.519 Z-0.450
G1 X6.003 Y6.481 Z-0.450
G1 X6.043 Y6.500 Z-0.450
G1 X6.045 Y6.512 Z-0.450
G1 X6.125 Y6.512 Z-0.450
G1 X6.092 Y6.592 Z-0.450
G1 X6.012 Y6.625 Z-0.450
G1 X5.933 Y6.592 Z-0.450
G1 X5.900 Y6.512 Z-0.450
G1 X5.933 Y6.433 Z-0.450
G1 X6.012 Y6.400 Z-0.450
G1 X6.092 Y6.433 Z-0.450
G1 X6.125 Y6.512 Z-0.450
G1 X6.205 Y6.512 Z-0.450
G1 X6.173 Y6.620 Z-0.450
G1 X6.086 Y6.691 Z-0.450
G1 X5.975 Y6.702 Z-0.450
G1 X5.876 Y6.649 Z-0.450
G1 X5.823 Y6.550 Z-0.450
G1 X5.834 Y6.439 Z-0.450
G1 X5.905 Y6.352 Z-0.450
G1 X6.012 Y6.320 Z-0.450
G1 X6.120 Y6.352 Z-0.450
G1 X6.191 Y6.439 Z-0.450
G1 X6.205 Y6.512 Z-0.450
G1 X6.285 Y6.512 Z-0.450
G1 X6.253 Y6.641 Z-0.450
G1 X6.164 Y6.739 Z-0.450
G1 X6.039 Y6.784 Z-0.450
G1 X5.908 Y6.765 Z-0.450
G1 X5.801 Y6.686 Z-0.450
G1 X5.745 Y6.566 Z-0.450
G1 X5.751 Y6.433 Z-0.450
G1 X5.819 Y6.319 Z-0.450
G1 X5.933 Y6.251 Z-0.450
G1 X6.066 Y6.245 Z-0.450
G1 X6.186 Y6.301 Z-0.450
G1 X6.265 Y6.408 Z-0.450
G1 X6.285 Y6.512 Z-0.450
G1 X6.366 Y6.512 Z-0.450
G1 X6.339 Y6.648 Z-0.450
G1 X6.262 Y6.762 Z-0.450
G1 X6.148 Y6.839 Z-0.450
G1 X6.012 Y6.866 Z-0.450
G1 X5.877 Y6.839 Z-0.450
G1 X5.763 Y6.762 Z-0.450
G1 X5.686 Y6.648 Z-0.450
G1 X5.659 Y6.512 Z-0.450
G1 X5.686 Y6.377 Z-0.450
G1 X5.763 Y6.263 Z-0.450
G1 X5.877 Y6.186 Z-0.450
G1 X6.012 Y6.159 Z-0.450
G1 X6.148 Y6.186 Z-0.450
G1 X6.262 Y6.263 Z-0.450
G1 X6.339 Y6.377 Z-0.450
G1 X6.366 Y6.512 Z-0.450
G1 X6.446 Y6.512 Z-0.450
G1 X6.413 Y6.678 Z-0.450
G1 X6.319 Y6.819 Z-0.450
G1 X6.178 Y6.913 Z-0.450
G1 X6.012 Y6.946 Z-0.450
G1 X5.847 Y6.913 Z-0.450
G1 X5.706 Y6.819 Z-0.450
G1 X5.612 Y6.678 Z-0.450
G1 X5.579 Y6.512 Z-0.450
G1 X5.612 Y6.347 Z-0.450
G1 X5.706 Y6.206 Z-0.450
G1 X5.847 Y6.112 Z-0.450
G1 X6.012 Y6.079 Z-0.450
G1 X6.178 Y6.112 Z-0.450
G1 X6.319 Y6.206 Z-0.450
G1 X6.413 Y6.347 Z-0.450
G1 X6.446 Y6.512 Z-0.450
G1 X6.526 Y6.512 Z-0.450
G1 X6.487 Y6.709 Z-0.450
G1 X6.375 Y6.875 Z-0.450
G1 X6.209 Y6.987 Z-0.450
G1 X6.012 Y7.026 Z-0.450
G1 X5.816 Y6.987 Z-0.450
G1 X5.650 Y6.875 Z-0.450
G1 X5.538 Y6.709 Z-0.450
G1 X5.499 Y6.512 Z-0.450
G1 X5.538 Y6.316 Z-0.450
G1 X5.650 Y6.150 Z-0.450
G1 X5.816 Y6.038 Z-0.450
G1 X6.012 Y5.999 Z-0.450
G1 X6.209 Y6.038 Z-0.450
G1 X6.375 Y6.150 Z-0.450
G1 X6.487 Y6.316 Z-0.450
G1 X6.526 Y6.512 Z-0.450
G1 X6.606 Y6.512 Z-0.450
G1 X6.580 Y6.685 Z-0.450
G1 X6.506 Y6.842 Z-0.450
G1 X6.389 Y6.971 Z-0.450
G1 X6.240 Y7.061 Z-0.450
G1 X6.071 Y7.103 Z-0.450
G1 X5.897 Y7.094 Z-0.450
G1 X5.733 Y7.036 Z-0.450
G1 X5.593 Y6.932 Z-0.450
G1 X5.489 Y6.792 Z-0.450
G1 X5.431 Y6.628 Z-0.450
G1 X5.422 Y6.454 Z-0.450
G1 X5.464 Y6.285 Z-0.450
G1 X5.554 Y6.136 Z-0.450
G1 X5.683 Y6.019 Z-0.450
G1 X5.840 Y5.945 Z-0.450
G1 X6.012 Y5.919 Z-0.450
G1 X6.185 Y5.945 Z-0.450
G1 X6.342 Y6.019 Z-0.450
G1 X6.471 Y6.136 Z-0.450
G1 X6.561 Y6.285 Z-0.450
G1 X6.603 Y6.454 Z-0.450
G1 X6.606 Y6.512 Z-0.450
G1 X6.686 Y6.512 Z-0.450
G1 X6.657 Y6.708 Z-0.450
G1 X6.572 Y6.887 Z-0.450
G1 X6.440 Y7.033 Z-0.450
G1 X6.270 Y7.135 Z-0.450
G1 X6.079 Y7.183 Z-0.450
G1 X5.881 Y7.173 Z-0.450
G1 X5.695 Y7.106 Z-0.450
G1 X5.536 Y6.989 Z-0.450
G1 X5.419 Y6.830 Z-0.450
G1 X5.352 Y6.644 Z-0.450
G1 X5.342 Y6.446 Z-0.450
G1 X5.390 Y6.255 Z-0.450
G1 X5.492 Y6.085 Z-0.450
G1 X5.638 Y5.953 Z-0.450
G1 X5.817 Y5.868 Z-0.450
G1 X6.012 Y5.839 Z-0.450
G1 X6.208 Y5.868 Z-0.450
G1 X6.387 Y5.953 Z-0.450
G1 X6.533 Y6.085 Z-0.450
G1 X6.635 Y6.255 Z-0.450
G1 X6.683 Y6.446 Z-0.450
G1 X6.686 Y6.512 Z-0.450
G1 X6.766 Y6.512 Z-0.450
G1 X6.734 Y6.731 Z-0.450
G1 X6.639 Y6.931 Z-0.450
G1 X6.491 Y7.095 Z-0.450
G1 X6.301 Y7.209 Z-0.450
G1 X6.086 Y7.262 Z-0.450
G1 X5.865 Y7.252 Z-0.450
G1 X5.657 Y7.177 Z-0.450
G1 X5.480 Y7.045 Z-0.450
G1 X5.348 Y6.868 Z-0.450
G1 X5.273 Y6.660 Z-0.450
G1 X5.263 Y6.439 Z-0.450
G1 X5.316 Y6.224 Z-0.450
G1 X5.430 Y6.034 Z-0.450
G1 X5.594 Y5.886 Z-0.450
G1 X5.794 Y5.791 Z-0.450
G1 X6.012 Y5.759 Z-0.450
G1 X6.231 Y5.791 Z-0.450
G1 X6.431 Y5.886 Z-0.450
G1 X6.595 Y6.034 Z-0.450
G1 X6.709 Y6.224 Z-0.450
G1 X6.762 Y6.439 Z-0.450
G1 X6.766 Y6.512 Z-0.450
G1 X6.846 Y6.512 Z-0.450
G1 X6.810 Y6.754 Z-0.450
G1 X6.706 Y6.976 Z-0.450
G1 X6.541 Y7.157 Z-0.450
G1 X6.332 Y7.283 Z-0.450
G1 X6.094 Y7.342 Z-0.450
G1 X5.850 Y7.330 Z-0.450
G1 X5.620 Y7.248 Z-0.450
G1 X5.423 Y7.102 Z-0.450
G1 X5.277 Y6.905 Z-0.450
G1 X5.195 Y6.675 Z-0.450
G1 X5.183 Y6.431 Z-0.450
G1 X5.242 Y6.193 Z-0.450
G1 X5.368 Y5.984 Z-0.450
G1 X5.549 Y5.819 Z-0.450
G1 X5.771 Y5.715 Z-0.450
G1 X6.012 Y5.679 Z-0.450
G1 X6.254 Y5.715 Z-0.450
G1 X6.476 Y5.819 Z-0.450
G1 X6.657 Y5.984 Z-0.450
G1 X6.783 Y6.193 Z-0.450
G1 X6.842 Y6.431 Z-0.450
G1 X6.846 Y6.512 Z-0.450
G1 X6.926 Y6.512 Z-0.450
G1 X6.887 Y6.778 Z-0.450
G1 X6.772 Y7.020 Z-0.450
G1 X6.592 Y7.219 Z-0.450
G1 X6.362 Y7.357 Z-0.450
G1 X6.102 Y7.422 Z-0.450
G1 X5.834 Y7.409 Z-0.450
G1 X5.582 Y7.318 Z-0.450
G1 X5.366 Y7.159 Z-0.450
G1 X5.207 Y6.943 Z-0.450
G1 X5.116 Y6.691 Z-0.450
G1 X5.103 Y6.423 Z-0.450
G1 X5.168 Y6.163 Z-0.450
G1 X5.306 Y5.933 Z-0.450
G1 X5.505 Y5.753 Z-0.450
G1 X5.747 Y5.638 Z-0.450
G1 X6.012 Y5.599 Z-0.450
G1 X6.278 Y5.638 Z-0.450
G1 X6.520 Y5.753 Z-0.450
G1 X6.719 Y5.933 Z-0.450
G1 X6.857 Y6.163 Z-0.450
G1 X6.922 Y6.423 Z-0.450
G1 X6.926 Y6.512 Z-0.450
G1 X7.006 Y6.512 Z-0.450
G1 X6.964 Y6.801 Z-0.450
G1 X6.839 Y7.065 Z-0.450
G1 X6.643 Y7.281 Z-0.450
G1 X6.393 Y7.431 Z-0.450
G1 X6.110 Y7.502 Z-0.450
G1 X5.819 Y7.487 Z-0.450
G1 X5.544 Y7.389 Z-0.450
G1 X5.310 Y7.215 Z-0.450
G1 X5.136 Y6.981 Z-0.450
G1 X5.038 Y6.706 Z-0.450
G1 X5.023 Y6.415 Z-0.450
G1 X5.094 Y6.132 Z-0.450
G1 X5.244 Y5.882 Z-0.450
G1 X5.460 Y5.686 Z-0.450
G1 X5.724 Y5.561 Z-0.450
G1 X6.012 Y5.519 Z-0.450
G1 X6.301 Y5.561 Z-0.450
G1 X6.565 Y5.686 Z-0.450
G1 X6.781 Y5.882 Z-0.450
G1 X6.931 Y6.132 Z-0.450
G1 X7.002 Y6.415 Z-0.450
G1 X7.006 Y6.512 Z-0.450
G1 X7.086 Y6.512 Z-0.450
G1 X7.066 Y6.722 Z-0.450
G1 X7.005 Y6.923 Z-0.450
G1 X6.905 Y7.109 Z-0.450
G1 X6.772 Y7.272 Z-0.450
G1 X6.609 Y7.405 Z-0.450
G1 X6.423 Y7.505 Z-0.450
G1 X6.222 Y7.566 Z-0.450
G1 X6.012 Y7.586 Z-0.450
G1 X5.803 Y7.566 Z-0.450
G1 X5.602 Y7.505 Z-0.450
G1 X5.416 Y7.405 Z-0.450
G1 X5.253 Y7.272 Z-0.450
G1 X5.120 Y7.109 Z-0.450
G1 X5.020 Y6.923 Z-0.450
G1 X4.959 Y6.722 Z-0.450
G1 X4.939 Y6.512 Z-0.450
G1 X4.959 Y6.303 Z-0.450
G1 X5.020 Y6.102 Z-0.450
G1 X5.120 Y5.916 Z-0.450
G1 X5.253 Y5.753 Z-0.450
G1 X5.416 Y5.620 Z-0.450
G1 X5.602 Y5.520 Z-0.450
G1 X5.803 Y5.459 Z-0.450
G1 X6.012 Y5.439 Z-0.450
G1 X6.222 Y5.459 Z-0.450
G1 X6.423 Y5.520 Z-0.450
G1 X6.609 Y5.620 Z-0.450
G1 X6.772 Y5.753 Z-0.450
G1 X6.905 Y5.916 Z-0.450
G1 X7.005 Y6.102 Z-0.450
G1 X7.066 Y6.303 Z-0.450
G1 X7.086 Y6.512 Z-0.450
G1 X7.167 Y6.512 Z-0.450
G1 X7.144 Y6.738 Z-0.450
G1 X7.079 Y6.954 Z-0.450
G1 X6.972 Y7.154 Z-0.450
G1 X6.829 Y7.329 Z-0.450
G1 X6.654 Y7.472 Z-0.450
G1 X6.454 Y7.579 Z-0.450
G1 X6.238 Y7.644 Z-0.450
G1 X6.012 Y7.667 Z-0.450
G1 X5.787 Y7.644 Z-0.450
G1 X5.571 Y7.579 Z-0.450
G1 X5.371 Y7.472 Z-0.450
G1 X5.196 Y7.329 Z-0.450
G1 X5.053 Y7.154 Z-0.450
G1 X4.946 Y6.954 Z-0.450
G1 X4.881 Y6.738 Z-0.450
G1 X4.858 Y6.512 Z-0.450
G1 X4.881 Y6.287 Z-0.450
G1 X4.946 Y6.071 Z-0.450
G1 X5.053 Y5.871 Z-0.450
G1 X5.196 Y5.696 Z-0.450
G1 X5.371 Y5.553 Z-0.450
G1 X5.571 Y5.446 Z-0.450
G1 X5.787 Y5.381 Z-0.450
G1 X6.012 Y5.358 Z-0.450
G1 X6.238 Y5.381 Z-0.450
G1 X6.454 Y5.446 Z-0.450
G1 X6.654 Y5.553 Z-0.450
G1 X6.829 Y5.696 Z-0.450
G1 X6.972 Y5.871 Z-0.450
G1 X7.079 Y6.071 Z-0.450
G1 X7.144 Y6.287 Z-0.450
G1 X7.167 Y6.512 Z-0.450
G1 X7.247 Y6.512 Z-0.450
G1 X7.223 Y6.753 Z-0.450
G1 X7.153 Y6.985 Z-0.450
G1 X7.039 Y7.198 Z-0.450
G1 X6.885 Y7.385 Z-0.450
G1 X6.698 Y7.539 Z-0.450
G1 X6.485 Y7.653 Z-0.450
G1 X6.253 Y7.723 Z-0.450
G1 X6.012 Y7.747 Z-0.450
G1 X5.772 Y7.723 Z-0.450
G1 X5.540 Y7.653 Z-0.450
G1 X5.327 Y7.539 Z-0.450
G1 X5.140 Y7.385 Z-0.450
G1 X4.986 Y7.198 Z-0.450
G1 X4.872 Y6.985 Z-0.450
G1 X4.802 Y6.753 Z-0.450
G1 X4.778 Y6.512 Z-0.450
G1 X4.802 Y6.272 Z-0.450
G1 X4.872 Y6.040 Z-0.450
G1 X4.986 Y5.827 Z-0.450
G1 X5.140 Y5.640 Z-0.450
G1 X5.327 Y5.486 Z-0.450
G1 X5.540 Y5.372 Z-0.450
G1 X5.772 Y5.302 Z-0.450
G1 X6.012 Y5.278 Z-0.450
G1 X6.253 Y5.302 Z-0.450
G1 X6.485 Y5.372 Z-0.450
G1 X6.698 Y5.486 Z-0.450
G1 X6.885 Y5.640 Z-0.450
G1 X7.039 Y5.827 Z-0.450
G1 X7.153 Y6.040 Z-0.450
G1 X7.223 Y6.272 Z-0.450
G1 X7.247 Y6.512 Z-0.450
G1 X7.327 Y6.512 Z-0.450
G1 X7.301 Y6.769 Z-0.450
G1 X7.227 Y7.015 Z-0.450
G1 X7.105 Y7.243 Z-0.450
G1 X6.942 Y7.442 Z-0.450
G1 X6.743 Y7.605 Z-0.450
G1 X6.515 Y7.727 Z-0.450
G1 X6.269 Y7.801 Z-0.450
G1 X6.012 Y7.827 Z-0.450
G1 X5.756 Y7.801 Z-0.450
G1 X5.510 Y7.727 Z-0.450
G1 X5.282 Y7.605 Z-0.450
G1 X5.083 Y7.442 Z-0.450
G1 X4.920 Y7.243 Z-0.450
G1 X4.798 Y7.015 Z-0.450
G1 X4.724 Y6.769 Z-0.450
G1 X4.698 Y6.512 Z-0.450
G1 X4.724 Y6.256 Z-0.450
G1 X4.798 Y6.010 Z-0.450
G1 X4.920 Y5.782 Z-0.450
G1 X5.083 Y5.583 Z-0.450
G1 X5.282 Y5.420 Z-0.450
G1 X5.510 Y5.298 Z-0.450
G1 X5.756 Y5.224 Z-0.450
G1 X6.012 Y5.198 Z-0.450
G1 X6.269 Y5.224 Z-0.450
G1 X6.515 Y5.298 Z-0.450
G1 X6.743 Y5.420 Z-0.450
G1 X6.942 Y5.583 Z-0.450
G1 X7.105 Y5.782 Z-0.450
G1 X7.227 Y6.010 Z-0.450
G1 X7.301 Y6.256 Z-0.450
G1 X7.327 Y6.512 Z-0.450
G1 X7.407 Y6.512 Z-0.450
G1 X7.380 Y6.785 Z-0.450
G1 X7.301 Y7.046 Z-0.450
G1 X7.172 Y7.287 Z-0.450
G1 X6.998 Y7.498 Z-0.450
G1 X6.787 Y7.672 Z-0.450
G1 X6.546 Y7.801 Z-0.450
G1 X6.285 Y7.880 Z-0.450
G1 X6.012 Y7.907 Z-0.450
G1 X5.740 Y7.880 Z-0.450
G1 X5.479 Y7.801 Z-0.450
G1 X5.238 Y7.672 Z-0.450
G1 X5.027 Y7.498 Z-0.450
G1 X4.853 Y7.287 Z-0.450
G1 X4.724 Y7.046 Z-0.450
G1 X4.645 Y6.785 Z-0.450
G1 X4.618 Y6.512 Z-0.450
G1 X4.645 Y6.240 Z-0.450
G1 X4.724 Y5.979 Z-0.450
G1 X4.853 Y5.738 Z-0.450
G1 X5.027 Y5.527 Z-0.450
G1 X5.238 Y5.353 Z-0.450
G1 X5.479 Y5.224 Z-0.450
G1 X5.740 Y5.145 Z-0.450
G1 X6.012 Y5.118 Z-0.450
G1 X6.285 Y5.145 Z-0.450
G1 X6.546 Y5.224 Z-0.450
G1 X6.787 Y5.353 Z-0.450
G1 X6.998 Y5.527 Z-0.450
G1 X7.172 Y5.738 Z-0.450
G1 X7.301 Y5.979 Z-0.450
G1 X7.380 Y6.240 Z-0.450
G1 X7.407 Y6.512 Z-0.450
G1 X7.487 Y6.512 Z-0.450
G1 X7.459 Y6.800 Z-0.450
G1 X7.375 Y7.077 Z-0.450
G1 X7.238 Y7.332 Z-0.450
G1 X7.055 Y7.555 Z-0.450
G1 X6.832 Y7.738 Z-0.450
G1 X6.577 Y7.875 Z-0.450
G1 X6.300 Y7.959 Z-0.450
G1 X6.012 Y7.987 Z-0.450
G1 X5.725 Y7.959 Z-0.450
G1 X5.448 Y7.875 Z-0.450
G1 X5.193 Y7.738 Z-0.450
G1 X4.970 Y7.555 Z-0.450
G1 X4.787 Y7.332 Z-0.450
G1 X4.650 Y7.077 Z-0.450
G1 X4.566 Y6.800 Z-0.450
G1 X4.538 Y6.512 Z-0.450
G1 X4.566 Y6.225 Z-0.450
G1 X4.650 Y5.948 Z-0.450
G1 X4.787 Y5.693 Z-0.450
G1 X4.970 Y5.470 Z-0.450
G1 X5.193 Y5.287 Z-0.450
G1 X5.448 Y5.150 Z-0.450
G1 X5.725 Y5.066 Z-0.450
G1 X6.012 Y5.038 Z-0.450
G1 X6.300 Y5.066 Z-0.450
G1 X6.577 Y5.150 Z-0.450
G1 X6.832 Y5.287 Z-0.450
G1 X7.055 Y5.470 Z-0.450
G1 X7.238 Y5.693 Z-0.450
G1 X7.375 Y5.948 Z-0.450
G1 X7.459 Y6.225 Z-0.450
G1 X7.487 Y6.512 Z-0.450
G1 X7.567 Y6.512 Z-0.450
G1 X7.537 Y6.816 Z-0.450
G1 X7.449 Y7.107 Z-0.450
G1 X7.305 Y7.376 Z-0.450
G1 X7.112 Y7.612 Z-0.450
G1 X6.876 Y7.805 Z-0.450
G1 X6.607 Y7.949 Z-0.450
G1 X6.316 Y8.037 Z-0.450
G1 X6.012 Y8.067 Z-0.450
G1 X5.709 Y8.037 Z-0.450
G1 X5.418 Y7.949 Z-0.450
G1 X5.149 Y7.805 Z-0.450
G1 X4.913 Y7.612 Z-0.450
G1 X4.720 Y7.376 Z-0.450
G1 X4.576 Y7.107 Z-0.450
G1 X4.488 Y6.816 Z-0.450
G1 X4.458 Y6.512 Z-0.450
G1 X4.488 Y6.209 Z-0.450
G1 X4.576 Y5.918 Z-0.450
G1 X4.720 Y5.649 Z-0.450
G1 X4.913 Y5.413 Z-0.450
G1 X5.149 Y5.220 Z-0.450
G1 X5.418 Y5.076 Z-0.450
G1 X5.709 Y4.988 Z-0.450
G1 X6.012 Y4.958 Z-0.450
G1 X6.316 Y4.988 Z-0.450
G1 X6.607 Y5.076 Z-0.450
G1 X6.876 Y5.220 Z-0.450
G1 X7.112 Y5.413 Z-0.450
G1 X7.305 Y5.649 Z-0.450
G1 X7.449 Y5.918 Z-0.450
G1 X7.537 Y6.209 Z-0.450
G1 X7.567 Y6.512 Z-0.450
G1 X7.647 Y6.512 Z-0.450
G1 X7.616 Y6.831 Z-0.450
G1 X7.523 Y7.138 Z-0.450
G1 X7.372 Y7.421 Z-0.450
G1 X7.168 Y7.668 Z-0.450
G1 X6.921 Y7.872 Z-0.450
G1 X6.638 Y8.023 Z-0.450
G1 X6.331 Y8.116 Z-0.450
G1 X6.012 Y8.147 Z-0.450
G1 X5.694 Y8.116 Z-0.450
G1 X5.387 Y8.023 Z-0.450
G1 X5.104 Y7.872 Z-0.450
G1 X4.857 Y7.668 Z-0.450
G1 X4.653 Y7.421 Z-0.450
G1 X4.502 Y7.138 Z-0.450
G1 X4.409 Y6.831 Z-0.450
G1 X4.378 Y6.512 Z-0.450
G1 X4.409 Y6.194 Z-0.450
G1 X4.502 Y5.887 Z-0.450
G1 X4.653 Y5.604 Z-0.450
G1 X4.857 Y5.357 Z-0.450
G1 X5.104 Y5.153 Z-0.450
G1 X5.387 Y5.002 Z-0.450
G1 X5.694 Y4.909 Z-0.450
G1 X6.012 Y4.878 Z-0.450
G1 X6.331 Y4.909 Z-0.450
G1 X6.638 Y5.002 Z-0.450
G1 X6.921 Y5.153 Z-0.450
G1 X7.168 Y5.357 Z-0.450
G1 X7.372 Y5.604 Z-0.450
G1 X7.523 Y5.887 Z-0.450
G1 X7.616 Y6.194 Z-0.450
G1 X7.647 Y6.512 Z-0.450
G1 X7.727 Y6.512 Z-0.450
G1 X7.694 Y6.847 Z-0.450
G1 X7.597 Y7.169 Z-0.450
G1 X7.438 Y7.465 Z-0.450
G1 X7.225 Y7.725 Z-0.450
G1 X6.965 Y7.938 Z-0.450
G1 X6.669 Y8.097 Z-0.450
G1 X6.347 Y8.194 Z-0.450
G1 X6.012 Y8.227 Z-0.450
G1 X5.678 Y8.194 Z-0.450
G1 X5.356 Y8.097 Z-0.450
G1 X5.060 Y7.938 Z-0.450
G1 X4.800 Y7.725 Z-0.450
G1 X4.587 Y7.465 Z-0.450
G1 X4.428 Y7.169 Z-0.450
G1 X4.331 Y6.847 Z-0.450
G1 X4.298 Y6.512 Z-0.450
G1 X4.331 Y6.178 Z-0.450
G1 X4.428 Y5.856 Z-0.450
G1 X4.587 Y5.560 Z-0.450
G1 X4.800 Y5.300 Z-0.450
G1 X5.060 Y5.087 Z-0.450
G1 X5.356 Y4.928 Z-0.450
G1 X5.678 Y4.831 Z-0.450
G1 X6.012 Y4.798 Z-0.450
G1 X6.347 Y4.831 Z-0.450
G1 X6.669 Y4.928 Z-0.450
G1 X6.965 Y5.087 Z-0.450
G1 X7.225 Y5.300 Z-0.450
G1 X7.438 Y5.560 Z-0.450
G1 X7.597 Y5.856 Z-0.450
G1 X7.694 Y6.178 Z-0.450
G1 X7.727 Y6.512 Z-0.450
G1 X7.807 Y6.512 Z-0.450
G1 X7.773 Y6.863 Z-0.450
G1 X7.671 Y7.199 Z-0.450
G1 X7.505 Y7.510 Z-0.450
G1 X7.282 Y7.782 Z-0.450
G1 X7.010 Y8.005 Z-0.450
G1 X6.699 Y8.171 Z-0.450
G1 X6.363 Y8.273 Z-0.450
G1 X6.012 Y8.307 Z-0.450
G1 X5.662 Y8.273 Z-0.450
G1 X5.326 Y8.171 Z-0.450
G1 X5.015 Y8.005 Z-0.450
G1 X4.743 Y7.782 Z-0.450
G1 X4.520 Y7.510 Z-0.450
G1 X4.354 Y7.199 Z-0.450
G1 X4.252 Y6.863 Z-0.450
G1 X4.218 Y6.512 Z-0.450
G1 X4.252 Y6.162 Z-0.450
G1 X4.354 Y5.826 Z-0.450
G1 X4.520 Y5.515 Z-0.450
G1 X4.743 Y5.243 Z-0.450
G1 X5.015 Y5.020 Z-0.450
G1 X5.326 Y4.854 Z-0.450
G1 X5.662 Y4.752 Z-0.450
G1 X6.012 Y4.718 Z-0.450
G1 X6.363 Y4.752 Z-0.450
G1 X6.699 Y4.854 Z-0.450
G1 X7.010 Y5.020 Z-0.450
G1 X7.282 Y5.243 Z-0.450
G1 X7.505 Y5.515 Z-0.450
G1 X7.671 Y5.826 Z-0.450
G1 X7.773 Y6.162 Z-0.450
G1 X7.807 Y6.512 Z-0.450
G1 X7.887 Y6.512 Z-0.450
G1 X7.851 Y6.878 Z-0.450
G1 X7.745 Y7.230 Z-0.450
G1 X7.571 Y7.554 Z-0.450
G1 X7.338 Y7.838 Z-0.450
G1 X7.054 Y8.071 Z-0.450
G1 X6.730 Y8.245 Z-0.450
G1 X6.378 Y8.351 Z-0.450
G1 X6.012 Y8.387 Z-0.450
G1 X5.647 Y8.351 Z-0.450
G1 X5.295 Y8.245 Z-0.450
G1 X4.971 Y8.071 Z-0.450
G1 X4.687 Y7.838 Z-0.450
G1 X4.454 Y7.554 Z-0.450
G1 X4.280 Y7.230 Z-0.450
G1 X4.174 Y6.878 Z-0.450
G1 X4.138 Y6.512 Z-0.450
G1 X4.174 Y6.147 Z-0.450
G1 X4.280 Y5.795 Z-0.450
G1 X4.454 Y5.471 Z-0.450
G1 X4.687 Y5.187 Z-0.450
G1 X4.971 Y4.954 Z-0.450
G1 X5.295 Y4.780 Z-0.450
G1 X5.647 Y4.674 Z-0.450
G1 X6.012 Y4.638 Z-0.450
G1 X6.378 Y4.674 Z-0.450
G1 X6.730 Y4.780 Z-0.450
G1 X7.054 Y4.954 Z-0.450
G1 X7.338 Y5.187 Z-0.450
G1 X7.571 Y5.471 Z-0.450
G1 X7.745 Y5.795 Z-0.450
G1 X7.851 Y6.147 Z-0.450
G1 X7.887 Y6.512 Z-0.450
G1 X7.967 Y6.512 Z-0.450
G1 X7.930 Y6.894 Z-0.450
G1 X7.819 Y7.261 Z-0.450
G1 X7.638 Y7.599 Z-0.450
G1 X7.395 Y7.895 Z-0.450
G1 X7.099 Y8.138 Z-0.450
G1 X6.761 Y8.319 Z-0.450
G1 X6.394 Y8.430 Z-0.450
G1 X6.012 Y8.467 Z-0.450
G1 X5.631 Y8.430 Z-0.450
G1 X5.264 Y8.319 Z-0.450
G1 X4.926 Y8.138 Z-0.450
G1 X4.630 Y7.895 Z-0.450
G1 X4.387 Y7.599 Z-0.450
G1 X4.206 Y7.261 Z-0.450
G1 X4.095 Y6.894 Z-0.450
G1 X4.058 Y6.512 Z-0.450
G1 X4.095 Y6.131 Z-0.450
G1 X4.206 Y5.764 Z-0.450
G1 X4.387 Y5.426 Z-0.450
G1 X4.630 Y5.130 Z-0.450
G1 X4.926 Y4.887 Z-0.450
G1 X5.264 Y4.706 Z-0.450
G1 X5.631 Y4.595 Z-0.450
G1 X6.012 Y4.558 Z-0.450
G1 X6.394 Y4.595 Z-0.450
G1 X6.761 Y4.706 Z-0.450
G1 X7.099 Y4.887 Z-0.450
G1 X7.395 Y5.130 Z-0.450
G1 X7.638 Y5.426 Z-0.450
G1 X7.819 Y5.764 Z-0.450
G1 X7.930 Y6.131 Z-0.450
G1 X7.967 Y6.512 Z-0.450
G1 X8.048 Y6.512 Z-0.450
G1 X8.008 Y6.910 Z-0.450
G1 X7.893 Y7.291 Z-0.450
G1 X7.705 Y7.643 Z-0.450
G1 X7.452 Y7.952 Z-0.450
G1 X7.143 Y8.205 Z-0.450
G1 X6.791 Y8.393 Z-0.450
G1 X6.410 Y8.508 Z-0.450
G1 X6.012 Y8.548 Z-0.450
G1 X5.615 Y8.508 Z-0.450
G1 X5.234 Y8.393 Z-0.450
G1 X4.882 Y8.205 Z-0.450
G1 X4.573 Y7.952 Z-0.450
G1 X4.320 Y7.643 Z-0.450
G1 X4.132 Y7.291 Z-0.450
G1 X4.017 Y6.910 Z-0.450
G1 X3.977 Y6.512 Z-0.450
G1 X4.017 Y6.115 Z-0.450
G1 X4.132 Y5.734 Z-0.450
G1 X4.320 Y5.382 Z-0.450
G1 X4.573 Y5.073 Z-0.450
G1 X4.882 Y4.820 Z-0.450
G1 X5.234 Y4.632 Z-0.450
G1 X5.615 Y4.517 Z-0.450
G1 X6.012 Y4.477 Z-0.450
G1 X6.410 Y4.517 Z-0.450
G1 X6.791 Y4.632 Z-0.450
G1 X7.143 Y4.820 Z-0.450
G1 X7.452 Y5.073 Z-0.450
G1 X7.705 Y5.382 Z-0.450
G1 X7.893 Y5.734 Z-0.450
G1 X8.008 Y6.115 Z-0.450
G1 X8.048 Y6.512 Z-0.450
G1 X8.128 Y6.512 Z-0.450
G1 X8.117 Y6.720 Z-0.450
G1 X8.087 Y6.925 Z-0.450
G1 X8.037 Y7.127 Z-0.450
G1 X7.967 Y7.322 Z-0.450
G1 X7.878 Y7.510 Z-0.450
G1 X7.771 Y7.688 Z-0.450
G1 X7.648 Y7.854 Z-0.450
G1 X7.508 Y8.008 Z-0.450
G1 X7.354 Y8.148 Z-0.450
G1 X7.188 Y8.271 Z-0.450
G1 X7.010 Y8.378 Z-0.450
G1 X6.822 Y8.467 Z-0.450
G1 X6.627 Y8.537 Z-0.450
G1 X6.425 Y8.587 Z-0.450
G1 X6.220 Y8.617 Z-0.450
G1 X6.012 Y8.628 Z-0.450
G1 X5.805 Y8.617 Z-0.450
G1 X5.600 Y8.587 Z-0.450
G1 X5.398 Y8.537 Z-0.450
G1 X5.203 Y8.467 Z-0.450
G1 X5.015 Y8.378 Z-0.450
G1 X4.837 Y8.271 Z-0.450
G1 X4.671 Y8.148 Z-0.450
G1 X4.517 Y8.008 Z-0.450
G1 X4.377 Y7.854 Z-0.450
G1 X4.254 Y7.688 Z-0.450
G1 X4.147 Y7.510 Z-0.450
G1 X4.058 Y7.322 Z-0.450
G1 X3.988 Y7.127 Z-0.450
G1 X3.938 Y6.925 Z-0.450
G1 X3.908 Y6.720 Z-0.450
G1 X3.897 Y6.512 Z-0.450
G1 X3.908 Y6.305 Z-0.450
G1 X3.938 Y6.100 Z-0.450
G1 X3.988 Y5.898 Z-0.450
G1 X4.058 Y5.703 Z-0.450
G1 X4.147 Y5.515 Z-0.450
G1 X4.254 Y5.337 Z-0.450
G1 X4.377 Y5.171 Z-0.450
G1 X4.517 Y5.017 Z-0.450
G1 X4.671 Y4.877 Z-0.450
G1 X4.837 Y4.754 Z-0.450
G1 X5.015 Y4.647 Z-0.450
G1 X5.203 Y4.558 Z-0.450
G1 X5.398 Y4.488 Z-0.450
G1 X5.600 Y4.438 Z-0.450
G1 X5.805 Y4.408 Z-0.450
G1 X6.012 Y4.397 Z-0.450
G1 X6.220 Y4.408 Z-0.450
G1 X6.425 Y4.438 Z-0.450
G1 X6.627 Y4.488 Z-0.450
G1 X6.822 Y4.558 Z-0.450
G1 X7.010 Y4.647 Z-0.450
G1 X7.188 Y4.754 Z-0.450
G1 X7.354 Y4.877 Z-0.450
G1 X7.508 Y5.017 Z-0.450
G1 X7.648 Y5.171 Z-0.450
G1 X7.771 Y5.337 Z-0.450
G1 X7.878 Y5.515 Z-0.450
G1 X7.967 Y5.703 Z-0.450
G1 X8.037 Y5.898 Z-0.450
G1 X8.087 Y6.100 Z-0.450
G1 X8.117 Y6.305 Z-0.450
G1 X8.128 Y6.512 Z-0.450
G1 X8.208 Y6.512 Z-0.450
G1 X8.197 Y6.728 Z-0.450
G1 X8.166 Y6.941 Z-0.450
G1 X8.113 Y7.150 Z-0.450
G1 X8.041 Y7.353 Z-0.450
G1 X7.949 Y7.547 Z-0.450
G1 X7.838 Y7.732 Z-0.450
G1 X7.709 Y7.905 Z-0.450
G1 X7.565 Y8.065 Z-0.450
G1 X7.405 Y8.209 Z-0.450
G1 X7.232 Y8.338 Z-0.450
G1 X7.047 Y8.449 Z-0.450
G1 X6.853 Y8.541 Z-0.450
G1 X6.650 Y8.613 Z-0.450
G1 X6.441 Y8.666 Z-0.450
G1 X6.228 Y8.697 Z-0.450
G1 X6.012 Y8.708 Z-0.450
G1 X5.797 Y8.697 Z-0.450
G1 X5.584 Y8.666 Z-0.450
G1 X5.375 Y8.613 Z-0.450
G1 X5.172 Y8.541 Z-0.450
G1 X4.978 Y8.449 Z-0.450
G1 X4.793 Y8.338 Z-0.450
G1 X4.620 Y8.209 Z-0.450
G1 X4.460 Y8.065 Z-0.450
G1 X4.316 Y7.905 Z-0.450
G1 X4.187 Y7.732 Z-0.450
G1 X4.076 Y7.547 Z-0.450
G1 X3.984 Y7.353 Z-0.450
G1 X3.912 Y7.150 Z-0.450
G1 X3.859 Y6.941 Z-0.450
G1 X3.828 Y6.728 Z-0.450
G1 X3.817 Y6.512 Z-0.450
G1 X3.828 Y6.297 Z-0.450
G1 X3.859 Y6.084 Z-0.450
G1 X3.912 Y5.875 Z-0.450
G1 X3.984 Y5.672 Z-0.450
G1 X4.076 Y5.478 Z-0.450
G1 X4.187 Y5.293 Z-0.450
G1 X4.316 Y5.120 Z-0.450
G1 X4.460 Y4.960 Z-0.450
G1 X4.620 Y4.816 Z-0.450
G1 X4.793 Y4.687 Z-0.450
G1 X4.978 Y4.576 Z-0.450
G1 X5.172 Y4.484 Z-0.450
G1 X5.375 Y4.412 Z-0.450
G1 X5.584 Y4.359 Z-0.450
G1 X5.797 Y4.328 Z-0.450
G1 X6.012 Y4.317 Z-0.450
G1 X6.228 Y4.328 Z-0.450
G1 X6.441 Y4.359 Z-0.450
G1 X6.650 Y4.412 Z-0.450
G1 X6.853 Y4.484 Z-0.450
G1 X7.047 Y4.576 Z-0.450
G1 X7.232 Y4.687 Z-0.450
G1 X7.405 Y4.816 Z-0.450
G1 X7.565 Y4.960 Z-0.450
G1 X7.709 Y5.120 Z-0.450
G1 X7.838 Y5.293 Z-0.450
G1 X7.949 Y5.478 Z-0.450
G1 X8.041 Y5.672 Z-0.450
G1 X8.113 Y5.875 Z-0.450
G1 X8.166 Y6.084 Z-0.450
G1 X8.197 Y6.297 Z-0.450
G1 X8.208 Y6.512 Z-0.450
G0 X8.208 Y6.512
G0 Z5.080
G0 X6.046 Y6.512
G0 Z5.080
G1 X6.046 Y6.512 Z-0.900 F1000.0
G1 X6.016 Y6.546 Z-0.900 F3000.0
G1 X5.980 Y6.519 Z-0.900
G1 X6.003 Y6.481 Z-0.900
G1 X6.043 Y6.500 Z-0.900
G1 X6.046 Y6.512 Z-0.900
G1 X6.126 Y6.512 Z-0.900
G1 X6.093 Y6.593 Z-0.900
G1 X6.012 Y6.626 Z-0.900
G1 X5.932 Y6.593 Z-0.900
G1 X5.899 Y6.512 Z-0.900
G1 X5.932 Y6.432 Z-0.900
G1 X6.012 Y6.399 Z-0.900
G1 X6.093 Y6.432 Z-0.900
G1 X6.126 Y6.512 Z-0.900
G1 X6.206 Y6.512 Z-0.900
G1 X6.173 Y6.620 Z-0.900
G1 X6.087 Y6.691 Z-0.900
G1 X5.975 Y6.702 Z-0.900
G1 X5.876 Y6.649 Z-0.900
G1 X5.823 Y6.550 Z-0.900
G1 X5.834 Y6.438 Z-0.900
G1 X5.905 Y6.352 Z-0.900
G1 X6.012 Y6.319 Z-0.900
G1 X6.120 Y6.352 Z-0.900
G1 X6.191 Y6.438 Z-0.900
G1 X6.206 Y6.512 Z-0.900
G1 X6.286 Y6.512 Z-0.900
G1 X6.254 Y6.641 Z-0.900
G1 X6.165 Y6.740 Z-0.900
G1 X6.039 Y6.785 Z-0.900
G1 X5.908 Y6.765 Z-0.900
G1 X5.801 Y6.686 Z-0.900
G1 X5.744 Y6.566 Z-0.900
G1 X5.751 Y6.433 Z-0.900
G1 X5.819 Y6.319 Z-0.900
G1 X5.933 Y6.251 Z-0.900
G1 X6.066 Y6.244 Z-0.900
G1 X6.186 Y6.301 Z-0.900
G1 X6.265 Y6.408 Z-0.900
G1 X6.286 Y6.512 Z-0.900
G1 X6.366 Y6.512 Z-0.900
G1 X6.339 Y6.648 Z-0.900
G1 X6.263 Y6.763 Z-0.900
G1 X6.148 Y6.839 Z-0.900
G1 X6.012 Y6.866 Z-0.900
G1 X5.877 Y6.839 Z-0.900
G1 X5.762 Y6.763 Z-0.900
G1 X5.686 Y6.648 Z-0.900
G1 X5.659 Y6.512 Z-0.900
G1 X5.686 Y6.377 Z-0.900
G1 X5.762 Y6.262 Z-0.900
G1 X5.877 Y6.186 Z-0.900
G1 X6.012 Y6.159 Z-0.900
G1 X6.148 Y6.186 Z-0.900
G1 X6.263 Y6.262 Z-0.900
G1 X6.339 Y6.377 Z-0.900
G1 X6.366 Y6.512 Z-0.900
G1 X6.446 Y6.512 Z-0.900
G1 X6.413 Y6.679 Z-0.900
G1 X6.319 Y6.819 Z-0.900
G1 X6.179 Y6.913 Z-0.900
G1 X6.012 Y6.946 Z-0.900
G1 X5.846 Y6.913 Z-0.900
G1 X5.706 Y6.819 Z-0.900
G1 X5.612 Y6.679 Z-0.900
G1 X5.579 Y6.512 Z-0.900
G1 X5.612 Y6.346 Z-0.900
G1 X5.706 Y6.206 Z-0.900
G1 X5.846 Y6.112 Z-0.900
G1 X6.012 Y6.079 Z-0.900
G1 X6.179 Y6.112 Z-0.900
G1 X6.319 Y6.206 Z-0.900
G1 X6.413 Y6.346 Z-0.900
G1 X6.446 Y6.512 Z-0.900
G1 X6.526 Y6.512 Z-0.900
G1 X6.487 Y6.709 Z-0.900
G1 X6.376 Y6.876 Z-0.900
G1 X6.209 Y6.987 Z-0.900
G1 X6.012 Y7.026 Z-0.900
G1 X5.816 Y6.987 Z-0.900
G1 X5.649 Y6.876 Z-0.900
G1 X5.538 Y6.709 Z-0.900
G1 X5.499 Y6.512 Z-0.900
G1 X5.538 Y6.316 Z-0.900
G1 X5.649 Y6.149 Z-0.900
G1 X5.816 Y6.038 Z-0.900
G1 X6.012 Y5.999 Z-0.900
G1 X6.209 Y6.038 Z-0.900
G1 X6.376 Y6.149 Z-0.900
G1 X6.487 Y6.316 Z-0.900
G1 X6.526 Y6.512 Z-0.900
G1 X6.607 Y6.512 Z-0.900
G1 X6.581 Y6.685 Z-0.900
G1 X6.506 Y6.843 Z-0.900
G1 X6.389 Y6.972 Z-0.900
G1 X6.240 Y7.061 Z-0.900
G1 X6.071 Y7.104 Z-0.900
G1 X5.897 Y7.095 Z-0.900
G1 X5.732 Y7.036 Z-0.900
G1 X5.592 Y6.933 Z-0.900
G1 X5.489 Y6.793 Z-0.900
G1 X5.430 Y6.628 Z-0.900
G1 X5.421 Y6.454 Z-0.900
G1 X5.464 Y6.285 Z-0.900
G1 X5.553 Y6.136 Z-0.900
G1 X5.682 Y6.019 Z-0.900
G1 X5.840 Y5.944 Z-0.900
G1 X6.012 Y5.918 Z-0.900
G1 X6.185 Y5.944 Z-0.900
G1 X6.343 Y6.019 Z-0.900
G1 X6.472 Y6.136 Z-0.900
G1 X6.561 Y6.285 Z-0.900
G1 X6.604 Y6.454 Z-0.900
G1 X6.607 Y6.512 Z-0.900
G1 X6.687 Y6.512 Z-0.900
G1 X6.658 Y6.708 Z-0.900
G1 X6.573 Y6.887 Z-0.900
G1 X6.440 Y7.034 Z-0.900
G1 X6.270 Y7.135 Z-0.900
G1 X6.079 Y7.183 Z-0.900
G1 X5.881 Y7.174 Z-0.900
G1 X5.695 Y7.107 Z-0.900
G1 X5.536 Y6.989 Z-0.900
G1 X5.418 Y6.830 Z-0.900
G1 X5.351 Y6.644 Z-0.900
G1 X5.342 Y6.446 Z-0.900
G1 X5.390 Y6.255 Z-0.900
G1 X5.491 Y6.085 Z-0.900
G1 X5.638 Y5.952 Z-0.900
G1 X5.817 Y5.867 Z-0.900
G1 X6.012 Y5.838 Z-0.900
G1 X6.208 Y5.867 Z-0.900
G1 X6.387 Y5.952 Z-0.900
G1 X6.534 Y6.085 Z-0.900
G1 X6.635 Y6.255 Z-0.900
G1 X6.683 Y6.446 Z-0.900
G1 X6.687 Y6.512 Z-0.900
G1 X6.767 Y6.512 Z-0.900
G1 X6.734 Y6.731 Z-0.900
G1 X6.640 Y6.932 Z-0.900
G1 X6.491 Y7.096 Z-0.900
G1 X6.301 Y7.209 Z-0.900
G1 X6.086 Y7.263 Z-0.900
G1 X5.865 Y7.252 Z-0.900
G1 X5.657 Y7.178 Z-0.900
G1 X5.479 Y7.046 Z-0.900
G1 X5.347 Y6.868 Z-0.900
G1 X5.273 Y6.660 Z-0.900
G1 X5.262 Y6.439 Z-0.900
G1 X5.316 Y6.224 Z-0.900
G1 X5.429 Y6.034 Z-0.900
G1 X5.593 Y5.885 Z-0.900
G1 X5.794 Y5.791 Z-0.900
G1 X6.012 Y5.758 Z-0.900
G1 X6.231 Y5.791 Z-0.900
G1 X6.432 Y5.885 Z-0.900
G1 X6.596 Y6.034 Z-0.900
G1 X6.709 Y6.224 Z-0.900
G1 X6.763 Y6.439 Z-0.900
G1 X6.767 Y6.512 Z-0.900
G1 X6.847 Y6.512 Z-0.900
G1 X6.811 Y6.755 Z-0.900
G1 X6.706 Y6.976 Z-0.900
G1 X6.542 Y7.157 Z-0.900
G1 X6.332 Y7.283 Z-0.900
G1 X6.094 Y7.343 Z-0.900
G1 X5.850 Y7.331 Z-0.900
G1 X5.619 Y7.248 Z-0.900
G1 X5.423 Y7.102 Z-0.900
G1 X5.277 Y6.906 Z-0.900
G1 X5.194 Y6.675 Z-0.900
G1 X5.182 Y6.431 Z-0.900
G1 X5.242 Y6.193 Z-0.900
G1 X5.368 Y5.983 Z-0.900
G1 X5.549 Y5.819 Z-0.900
G1 X5.770 Y5.714 Z-0.900
G1 X6.012 Y5.678 Z-0.900
G1 X6.255 Y5.714 Z-0.900
G1 X6.476 Y5.819 Z-0.900
G1 X6.657 Y5.983 Z-0.900
G1 X6.783 Y6.193 Z-0.900
G1 X6.843 Y6.431 Z-0.900
G1 X6.847 Y6.512 Z-0.900
G1 X6.927 Y6.512 Z-0.900
G1 X6.888 Y6.778 Z-0.900
G1 X6.773 Y7.021 Z-0.900
G1 X6.593 Y7.219 Z-0.900
G1 X6.362 Y7.357 Z-0.900
G1 X6.102 Y7.422 Z-0.900
G1 X5.834 Y7.409 Z-0.900
G1 X5.581 Y7.319 Z-0.900
G1 X5.366 Y7.159 Z-0.900
G1 X5.206 Y6.944 Z-0.900
G1 X5.116 Y6.691 Z-0.900
G1 X5.103 Y6.423 Z-0.900
G1 X5.168 Y6.163 Z-0.900
G1 X5.306 Y5.932 Z-0.900
G1 X5.504 Y5.752 Z-0.900
G1 X5.747 Y5.637 Z-0.900
G1 X6.012 Y5.598 Z-0.900
G1 X6.278 Y5.637 Z-0.900
G1 X6.521 Y5.752 Z-0.900
G1 X6.719 Y5.932 Z-0.900
G1 X6.857 Y6.163 Z-0.900
G1 X6.922 Y6.423 Z-0.900
G1 X6.927 Y6.512 Z-0.900
G1 X7.007 Y6.512 Z-0.900
G1 X6.964 Y6.801 Z-0.900
G1 X6.839 Y7.065 Z-0.900
G1 X6.643 Y7.281 Z-0.900
G1 X6.393 Y7.431 Z-0.900
G1 X6.110 Y7.502 Z-0.900
G1 X5.818 Y7.488 Z-0.900
G1 X5.544 Y7.390 Z-0.900
G1 X5.309 Y7.216 Z-0.900
G1 X5.135 Y6.981 Z-0.900
G1 X5.037 Y6.707 Z-0.900
G1 X5.023 Y6.415 Z-0.900
G1 X5.094 Y6.132 Z-0.900
G1 X5.244 Y5.882 Z-0.900
G1 X5.460 Y5.686 Z-0.900
G1 X5.724 Y5.561 Z-0.900
G1 X6.012 Y5.518 Z-0.900
G1 X6.301 Y5.561 Z-0.900
G1 X6.565 Y5.686 Z-0.900
G1 X6.781 Y5.882 Z-0.900
G1 X6.931 Y6.132 Z-0.900
G1 X7.002 Y6.415 Z-0.900
G1 X7.007 Y6.512 Z-0.900
G1 X7.087 Y6.512 Z-0.900
G1 X7.066 Y6.722 Z-0.900
G1 X7.005 Y6.924 Z-0.900
G1 X6.906 Y7.110 Z-0.900
G1 X6.772 Y7.272 Z-0.900
G1 X6.610 Y7.406 Z-0.900
G1 X6.424 Y7.505 Z-0.900
G1 X6.222 Y7.566 Z-0.900
G1 X6.012 Y7.587 Z-0.900
G1 X5.803 Y7.566 Z-0.900
G1 X5.601 Y7.505 Z-0.900
G1 X5.415 Y7.406 Z-0.900
G1 X5.253 Y7.272 Z-0.900
G1 X5.119 Y7.110 Z-0.900
G1 X5.020 Y6.924 Z-0.900
G1 X4.959 Y6.722 Z-0.900
G1 X4.938 Y6.512 Z-0.900
G1 X4.959 Y6.303 Z-0.900
G1 X5.020 Y6.101 Z-0.900
G1 X5.119 Y5.915 Z-0.900
G1 X5.253 Y5.753 Z-0.900
G1 X5.415 Y5.619 Z-0.900
G1 X5.601 Y5.520 Z-0.900
G1 X5.803 Y5.459 Z-0.900
G1 X6.012 Y5.438 Z-0.900
G1 X6.222 Y5.459 Z-0.900
G1 X6.424 Y5.520 Z-0.900
G1 X6.610 Y5.619 Z-0.900
G1 X6.772 Y5.753 Z-0.900
G1 X6.906 Y5.915 Z-0.900
G1 X7.005 Y6.101 Z-0.900
G1 X7.066 Y6.303 Z-0.900
G1 X7.087 Y6.512 Z-0.900
G1 X7.167 Y6.512 Z-0.900
G1 X7.145 Y6.738 Z-0.900
G1 X7.079 Y6.954 Z-0.900
G1 X6.973 Y7.154 Z-0.900
G1 X6.829 Y7.329 Z-0.900
G1 X6.654 Y7.473 Z-0.900
G1 X6.454 Y7.579 Z-0.900
G1 X6.238 Y7.645 Z-0.900
G1 X6.012 Y7.667 Z-0.900
G1 X5.787 Y7.645 Z-0.900
G1 X5.571 Y7.579 Z-0.900
G1 X5.371 Y7.473 Z-0.900
G1 X5.196 Y7.329 Z-0.900
G1 X5.052 Y7.154 Z-0.900
G1 X4.946 Y6.954 Z-0.900
G1 X4.880 Y6.738 Z-0.900
G1 X4.858 Y6.512 Z-0.900
G1 X4.880 Y6.287 Z-0.900
G1 X4.946 Y6.071 Z-0.900
G1 X5.052 Y5.871 Z-0.900
G1 X5.196 Y5.696 Z-0.900
G1 X5.371 Y5.552 Z-0.900
G1 X5.571 Y5.446 Z-0.900
G1 X5.787 Y5.380 Z-0.900
G1 X6.012 Y5.358 Z-0.900
G1 X6.238 Y5.380 Z-0.900
G1 X6.454 Y5.446 Z-0.900
G1 X6.654 Y5.552 Z-0.900
G1 X6.829 Y5.696 Z-0.900
G1 X6.973 Y5.871 Z-0.900
G1 X7.079 Y6.071 Z-0.900
G1 X7.145 Y6.287 Z-0.900
G1 X7.167 Y6.512 Z-0.900
G1 X7.247 Y6.512 Z-0.900
G1 X7.224 Y6.753 Z-0.900
G1 X7.153 Y6.985 Z-0.900
G1 X7.039 Y7.199 Z-0.900
G1 X6.886 Y7.386 Z-0.900
G1 X6.699 Y7.539 Z-0.900
G1 X6.485 Y7.653 Z-0.900
G1 X6.253 Y7.724 Z-0.900
G1 X6.012 Y7.747 Z-0.900
G1 X5.772 Y7.724 Z-0.900
G1 X5.540 Y7.653 Z-0.900
G1 X5.326 Y7.539 Z-0.900
G1 X5.139 Y7.386 Z-0.900
G1 X4.986 Y7.199 Z-0.900
G1 X4.872 Y6.985 Z-0.900
G1 X4.801 Y6.753 Z-0.900
G1 X4.778 Y6.512 Z-0.900
G1 X4.801 Y6.272 Z-0.900
G1 X4.872 Y6.040 Z-0.900
G1 X4.986 Y5.826 Z-0.900
G1 X5.139 Y5.639 Z-0.900
G1 X5.326 Y5.486 Z-0.900
G1 X5.540 Y5.372 Z-0.900
G1 X5.772 Y5.301 Z-0.900
G1 X6.012 Y5.278 Z-0.900
G1 X6.253 Y5.301 Z-0.900
G1 X6.485 Y5.372 Z-0.900
G1 X6.699 Y5.486 Z-0.900
G1 X6.886 Y5.639 Z-0.900
G1 X7.039 Y5.826 Z-0.900
G1 X7.153 Y6.040 Z-0.900
G1 X7.224 Y6.272 Z-0.900
G1 X7.247 Y6.512 Z-0.900
G1 X7.327 Y6.512 Z-0.900
G1 X7.302 Y6.769 Z-0.900
G1 X7.227 Y7.016 Z-0.900
G1 X7.106 Y7.243 Z-0.900
G1 X6.942 Y7.442 Z-0.900
G1 X6.743 Y7.606 Z-0.900
G1 X6.516 Y7.727 Z-0.900
G1 X6.269 Y7.802 Z-0.900
G1 X6.012 Y7.827 Z-0.900
G1 X5.756 Y7.802 Z-0.900
G1 X5.509 Y7.727 Z-0.900
G1 X5.282 Y7.606 Z-0.900
G1 X5.083 Y7.442 Z-0.900
G1 X4.919 Y7.243 Z-0.900
G1 X4.798 Y7.016 Z-0.900
G1 X4.723 Y6.769 Z-0.900
G1 X4.698 Y6.512 Z-0.900
G1 X4.723 Y6.256 Z-0.900
G1 X4.798 Y6.009 Z-0.900
G1 X4.919 Y5.782 Z-0.900
G1 X5.083 Y5.583 Z-0.900
G1 X5.282 Y5.419 Z-0.900
G1 X5.509 Y5.298 Z-0.900
G1 X5.756 Y5.223 Z-0.900
G1 X6.012 Y5.198 Z-0.900
G1 X6.269 Y5.223 Z-0.900
G1 X6.516 Y5.298 Z-0.900
G1 X6.743 Y5.419 Z-0.900
G1 X6.942 Y5.583 Z-0.900
G1 X7.106 Y5.782 Z-0.900
G1 X7.227 Y6.009 Z-0.900
G1 X7.302 Y6.256 Z-0.900
G1 X7.327 Y6.512 Z-0.900
G1 X7.407 Y6.512 Z-0.900
G1 X7.381 Y6.785 Z-0.900
G1 X7.301 Y7.046 Z-0.900
G1 X7.172 Y7.288 Z-0.900
G1 X6.999 Y7.499 Z-0.900
G1 X6.788 Y7.672 Z-0.900
G1 X6.546 Y7.801 Z-0.900
G1 X6.285 Y7.881 Z-0.900
G1 X6.012 Y7.907 Z-0.900
G1 X5.740 Y7.881 Z-0.900
G1 X5.479 Y7.801 Z-0.900
G1 X5.237 Y7.672 Z-0.900
G1 X5.026 Y7.499 Z-0.900
G1 X4.853 Y7.288 Z-0.900
G1 X4.724 Y7.046 Z-0.900
G1 X4.644 Y6.785 Z-0.900
G1 X4.618 Y6.512 Z-0.900
G1 X4.644 Y6.240 Z-0.900
G1 X4.724 Y5.979 Z-0.900
G1 X4.853 Y5.737 Z-0.900
G1 X5.026 Y5.526 Z-0.900
G1 X5.237 Y5.353 Z-0.900
G1 X5.479 Y5.224 Z-0.900
G1 X5.740 Y5.144 Z-0.900
G1 X6.012 Y5.118 Z-0.900
G1 X6.285 Y5.144 Z-0.900
G1 X6.546 Y5.224 Z-0.900
G1 X6.788 Y5.353 Z-0.900
G1 X6.999 Y5.526 Z-0.900
G1 X7.172 Y5.737 Z-0.900
G1 X7.301 Y5.979 Z-0.900
G1 X7.381 Y6.240 Z-0.900
G1 X7.407 Y6.512 Z-0.900
G1 X7.488 Y6.512 Z-0.900
G1 X7.459 Y6.800 Z-0.900
G1 X7.375 Y7.077 Z-0.900
G1 X7.239 Y7.332 Z-0.900
G1 X7.056 Y7.556 Z-0.900
G1 X6.832 Y7.739 Z-0.900
G1 X6.577 Y7.875 Z-0.900
G1 X6.300 Y7.959 Z-0.900
G1 X6.012 Y7.988 Z-0.900
G1 X5.725 Y7.959 Z-0.900
G1 X5.448 Y7.875 Z-0.900
G1 X5.193 Y7.739 Z-0.900
G1 X4.969 Y7.556 Z-0.900
G1 X4.786 Y7.332 Z-0.900
G1 X4.650 Y7.077 Z-0.900
G1 X4.566 Y6.800 Z-0.900
G1 X4.537 Y6.512 Z-0.900
G1 X4.566 Y6.225 Z-0.900
G1 X4.650 Y5.948 Z-0.900
G1 X4.786 Y5.693 Z-0.900
G1 X4.969 Y5.469 Z-0.900
G1 X5.193 Y5.286 Z-0.900
G1 X5.448 Y5.150 Z-0.900
G1 X5.725 Y5.066 Z-0.900
G1 X6.012 Y5.037 Z-0.900
G1 X6.300 Y5.066 Z-0.900
G1 X6.577 Y5.150 Z-0.900
G1 X6.832 Y5.286 Z-0.900
G1 X7.056 Y5.469 Z-0.900
G1 X7.239 Y5.693 Z-0.900
G1 X7.375 Y5.948 Z-0.900
G1 X7.459 Y6.225 Z-0.900
G1 X7.488 Y6.512 Z-0.900
G1 X7.568 Y6.512 Z-0.900
G1 X7.538 Y6.816 Z-0.900
G1 X7.449 Y7.108 Z-0.900
G1 X7.306 Y7.377 Z-0.900
G1 X7.112 Y7.612 Z-0.900
G1 X6.877 Y7.806 Z-0.900
G1 X6.608 Y7.949 Z-0.900
G1 X6.316 Y8.038 Z-0.900
G1 X6.012 Y8.068 Z-0.900
G1 X5.709 Y8.038 Z-0.900
G1 X5.417 Y7.949 Z-0.900
G1 X5.148 Y7.806 Z-0.900
G1 X4.913 Y7.612 Z-0.900
G1 X4.719 Y7.377 Z-0.900
G1 X4.576 Y7.108 Z-0.900
G1 X4.487 Y6.816 Z-0.900
G1 X4.457 Y6.512 Z-0.900
G1 X4.487 Y6.209 Z-0.900
G1 X4.576 Y5.917 Z-0.900
G1 X4.719 Y5.648 Z-0.900
G1 X4.913 Y5.413 Z-0.900
G1 X5.148 Y5.219 Z-0.900
G1 X5.417 Y5.076 Z-0.900
G1 X5.709 Y4.987 Z-0.900
G1 X6.012 Y4.957 Z-0.900
G1 X6.316 Y4.987 Z-0.900
G1 X6.608 Y5.076 Z-0.900
G1 X6.877 Y5.219 Z-0.900
G1 X7.112 Y5.413 Z-0.900
G1 X7.306 Y5.648 Z-0.900
G1 X7.449 Y5.917 Z-0.900
G1 X7.538 Y6.209 Z-0.900
G1 X7.568 Y6.512 Z-0.900
G1 X7.648 Y6.512 Z-0.900
G1 X7.616 Y6.832 Z-0.900
G1 X7.523 Y7.138 Z-0.900
G1 X7.372 Y7.421 Z-0.900
G1 X7.169 Y7.669 Z-0.900
G1 X6.921 Y7.872 Z-0.900
G1 X6.638 Y8.023 Z-0.900
G1 X6.332 Y8.116 Z-0.900
G1 X6.012 Y8.148 Z-0.900
G1 X5.693 Y8.116 Z-0.900
G1 X5.387 Y8.023 Z-0.900
G1 X5.104 Y7.872 Z-0.900
G1 X4.856 Y7.669 Z-0.900
G1 X4.653 Y7.421 Z-0.900
G1 X4.502 Y7.138 Z-0.900
G1 X4.409 Y6.832 Z-0.900
G1 X4.377 Y6.512 Z-0.900
G1 X4.409 Y6.193 Z-0.900
G1 X4.502 Y5.887 Z-0.900
G1 X4.653 Y5.604 Z-0.900
G1 X4.856 Y5.356 Z-0.900
G1 X5.104 Y5.153 Z-0.900
G1 X5.387 Y5.002 Z-0.900
G1 X5.693 Y4.909 Z-0.900
G1 X6.012 Y4.877 Z-0.900
G1 X6.332 Y4.909 Z-0.900
G1 X6.638 Y5.002 Z-0.900
G1 X6.921 Y5.153 Z-0.900
G1 X7.169 Y5.356 Z-0.900
G1 X7.372 Y5.604 Z-0.900
G1 X7.523 Y5.887 Z-0.900
G1 X7.616 Y6.193 Z-0.900
G1 X7.648 Y6.512 Z-0.900
G1 X7.728 Y6.512 Z-0.900
G1 X7.695 Y6.847 Z-0.900
G1 X7.597 Y7.169 Z-0.900
G1 X7.439 Y7.466 Z-0.900
G1 X7.225 Y7.725 Z-0.900
G1 X6.966 Y7.939 Z-0.900
G1 X6.669 Y8.097 Z-0.900
G1 X6.347 Y8.195 Z-0.900
G1 X6.012 Y8.228 Z-0.900
G1 X5.678 Y8.195 Z-0.900
G1 X5.356 Y8.097 Z-0.900
G1 X5.059 Y7.939 Z-0.900
G1 X4.800 Y7.725 Z-0.900
G1 X4.586 Y7.466 Z-0.900
G1 X4.428 Y7.169 Z-0.900
G1 X4.330 Y6.847 Z-0.900
G1 X4.297 Y6.512 Z-0.900
G1 X4.330 Y6.178 Z-0.900
G1 X4.428 Y5.856 Z-0.900
G1 X4.586 Y5.559 Z-0.900
G1 X4.800 Y5.300 Z-0.900
G1 X5.059 Y5.086 Z-0.900
G1 X5.356 Y4.928 Z-0.900
G1 X5.678 Y4.830 Z-0.900
G1 X6.012 Y4.797 Z-0.900
G1 X6.347 Y4.830 Z-0.900
G1 X6.669 Y4.928 Z-0.900
G1 X6.966 Y5.086 Z-0.900
G1 X7.225 Y5.300 Z-0.900
G1 X7.439 Y5.559 Z-0.900
G1 X7.597 Y5.856 Z-0.900
G1 X7.695 Y6.178 Z-0.900
G1 X7.728 Y6.512 Z-0.900
G1 X7.808 Y6.512 Z-0.900
G1 X7.773 Y6.863 Z-0.900
G1 X7.671 Y7.200 Z-0.900
G1 X7.505 Y7.510 Z-0.900
G1 X7.282 Y7.782 Z-0.900
G1 X7.010 Y8.005 Z-0.900
G1 X6.700 Y8.171 Z-0.900
G1 X6.363 Y8.273 Z-0.900
G1 X6.012 Y8.308 Z-0.900
G1 X5.662 Y8.273 Z-0.900
G1 X5.325 Y8.171 Z-0.900
G1 X5.015 Y8.005 Z-0.900
G1 X4.743 Y7.782 Z-0.900
G1 X4.520 Y7.510 Z-0.900
G1 X4.354 Y7.200 Z-0.900
G1 X4.252 Y6.863 Z-0.900
G1 X4.217 Y6.512 Z-0.900
G1 X4.252 Y6.162 Z-0.900
G1 X4.354 Y5.825 Z-0.900
G1 X4.520 Y5.515 Z-0.900
G1 X4.743 Y5.243 Z-0.900
G1 X5.015 Y5.020 Z-0.900
G1 X5.325 Y4.854 Z-0.900
G1 X5.662 Y4.752 Z-0.900
G1 X6.012 Y4.717 Z-0.900
G1 X6.363 Y4.752 Z-0.900
G1 X6.700 Y4.854 Z-0.900
G1 X7.010 Y5.020 Z-0.900
G1 X7.282 Y5.243 Z-0.900
G1 X7.505 Y5.515 Z-0.900
G1 X7.671 Y5.825 Z-0.900
G1 X7.773 Y6.162 Z-0.900
G1 X7.808 Y6.512 Z-0.900
G1 X7.888 Y6.512 Z-0.900
G1 X7.852 Y6.878 Z-0.900
G1 X7.745 Y7.230 Z-0.900
G1 X7.572 Y7.554 Z-0.900
G1 X7.339 Y7.839 Z-0.900
G1 X7.054 Y8.072 Z-0.900
G1 X6.730 Y8.245 Z-0.900
G1 X6.378 Y8.352 Z-0.900
G1 X6.012 Y8.388 Z-0.900
G1 X5.647 Y8.352 Z-0.900
G1 X5.295 Y8.245 Z-0.900
G1 X4.971 Y8.072 Z-0.900
G1 X4.686 Y7.839 Z-0.900
G1 X4.453 Y7.554 Z-0.900
G1 X4.280 Y7.230 Z-0.900
G1 X4.173 Y6.878 Z-0.900
G1 X4.137 Y6.512 Z-0.900
G1 X4.173 Y6.147 Z-0.900
G1 X4.280 Y5.795 Z-0.900
G1 X4.453 Y5.471 Z-0.900
G1 X4.686 Y5.186 Z-0.900
G1 X4.971 Y4.953 Z-0.900
G1 X5.295 Y4.780 Z-0.900
G1 X5.647 Y4.673 Z-0.900
G1 X6.012 Y4.637 Z-0.900
G1 X6.378 Y4.673 Z-0.900
G1 X6.730 Y4.780 Z-0.900
G1 X7.054 Y4.953 Z-0.900
G1 X7.339 Y5.186 Z-0.900
G1 X7.572 Y5.471 Z-0.900
G1 X7.745 Y5.795 Z-0.900
G1 X7.852 Y6.147 Z-0.900
G1 X7.888 Y6.512 Z-0.900
G1 X7.968 Y6.512 Z-0.900
G1 X7.931 Y6.894 Z-0.900
G1 X7.819 Y7.261 Z-0.900
G1 X7.639 Y7.599 Z-0.900
G1 X7.395 Y7.895 Z-0.900
G1 X7.099 Y8.139 Z-0.900
G1 X6.761 Y8.319 Z-0.900
G1 X6.394 Y8.431 Z-0.900
G1 X6.012 Y8.468 Z-0.900
G1 X5.631 Y8.431 Z-0.900
G1 X5.264 Y8.319 Z-0.900
G1 X4.926 Y8.139 Z-0.900
G1 X4.630 Y7.895 Z-0.900
G1 X4.386 Y7.599 Z-0.900
G1 X4.206 Y7.261 Z-0.900
G1 X4.094 Y6.894 Z-0.900
G1 X4.057 Y6.512 Z-0.900
G1 X4.094 Y6.131 Z-0.900
G1 X4.206 Y5.764 Z-0.900
G1 X4.386 Y5.426 Z-0.900
G1 X4.630 Y5.130 Z-0.900
G1 X4.926 Y4.886 Z-0.900
G1 X5.264 Y4.706 Z-0.900
G1 X5.631 Y4.594 Z-0.900
G1 X6.012 Y4.557 Z-0.900
G1 X6.394 Y4.594 Z-0.900
G1 X6.761 Y4.706 Z-0.900
G1 X7.099 Y4.886 Z-0.900
G1 X7.395 Y5.130 Z-0.900
G1 X7.639 Y5.426 Z-0.900
G1 X7.819 Y5.764 Z-0.900
G1 X7.931 Y6.131 Z-0.900
G1 X7.968 Y6.512 Z-0.900
G1 X8.048 Y6.512 Z-0.900
G1 X8.009 Y6.910 Z-0.900
G1 X7.893 Y7.292 Z-0.900
G1 X7.705 Y7.643 Z-0.900
G1 X7.452 Y7.952 Z-0.900
G1 X7.143 Y8.205 Z-0.900
G1 X6.792 Y8.393 Z-0.900
G1 X6.410 Y8.509 Z-0.900
G1 X6.012 Y8.548 Z-0.900
G1 X5.615 Y8.509 Z-0.900
G1 X5.233 Y8.393 Z-0.900
G1 X4.882 Y8.205 Z-0.900
G1 X4.573 Y7.952 Z-0.900
G1 X4.320 Y7.643 Z-0.900
G1 X4.132 Y7.292 Z-0.900
G1 X4.016 Y6.910 Z-0.900
G1 X3.977 Y6.512 Z-0.900
G1 X4.016 Y6.115 Z-0.900
G1 X4.132 Y5.733 Z-0.900
G1 X4.320 Y5.382 Z-0.900
G1 X4.573 Y5.073 Z-0.900
G1 X4.882 Y4.820 Z-0.900
G1 X5.233 Y4.632 Z-0.900
G1 X5.615 Y4.516 Z-0.900
G1 X6.012 Y4.477 Z-0.900
G1 X6.410 Y4.516 Z-0.900
G1 X6.792 Y4.632 Z-0.900
G1 X7.143 Y4.820 Z-0.900
G1 X7.452 Y5.073 Z-0.900
G1 X7.705 Y5.382 Z-0.900
G1 X7.893 Y5.733 Z-0.900
G1 X8.009 Y6.115 Z-0.900
G1 X8.048 Y6.512 Z-0.900
G1 X8.128 Y6.512 Z-0.900
G1 X8.118 Y6.720 Z-0.900
G1 X8.088 Y6.925 Z-0.900
G1 X8.037 Y7.127 Z-0.900
G1 X7.967 Y7.322 Z-0.900
G1 X7.879 Y7.510 Z-0.900
G1 X7.772 Y7.688 Z-0.900
G1 X7.648 Y7.855 Z-0.900
G1 X7.509 Y8.009 Z-0.900
G1 X7.355 Y8.148 Z-0.900
G1 X7.188 Y8.272 Z-0.900
G1 X7.010 Y8.379 Z-0.900
G1 X6.822 Y8.467 Z-0.900
G1 X6.627 Y8.537 Z-0.900
G1 X6.425 Y8.588 Z-0.900
G1 X6.220 Y8.618 Z-0.900
G1 X6.012 Y8.628 Z-0.900
G1 X5.805 Y8.618 Z-0.900
G1 X5.600 Y8.588 Z-0.900
G1 X5.398 Y8.537 Z-0.900
G1 X5.203 Y8.467 Z-0.900
G1 X5.015 Y8.379 Z-0.900
G1 X4.837 Y8.272 Z-0.900
G1 X4.670 Y8.148 Z-0.900
G1 X4.516 Y8.009 Z-0.900
G1 X4.377 Y7.855 Z-0.900
G1 X4.253 Y7.688 Z-0.900
G1 X4.146 Y7.510 Z-0.900
G1 X4.058 Y7.322 Z-0.900
G1 X3.988 Y7.127 Z-0.900
G1 X3.937 Y6.925 Z-0.900
G1 X3.907 Y6.720 Z-0.900
G1 X3.897 Y6.512 Z-0.900
G1 X3.907 Y6.305 Z-0.900
G1 X3.937 Y6.100 Z-0.900
G1 X3.988 Y5.898 Z-0.900
G1 X4.058 Y5.703 Z-0.900
G1 X4.146 Y5.515 Z-0.900
G1 X4.253 Y5.337 Z-0.900
G1 X4.377 Y5.170 Z-0.900
G1 X4.516 Y5.016 Z-0.900
G1 X4.670 Y4.877 Z-0.900
G1 X4.837 Y4.753 Z-0.900
G1 X5.015 Y4.646 Z-0.900
G1 X5.203 Y4.558 Z-0.900
G1 X5.398 Y4.488 Z-0.900
G1 X5.600 Y4.437 Z-0.900
G1 X5.805 Y4.407 Z-0.900
G1 X6.012 Y4.397 Z-0.900
G1 X6.220 Y4.407 Z-0.900
G1 X6.425 Y4.437 Z-0.900
G1 X6.627 Y4.488 Z-0.900
G1 X6.822 Y4.558 Z-0.900
G1 X7.010 Y4.646 Z-0.900
G1 X7.188 Y4.753 Z-0.900
G1 X7.355 Y4.877 Z-0.900
G1 X7.509 Y5.016 Z-0.900
G1 X7.648 Y5.170 Z-0.900
G1 X7.772 Y5.337 Z-0.900
G1 X7.879 Y5.515 Z-0.900
G1 X7.967 Y5.703 Z-0.900
G1 X8.037 Y5.898 Z-0.900
G1 X8.088 Y6.100 Z-0.900
G1 X8.118 Y6.305 Z-0.900
G1 X8.128 Y6.512 Z-0.900
G0 X8.128 Y6.512
G0 Z5.080
G0 X6.046 Y6.512
G0 Z5.080
G1 X6.046 Y6.512 Z-1.350 F1000.0
G1 X6.016 Y6.546 Z-1.350 F3000.0
G1 X5.979 Y6.519 Z-1.350
G1 X6.003 Y6.480 Z-1.350
G1 X6.044 Y6.499 Z-1.350
G1 X6.046 Y6.512 Z-1.350
G1 X6.127 Y6.512 Z-1.350
G1 X6.093 Y6.593 Z-1.350
G1 X6.012 Y6.627 Z-1.350
G1 X5.932 Y6.593 Z-1.350
G1 X5.898 Y6.512 Z-1.350
G1 X5.932 Y6.432 Z-1.350
G1 X6.012 Y6.398 Z-1.350
G1 X6.093 Y6.432 Z-1.350
G1 X6.127 Y6.512 Z-1.350
G1 X6.207 Y6.512 Z-1.350
G1 X6.174 Y6.620 Z-1.350
G1 X6.087 Y6.692 Z-1.350
G1 X5.975 Y6.703 Z-1.350
G1 X5.875 Y6.650 Z-1.350
G1 X5.822 Y6.550 Z-1.350
G1 X5.833 Y6.438 Z-1.350
G1 X5.905 Y6.351 Z-1.350
G1 X6.012 Y6.318 Z-1.350
G1 X6.120 Y6.351 Z-1.350
G1 X6.192 Y6.438 Z-1.350
G1 X6.207 Y6.512 Z-1.350
G1 X6.287 Y6.512 Z-1.350
G1 X6.254 Y6.642 Z-1.350
G1 X6.165 Y6.741 Z-1.350
G1 X6.039 Y6.785 Z-1.350
G1 X5.908 Y6.766 Z-1.350
G1 X5.800 Y6.686 Z-1.350
G1 X5.743 Y6.566 Z-1.350
G1 X5.750 Y6.433 Z-1.350
G1 X5.819 Y6.319 Z-1.350
G1 X5.933 Y6.250 Z-1.350
G1 X6.066 Y6.243 Z-1.350
G1 X6.186 Y6.300 Z-1.350
G1 X6.266 Y6.408 Z-1.350
G1 X6.287 Y6.512 Z-1.350
G1 X6.367 Y6.512 Z-1.350
G1 X6.340 Y6.648 Z-1.350
G1 X6.263 Y6.763 Z-1.350
G1 X6.148 Y6.840 Z-1.350
G1 X6.012 Y6.867 Z-1.350
G1 X5.877 Y6.840 Z-1.350
G1 X5.762 Y6.763 Z-1.350
G1 X5.685 Y6.648 Z-1.350
G1 X5.658 Y6.512 Z-1.350
G1 X5.685 Y6.377 Z-1.350
G1 X5.762 Y6.262 Z-1.350
G1 X5.877 Y6.185 Z-1.350
G1 X6.012 Y6.158 Z-1.350
G1 X6.148 Y6.185 Z-1.350
G1 X6.263 Y6.262 Z-1.350
G1 X6.340 Y6.377 Z-1.350
G1 X6.367 Y6.512 Z-1.350
G1 X6.447 Y6.512 Z-1.350
G1 X6.414 Y6.679 Z-1.350
G1 X6.320 Y6.820 Z-1.350
G1 X6.179 Y6.914 Z-1.350
G1 X6.012 Y6.947 Z-1.350
G1 X5.846 Y6.914 Z-1.350
G1 X5.705 Y6.820 Z-1.350
G1 X5.611 Y6.679 Z-1.350
G1 X5.578 Y6.512 Z-1.350
G1 X5.611 Y6.346 Z-1.350
G1 X5.705 Y6.205 Z-1.350
G1 X5.846 Y6.111 Z-1.350
G1 X6.012 Y6.078 Z-1.350
G1 X6.179 Y6.111 Z-1.350
G1 X6.320 Y6.205 Z-1.350
G1 X6.414 Y6.346 Z-1.350
G1 X6.447 Y6.512 Z-1.350
G1 X6.527 Y6.512 Z-1.350
G1 X6.488 Y6.709 Z-1.350
G1 X6.376 Y6.876 Z-1.350
G1 X6.209 Y6.988 Z-1.350
G1 X6.012 Y7.027 Z-1.350
G1 X5.816 Y6.988 Z-1.350
G1 X5.649 Y6.876 Z-1.350
G1 X5.537 Y6.709 Z-1.350
G1 X5.498 Y6.512 Z-1.350
G1 X5.537 Y6.316 Z-1.350
G1 X5.649 Y6.149 Z-1.350
G1 X5.816 Y6.037 Z-1.350
G1 X6.012 Y5.998 Z-1.350
G1 X6.209 Y6.037 Z-1.350
G1 X6.376 Y6.149 Z-1.350
G1 X6.488 Y6.316 Z-1.350
G1 X6.527 Y6.512 Z-1.350
G1 X6.607 Y6.512 Z-1.350
G1 X6.582 Y6.685 Z-1.350
G1 X6.507 Y6.843 Z-1.350
G1 X6.390 Y6.972 Z-1.350
G1 X6.240 Y7.062 Z-1.350
G1 X6.071 Y7.104 Z-1.350
G1 X5.896 Y7.096 Z-1.350
G1 X5.732 Y7.037 Z-1.350
G1 X5.592 Y6.933 Z-1.350
G1 X5.488 Y6.793 Z-1.350
G1 X5.429 Y6.629 Z-1.350
G1 X5.421 Y6.454 Z-1.350
G1 X5.463 Y6.285 Z-1.350
G1 X5.553 Y6.135 Z-1.350
G1 X5.682 Y6.018 Z-1.350
G1 X5.840 Y5.943 Z-1.350
G1 X6.012 Y5.918 Z-1.350
G1 X6.185 Y5.943 Z-1.350
G1 X6.343 Y6.018 Z-1.350
G1 X6.472 Y6.135 Z-1.350
G1 X6.562 Y6.285 Z-1.350
G1 X6.604 Y6.454 Z-1.350
G1 X6.607 Y6.512 Z-1.350
G1 X6.687 Y6.512 Z-1.350
G1 X6.658 Y6.708 Z-1.350
G1 X6.574 Y6.887 Z-1.350
G1 X6.441 Y7.034 Z-1.350
G1 X6.271 Y7.136 Z-1.350
G1 X6.079 Y7.184 Z-1.350
G1 X5.881 Y7.174 Z-1.350
G1 X5.694 Y7.108 Z-1.350
G1 X5.535 Y6.990 Z-1.350
G1 X5.417 Y6.831 Z-1.350
G1 X5.351 Y6.644 Z-1.350
G1 X5.341 Y6.446 Z-1.350
G1 X5.389 Y6.254 Z-1.350
G1 X5.491 Y6.084 Z-1.350
G1 X5.638 Y5.951 Z-1.350
G1 X5.817 Y5.867 Z-1.350
G1 X6.012 Y5.838 Z-1.350
G1 X6.208 Y5.867 Z-1.350
G1 X6.387 Y5.951 Z-1.350
G1 X6.534 Y6.084 Z-1.350
G1 X6.636 Y6.254 Z-1.350
G1 X6.684 Y6.446 Z-1.350
G1 X6.687 Y6.512 Z-1.350
G1 X6.767 Y6.512 Z-1.350
G1 X6.735 Y6.732 Z-1.350
G1 X6.640 Y6.932 Z-1.350
G1 X6.491 Y7.096 Z-1.350
G1 X6.301 Y7.210 Z-1.350
G1 X6.086 Y7.264 Z-1.350
G1 X5.865 Y7.253 Z-1.350
G1 X5.657 Y7.178 Z-1.350
G1 X5.479 Y7.046 Z-1.350
G1 X5.347 Y6.868 Z-1.350
G1 X5.272 Y6.660 Z-1.350
G1 X5.261 Y6.439 Z-1.350
G1 X5.315 Y6.224 Z-1.350
G1 X5.429 Y6.034 Z-1.350
G1 X5.593 Y5.885 Z-1.350
G1 X5.793 Y5.790 Z-1.350
G1 X6.012 Y5.758 Z-1.350
G1 X6.232 Y5.790 Z-1.350
G1 X6.432 Y5.885 Z-1.350
G1 X6.596 Y6.034 Z-1.350
G1 X6.710 Y6.224 Z-1.350
G1 X6.764 Y6.439 Z-1.350
G1 X6.767 Y6.512 Z-1.350
G1 X6.847 Y6.512 Z-1.350
G1 X6.811 Y6.755 Z-1.350
G1 X6.707 Y6.976 Z-1.350
G1 X6.542 Y7.158 Z-1.350
G1 X6.332 Y7.284 Z-1.350
G1 X6.094 Y7.343 Z-1.350
G1 X5.850 Y7.331 Z-1.350
G1 X5.619 Y7.249 Z-1.350
G1 X5.422 Y7.103 Z-1.350
G1 X5.276 Y6.906 Z-1.350
G1 X5.194 Y6.675 Z-1.350
G1 X5.182 Y6.431 Z-1.350
G1 X5.241 Y6.193 Z-1.350
G1 X5.367 Y5.983 Z-1.350
G1 X5.549 Y5.818 Z-1.350
G1 X5.770 Y5.714 Z-1.350
G1 X6.012 Y5.678 Z-1.350
G1 X6.255 Y5.714 Z-1.350
G1 X6.476 Y5.818 Z-1.350
G1 X6.658 Y5.983 Z-1.350
G1 X6.784 Y6.193 Z-1.350
G1 X6.843 Y6.431 Z-1.350
G1 X6.847 Y6.512 Z-1.350
G1 X6.928 Y6.512 Z-1.350
G1 X6.888 Y6.778 Z-1.350
G1 X6.773 Y7.021 Z-1.350
G1 X6.593 Y7.220 Z-1.350
G1 X6.363 Y7.358 Z-1.350
G1 X6.102 Y7.423 Z-1.350
G1 X5.834 Y7.410 Z-1.350
G1 X5.581 Y7.320 Z-1.350
G1 X5.365 Y7.160 Z-1.350
G1 X5.205 Y6.944 Z-1.350
G1 X5.115 Y6.691 Z-1.350
G1 X5.102 Y6.423 Z-1.350
G1 X5.167 Y6.162 Z-1.350
G1 X5.305 Y5.932 Z-1.350
G1 X5.504 Y5.752 Z-1.350
G1 X5.747 Y5.637 Z-1.350
G1 X6.012 Y5.597 Z-1.350
G1 X6.278 Y5.637 Z-1.350
G1 X6.521 Y5.752 Z-1.350
G1 X6.720 Y5.932 Z-1.350
G1 X6.858 Y6.162 Z-1.350
G1 X6.923 Y6.423 Z-1.350
G1 X6.928 Y6.512 Z-1.350
G1 X7.008 Y6.512 Z-1.350
G1 X6.965 Y6.801 Z-1.350
G1 X6.840 Y7.065 Z-1.350
G1 X6.644 Y7.282 Z-1.350
G1 X6.393 Y7.432 Z-1.350
G1 X6.110 Y7.503 Z-1.350
G1 X5.818 Y7.489 Z-1.350
G1 X5.543 Y7.390 Z-1.350
G1 X5.309 Y7.216 Z-1.350
G1 X5.135 Y6.982 Z-1.350
G1 X5.036 Y6.707 Z-1.350
G1 X5.022 Y6.415 Z-1.350
G1 X5.093 Y6.132 Z-1.350
G1 X5.243 Y5.881 Z-1.350
G1 X5.460 Y5.685 Z-1.350
G1 X5.724 Y5.560 Z-1.350
G1 X6.012 Y5.517 Z-1.350
G1 X6.301 Y5.560 Z-1.350
G1 X6.565 Y5.685 Z-1.350
G1 X6.782 Y5.881 Z-1.350
G1 X6.932 Y6.132 Z-1.350
G1 X7.003 Y6.415 Z-1.350
G1 X7.008 Y6.512 Z-1.350
G1 X7.088 Y6.512 Z-1.350
G1 X7.067 Y6.722 Z-1.350
G1 X7.006 Y6.924 Z-1.350
G1 X6.907 Y7.110 Z-1.350
G1 X6.773 Y7.273 Z-1.350
G1 X6.610 Y7.407 Z-1.350
G1 X6.424 Y7.506 Z-1.350
G1 X6.222 Y7.567 Z-1.350
G1 X6.012 Y7.588 Z-1.350
G1 X5.803 Y7.567 Z-1.350
G1 X5.601 Y7.506 Z-1.350
G1 X5.415 Y7.407 Z-1.350
G1 X5.252 Y7.273 Z-1.350
G1 X5.118 Y7.110 Z-1.350
G1 X5.019 Y6.924 Z-1.350
G1 X4.958 Y6.722 Z-1.350
G1 X4.937 Y6.512 Z-1.350
G1 X4.958 Y6.303 Z-1.350
G1 X5.019 Y6.101 Z-1.350
G1 X5.118 Y5.915 Z-1.350
G1 X5.252 Y5.752 Z-1.350
G1 X5.415 Y5.618 Z-1.350
G1 X5.601 Y5.519 Z-1.350
G1 X5.803 Y5.458 Z-1.350
G1 X6.012 Y5.437 Z-1.350
G1 X6.222 Y5.458 Z-1.350
G1 X6.424 Y5.519 Z-1.350
G1 X6.610 Y5.618 Z-1.350
G1 X6.773 Y5.752 Z-1.350
G1 X6.907 Y5.915 Z-1.350
G1 X7.006 Y6.101 Z-1.350
G1 X7.067 Y6.303 Z-1.350
G1 X7.088 Y6.512 Z-1.350
G1 X7.168 Y6.512 Z-1.350
G1 X7.146 Y6.738 Z-1.350
G1 X7.080 Y6.955 Z-1.350
G1 X6.973 Y7.154 Z-1.350
G1 X6.829 Y7.329 Z-1.350
G1 X6.654 Y7.473 Z-1.350
G1 X6.455 Y7.580 Z-1.350
G1 X6.238 Y7.646 Z-1.350
G1 X6.012 Y7.668 Z-1.350
G1 X5.787 Y7.646 Z-1.350
G1 X5.570 Y7.580 Z-1.350
G1 X5.371 Y7.473 Z-1.350
G1 X5.196 Y7.329 Z-1.350
G1 X5.052 Y7.154 Z-1.350
G1 X4.945 Y6.955 Z-1.350
G1 X4.879 Y6.738 Z-1.350
G1 X4.857 Y6.512 Z-1.350
G1 X4.879 Y6.287 Z-1.350
G1 X4.945 Y6.070 Z-1.350
G1 X5.052 Y5.871 Z-1.350
G1 X5.196 Y5.696 Z-1.350
G1 X5.371 Y5.552 Z-1.350
G1 X5.570 Y5.445 Z-1.350
G1 X5.787 Y5.379 Z-1.350
G1 X6.012 Y5.357 Z-1.350
G1 X6.238 Y5.379 Z-1.350
G1 X6.455 Y5.445 Z-1.350
G1 X6.654 Y5.552 Z-1.350
G1 X6.829 Y5.696 Z-1.350
G1 X6.973 Y5.871 Z-1.350
G1 X7.080 Y6.070 Z-1.350
G1 X7.146 Y6.287 Z-1.350
G1 X7.168 Y6.512 Z-1.350
G1 X7.248 Y6.512 Z-1.350
G1 X7.224 Y6.754 Z-1.350
G1 X7.154 Y6.985 Z-1.350
G1 X7.040 Y7.199 Z-1.350
G1 X6.886 Y7.386 Z-1.350
G1 X6.699 Y7.540 Z-1.350
G1 X6.485 Y7.654 Z-1.350
G1 X6.254 Y7.724 Z-1.350
G1 X6.012 Y7.748 Z-1.350
G1 X5.771 Y7.724 Z-1.350
G1 X5.540 Y7.654 Z-1.350
G1 X5.326 Y7.540 Z-1.350
G1 X5.139 Y7.386 Z-1.350
G1 X4.985 Y7.199 Z-1.350
G1 X4.871 Y6.985 Z-1.350
G1 X4.801 Y6.754 Z-1.350
G1 X4.777 Y6.512 Z-1.350
G1 X4.801 Y6.271 Z-1.350
G1 X4.871 Y6.040 Z-1.350
G1 X4.985 Y5.826 Z-1.350
G1 X5.139 Y5.639 Z-1.350
G1 X5.326 Y5.485 Z-1.350
G1 X5.540 Y5.371 Z-1.350
G1 X5.771 Y5.301 Z-1.350
G1 X6.012 Y5.277 Z-1.350
G1 X6.254 Y5.301 Z-1.350
G1 X6.485 Y5.371 Z-1.350
G1 X6.699 Y5.485 Z-1.350
G1 X6.886 Y5.639 Z-1.350
G1 X7.040 Y5.826 Z-1.350
G1 X7.154 Y6.040 Z-1.350
G1 X7.224 Y6.271 Z-1.350
G1 X7.248 Y6.512 Z-1.350
G1 X7.328 Y6.512 Z-1.350
G1 X7.303 Y6.769 Z-1.350
G1 X7.228 Y7.016 Z-1.350
G1 X7.106 Y7.243 Z-1.350
G1 X6.943 Y7.443 Z-1.350
G1 X6.743 Y7.606 Z-1.350
G1 X6.516 Y7.728 Z-1.350
G1 X6.269 Y7.803 Z-1.350
G1 X6.012 Y7.828 Z-1.350
G1 X5.756 Y7.803 Z-1.350
G1 X5.509 Y7.728 Z-1.350
G1 X5.282 Y7.606 Z-1.350
G1 X5.082 Y7.443 Z-1.350
G1 X4.919 Y7.243 Z-1.350
G1 X4.797 Y7.016 Z-1.350
G1 X4.722 Y6.769 Z-1.350
G1 X4.697 Y6.512 Z-1.350
G1 X4.722 Y6.256 Z-1.350
G1 X4.797 Y6.009 Z-1.350
G1 X4.919 Y5.782 Z-1.350
G1 X5.082 Y5.582 Z-1.350
G1 X5.282 Y5.419 Z-1.350
G1 X5.509 Y5.297 Z-1.350
G1 X5.756 Y5.222 Z-1.350
G1 X6.012 Y5.197 Z-1.350
G1 X6.269 Y5.222 Z-1.350
G1 X6.516 Y5.297 Z-1.350
G1 X6.743 Y5.419 Z-1.350
G1 X6.943 Y5.582 Z-1.350
G1 X7.106 Y5.782 Z-1.350
G1 X7.228 Y6.009 Z-1.350
G1 X7.303 Y6.256 Z-1.350
G1 X7.328 Y6.512 Z-1.350
G1 X7.408 Y6.512 Z-1.350
G1 X7.381 Y6.785 Z-1.350
G1 X7.302 Y7.047 Z-1.350
G1 X7.173 Y7.288 Z-1.350
G1 X6.999 Y7.499 Z-1.350
G1 X6.788 Y7.673 Z-1.350
G1 X6.547 Y7.802 Z-1.350
G1 X6.285 Y7.881 Z-1.350
G1 X6.012 Y7.908 Z-1.350
G1 X5.740 Y7.881 Z-1.350
G1 X5.478 Y7.802 Z-1.350
G1 X5.237 Y7.673 Z-1.350
G1 X5.026 Y7.499 Z-1.350
G1 X4.852 Y7.288 Z-1.350
G1 X4.723 Y7.047 Z-1.350
G1 X4.644 Y6.785 Z-1.350
G1 X4.617 Y6.512 Z-1.350
G1 X4.644 Y6.240 Z-1.350
G1 X4.723 Y5.978 Z-1.350
G1 X4.852 Y5.737 Z-1.350
G1 X5.026 Y5.526 Z-1.350
G1 X5.237 Y5.352 Z-1.350
G1 X5.478 Y5.223 Z-1.350
G1 X5.740 Y5.144 Z-1.350
G1 X6.012 Y5.117 Z-1.350
G1 X6.285 Y5.144 Z-1.350
G1 X6.547 Y5.223 Z-1.350
G1 X6.788 Y5.352 Z-1.350
G1 X6.999 Y5.526 Z-1.350
G1 X7.173 Y5.737 Z-1.350
G1 X7.302 Y5.978 Z-1.350
G1 X7.381 Y6.240 Z-1.350
G1 X7.408 Y6.512 Z-1.350
G1 X7.488 Y6.512 Z-1.350
G1 X7.460 Y6.800 Z-1.350
G1 X7.376 Y7.077 Z-1.350
G1 X7.240 Y7.332 Z-1.350
G1 X7.056 Y7.556 Z-1.350
G1 X6.832 Y7.740 Z-1.350
G1 X6.577 Y7.876 Z-1.350
G1 X6.300 Y7.960 Z-1.350
G1 X6.012 Y7.988 Z-1.350
G1 X5.725 Y7.960 Z-1.350
G1 X5.448 Y7.876 Z-1.350
G1 X5.193 Y7.740 Z-1.350
G1 X4.969 Y7.556 Z-1.350
G1 X4.785 Y7.332 Z-1.350
G1 X4.649 Y7.077 Z-1.350
G1 X4.565 Y6.800 Z-1.350
G1 X4.537 Y6.512 Z-1.350
G1 X4.565 Y6.225 Z-1.350
G1 X4.649 Y5.948 Z-1.350
G1 X4.785 Y5.693 Z-1.350
G1 X4.969 Y5.469 Z-1.350
G1 X5.193 Y5.285 Z-1.350
G1 X5.448 Y5.149 Z-1.350
G1 X5.725 Y5.065 Z-1.350
G1 X6.012 Y5.037 Z-1.350
G1 X6.300 Y5.065 Z-1.350
G1 X6.577 Y5.149 Z-1.350
G1 X6.832 Y5.285 Z-1.350
G1 X7.056 Y5.469 Z-1.350
G1 X7.240 Y5.693 Z-1.350
G1 X7.376 Y5.948 Z-1.350
G1 X7.460 Y6.225 Z-1.350
G1 X7.488 Y6.512 Z-1.350
G1 X7.568 Y6.512 Z-1.350
G1 X7.538 Y6.816 Z-1.350
G1 X7.450 Y7.108 Z-1.350
G1 X7.306 Y7.377 Z-1.350
G1 X7.113 Y7.613 Z-1.350
G1 X6.877 Y7.806 Z-1.350
G1 X6.608 Y7.950 Z-1.350
G1 X6.316 Y8.038 Z-1.350
G1 X6.012 Y8.068 Z-1.350
G1 X5.709 Y8.038 Z-1.350
G1 X5.417 Y7.950 Z-1.350
G1 X5.148 Y7.806 Z-1.350
G1 X4.912 Y7.613 Z-1.350
G1 X4.719 Y7.377 Z-1.350
G1 X4.575 Y7.108 Z-1.350
G1 X4.487 Y6.816 Z-1.350
G1 X4.457 Y6.512 Z-1.350
G1 X4.487 Y6.209 Z-1.350
G1 X4.575 Y5.917 Z-1.350
G1 X4.719 Y5.648 Z-1.350
G1 X4.912 Y5.412 Z-1.350
G1 X5.148 Y5.219 Z-1.350
G1 X5.417 Y5.075 Z-1.350
G1 X5.709 Y4.987 Z-1.350
G1 X6.012 Y4.957 Z-1.350
G1 X6.316 Y4.987 Z-1.350
G1 X6.608 Y5.075 Z-1.350
G1 X6.877 Y5.219 Z-1.350
G1 X7.113 Y5.412 Z-1.350
G1 X7.306 Y5.648 Z-1.350
G1 X7.450 Y5.917 Z-1.350
G1 X7.538 Y6.209 Z-1.350
G1 X7.568 Y6.512 Z-1.350
G1 X7.648 Y6.512 Z-1.350
G1 X7.617 Y6.832 Z-1.350
G1 X7.524 Y7.139 Z-1.350
G1 X7.373 Y7.421 Z-1.350
G1 X7.169 Y7.669 Z-1.350
G1 X6.921 Y7.873 Z-1.350
G1 X6.639 Y8.024 Z-1.350
G1 X6.332 Y8.117 Z-1.350
G1 X6.012 Y8.148 Z-1.350
G1 X5.693 Y8.117 Z-1.350
G1 X5.386 Y8.024 Z-1.350
G1 X5.104 Y7.873 Z-1.350
G1 X4.856 Y7.669 Z-1.350
G1 X4.652 Y7.421 Z-1.350
G1 X4.501 Y7.139 Z-1.350
G1 X4.408 Y6.832 Z-1.350
G1 X4.377 Y6.512 Z-1.350
G1 X4.408 Y6.193 Z-1.350
G1 X4.501 Y5.886 Z-1.350
G1 X4.652 Y5.604 Z-1.350
G1 X4.856 Y5.356 Z-1.350
G1 X5.104 Y5.152 Z-1.350
G1 X5.386 Y5.001 Z-1.350
G1 X5.693 Y4.908 Z-1.350
G1 X6.012 Y4.877 Z-1.350
G1 X6.332 Y4.908 Z-1.350
G1 X6.639 Y5.001 Z-1.350
G1 X6.921 Y5.152 Z-1.350
G1 X7.169 Y5.356 Z-1.350
G1 X7.373 Y5.604 Z-1.350
G1 X7.524 Y5.886 Z-1.350
G1 X7.617 Y6.193 Z-1.350
G1 X7.648 Y6.512 Z-1.350
G1 X7.729 Y6.512 Z-1.350
G1 X7.696 Y6.847 Z-1.350
G1 X7.598 Y7.169 Z-1.350
G1 X7.439 Y7.466 Z-1.350
G1 X7.226 Y7.726 Z-1.350
G1 X6.966 Y7.939 Z-1.350
G1 X6.669 Y8.098 Z-1.350
G1 X6.347 Y8.196 Z-1.350
G1 X6.012 Y8.229 Z-1.350
G1 X5.678 Y8.196 Z-1.350
G1 X5.356 Y8.098 Z-1.350
G1 X5.059 Y7.939 Z-1.350
G1 X4.799 Y7.726 Z-1.350
G1 X4.586 Y7.466 Z-1.350
G1 X4.427 Y7.169 Z-1.350
G1 X4.329 Y6.847 Z-1.350
G1 X4.296 Y6.512 Z-1.350
G1 X4.329 Y6.178 Z-1.350
G1 X4.427 Y5.856 Z-1.350
G1 X4.586 Y5.559 Z-1.350
G1 X4.799 Y5.299 Z-1.350
G1 X5.059 Y5.086 Z-1.350
G1 X5.356 Y4.927 Z-1.350
G1 X5.678 Y4.829 Z-1.350
G1 X6.012 Y4.796 Z-1.350
G1 X6.347 Y4.829 Z-1.350
G1 X6.669 Y4.927 Z-1.350
G1 X6.966 Y5.086 Z-1.350
G1 X7.226 Y5.299 Z-1.350
G1 X7.439 Y5.559 Z-1.350
G1 X7.598 Y5.856 Z-1.350
G1 X7.696 Y6.178 Z-1.350
G1 X7.729 Y6.512 Z-1.350
G1 X7.809 Y6.512 Z-1.350
G1 X7.774 Y6.863 Z-1.350
G1 X7.672 Y7.200 Z-1.350
G1 X7.506 Y7.510 Z-1.350
G1 X7.283 Y7.783 Z-1.350
G1 X7.010 Y8.006 Z-1.350
G1 X6.700 Y8.172 Z-1.350
G1 X6.363 Y8.274 Z-1.350
G1 X6.012 Y8.309 Z-1.350
G1 X5.662 Y8.274 Z-1.350
G1 X5.325 Y8.172 Z-1.350
G1 X5.015 Y8.006 Z-1.350
G1 X4.742 Y7.783 Z-1.350
G1 X4.519 Y7.510 Z-1.350
G1 X4.353 Y7.200 Z-1.350
G1 X4.251 Y6.863 Z-1.350
G1 X4.216 Y6.512 Z-1.350
G1 X4.251 Y6.162 Z-1.350
G1 X4.353 Y5.825 Z-1.350
G1 X4.519 Y5.515 Z-1.350
G1 X4.742 Y5.242 Z-1.350
G1 X5.015 Y5.019 Z-1.350
G1 X5.325 Y4.853 Z-1.350
G1 X5.662 Y4.751 Z-1.350
G1 X6.012 Y4.716 Z-1.350
G1 X6.363 Y4.751 Z-1.350
G1 X6.700 Y4.853 Z-1.350
G1 X7.010 Y5.019 Z-1.350
G1 X7.283 Y5.242 Z-1.350
G1 X7.506 Y5.515 Z-1.350
G1 X7.672 Y5.825 Z-1.350
G1 X7.774 Y6.162 Z-1.350
G1 X7.809 Y6.512 Z-1.350
G1 X7.889 Y6.512 Z-1.350
G1 X7.853 Y6.879 Z-1.350
G1 X7.746 Y7.230 Z-1.350
G1 X7.573 Y7.555 Z-1.350
G1 X7.339 Y7.839 Z-1.350
G1 X7.055 Y8.073 Z-1.350
G1 X6.730 Y8.246 Z-1.350
G1 X6.379 Y8.353 Z-1.350
G1 X6.012 Y8.389 Z-1.350
G1 X5.646 Y8.353 Z-1.350
G1 X5.295 Y8.246 Z-1.350
G1 X4.970 Y8.073 Z-1.350
G1 X4.686 Y7.839 Z-1.350
G1 X4.452 Y7.555 Z-1.350
G1 X4.279 Y7.230 Z-1.350
G1 X4.172 Y6.879 Z-1.350
G1 X4.136 Y6.512 Z-1.350
G1 X4.172 Y6.146 Z-1.350
G1 X4.279 Y5.795 Z-1.350
G1 X4.452 Y5.470 Z-1.350
G1 X4.686 Y5.186 Z-1.350
G1 X4.970 Y4.952 Z-1.350
G1 X5.295 Y4.779 Z-1.350
G1 X5.646 Y4.672 Z-1.350
G1 X6.012 Y4.636 Z-1.350
G1 X6.379 Y4.672 Z-1.350
G1 X6.730 Y4.779 Z-1.350
G1 X7.055 Y4.952 Z-1.350
G1 X7.339 Y5.186 Z-1.350
G1 X7.573 Y5.470 Z-1.350
G1 X7.746 Y5.795 Z-1.350
G1 X7.853 Y6.146 Z-1.350
G1 X7.889 Y6.512 Z-1.350
G1 X7.969 Y6.512 Z-1.350
G1 X7.931 Y6.894 Z-1.350
G1 X7.820 Y7.261 Z-1.350
G1 X7.639 Y7.599 Z-1.350
G1 X7.396 Y7.896 Z-1.350
G1 X7.099 Y8.139 Z-1.350
G1 X6.761 Y8.320 Z-1.350
G1 X6.394 Y8.431 Z-1.350
G1 X6.012 Y8.469 Z-1.350
G1 X5.631 Y8.431 Z-1.350
G1 X5.264 Y8.320 Z-1.350
G1 X4.926 Y8.139 Z-1.350
G1 X4.629 Y7.896 Z-1.350
G1 X4.386 Y7.599 Z-1.350
G1 X4.205 Y7.261 Z-1.350
G1 X4.094 Y6.894 Z-1.350
G1 X4.056 Y6.512 Z-1.350
G1 X4.094 Y6.131 Z-1.350
G1 X4.205 Y5.764 Z-1.350
G1 X4.386 Y5.426 Z-1.350
G1 X4.629 Y5.129 Z-1.350
G1 X4.926 Y4.886 Z-1.350
G1 X5.264 Y4.705 Z-1.350
G1 X5.631 Y4.594 Z-1.350
G1 X6.012 Y4.556 Z-1.350
G1 X6.394 Y4.594 Z-1.350
G1 X6.761 Y4.705 Z-1.350
G1 X7.099 Y4.886 Z-1.350
G1 X7.396 Y5.129 Z-1.350
G1 X7.639 Y5.426 Z-1.350
G1 X7.820 Y5.764 Z-1.350
G1 X7.931 Y6.131 Z-1.350
G1 X7.969 Y6.512 Z-1.350
G1 X8.049 Y6.512 Z-1.350
G1 X8.010 Y6.910 Z-1.350
G1 X7.894 Y7.292 Z-1.350
G1 X7.706 Y7.644 Z-1.350
G1 X7.452 Y7.952 Z-1.350
G1 X7.144 Y8.206 Z-1.350
G1 X6.792 Y8.394 Z-1.350
G1 X6.410 Y8.510 Z-1.350
G1 X6.012 Y8.549 Z-1.350
G1 X5.615 Y8.510 Z-1.350
G1 X5.233 Y8.394 Z-1.350
G1 X4.881 Y8.206 Z-1.350
G1 X4.573 Y7.952 Z-1.350
G1 X4.319 Y7.644 Z-1.350
G1 X4.131 Y7.292 Z-1.350
G1 X4.015 Y6.910 Z-1.350
G1 X3.976 Y6.512 Z-1.350
G1 X4.015 Y6.115 Z-1.350
G1 X4.131 Y5.733 Z-1.350
G1 X4.319 Y5.381 Z-1.350
G1 X4.573 Y5.073 Z-1.350
G1 X4.881 Y4.819 Z-1.350
G1 X5.233 Y4.631 Z-1.350
G1 X5.615 Y4.515 Z-1.350
G1 X6.012 Y4.476 Z-1.350
G1 X6.410 Y4.515 Z-1.350
G1 X6.792 Y4.631 Z-1.350
G1 X7.144 Y4.819 Z-1.350
G1 X7.452 Y5.073 Z-1.350
G1 X7.706 Y5.381 Z-1.350
G1 X7.894 Y5.733 Z-1.350
G1 X8.010 Y6.115 Z-1.350
G1 X8.049 Y6.512 Z-1.350
G0 X8.049 Y6.512
G0 Z5.080
G0 X6.047 Y6.512
G0 Z5.080
G1 X6.047 Y6.512 Z-1.800 F1000.0
G1 X6.016 Y6.547 Z-1.800 F3000.0
G1 X5.979 Y6.519 Z-1.800
G1 X6.002 Y6.479 Z-1.800
G1 X6.045 Y6.499 Z-1.800
G1 X6.047 Y6.512 Z-1.800
G1 X6.127 Y6.512 Z-1.800
G1 X6.094 Y6.594 Z-1.800
G1 X6.012 Y6.627 Z-1.800
G1 X5.931 Y6.594 Z-1.800
G1 X5.898 Y6.512 Z-1.800
G1 X5.931 Y6.431 Z-1.800
G1 X6.012 Y6.398 Z-1.800
G1 X6.094 Y6.431 Z-1.800
G1 X6.127 Y6.512 Z-1.800
G1 X6.207 Y6.512 Z-1.800
G1 X6.175 Y6.621 Z-1.800
G1 X6.087 Y6.693 Z-1.800
G1 X5.974 Y6.704 Z-1.800
G1 X5.875 Y6.650 Z-1.800
G1 X5.821 Y6.551 Z-1.800
G1 X5.832 Y6.438 Z-1.800
G1 X5.904 Y6.350 Z-1.800
G1 X6.012 Y6.318 Z-1.800
G1 X6.121 Y6.350 Z-1.800
G1 X6.193 Y6.438 Z-1.800
G1 X6.207 Y6.512 Z-1.800
G1 X6.287 Y6.512 Z-1.800
G1 X6.255 Y6.642 Z-1.800
G1 X6.165 Y6.741 Z-1.800
G1 X6.039 Y6.786 Z-1.800
G1 X5.907 Y6.767 Z-1.800
G1 X5.800 Y6.687 Z-1.800
G1 X5.743 Y6.566 Z-1.800
G1 X5.749 Y6.433 Z-1.800
G1 X5.818 Y6.318 Z-1.800
G1 X5.933 Y6.249 Z-1.800
G1 X6.066 Y6.243 Z-1.800
G1 X6.187 Y6.300 Z-1.800
G1 X6.267 Y6.407 Z-1.800
G1 X6.287 Y6.512 Z-1.800
G1 X6.368 Y6.512 Z-1.800
G1 X6.341 Y6.648 Z-1.800
G1 X6.264 Y6.764 Z-1.800
G1 X6.148 Y6.841 Z-1.800
G1 X6.012 Y6.868 Z-1.800
G1 X5.877 Y6.841 Z-1.800
G1 X5.761 Y6.764 Z-1.800
G1 X5.684 Y6.648 Z-1.800
G1 X5.657 Y6.512 Z-1.800
G1 X5.684 Y6.377 Z-1.800
G1 X5.761 Y6.261 Z-1.800
G1 X5.877 Y6.184 Z-1.800
G1 X6.012 Y6.157 Z-1.800
G1 X6.148 Y6.184 Z-1.800
G1 X6.264 Y6.261 Z-1.800
G1 X6.341 Y6.377 Z-1.800
G1 X6.368 Y6.512 Z-1.800
G1 X6.448 Y6.512 Z-1.800
G1 X6.415 Y6.679 Z-1.800
G1 X6.320 Y6.820 Z-1.800
G1 X6.179 Y6.915 Z-1.800
G1 X6.012 Y6.948 Z-1.800
G1 X5.846 Y6.915 Z-1.800
G1 X5.705 Y6.820 Z-1.800
G1 X5.610 Y6.679 Z-1.800
G1 X5.577 Y6.512 Z-1.800
G1 X5.610 Y6.346 Z-1.800
G1 X5.705 Y6.205 Z-1.800
G1 X5.846 Y6.110 Z-1.800
G1 X6.012 Y6.077 Z-1.800
G1 X6.179 Y6.110 Z-1.800
G1 X6.320 Y6.205 Z-1.800
G1 X6.415 Y6.346 Z-1.800
G1 X6.448 Y6.512 Z-1.800
G1 X6.528 Y6.512 Z-1.800
G1 X6.489 Y6.710 Z-1.800
G1 X6.377 Y6.877 Z-1.800
G1 X6.210 Y6.989 Z-1.800
G1 X6.012 Y7.028 Z-1.800
G1 X5.815 Y6.989 Z-1.800
G1 X5.648 Y6.877 Z-1.800
G1 X5.536 Y6.710 Z-1.800
G1 X5.497 Y6.512 Z-1.800
G1 X5.536 Y6.315 Z-1.800
G1 X5.648 Y6.148 Z-1.800
G1 X5.815 Y6.036 Z-1.800
G1 X6.012 Y5.997 Z-1.800
G1 X6.210 Y6.036 Z-1.800
G1 X6.377 Y6.148 Z-1.800
G1 X6.489 Y6.315 Z-1.800
G1 X6.528 Y6.512 Z-1.800
G1 X6.608 Y6.512 Z-1.800
G1 X6.582 Y6.685 Z-1.800
G1 X6.507 Y6.843 Z-1.800
G1 X6.390 Y6.973 Z-1.800
G1 X6.240 Y7.063 Z-1.800
G1 X6.071 Y7.105 Z-1.800
G1 X5.896 Y7.096 Z-1.800
G1 X5.732 Y7.038 Z-1.800
G1 X5.592 Y6.933 Z-1.800
G1 X5.487 Y6.793 Z-1.800
G1 X5.429 Y6.629 Z-1.800
G1 X5.420 Y6.454 Z-1.800
G1 X5.462 Y6.285 Z-1.800
G1 X5.552 Y6.135 Z-1.800
G1 X5.682 Y6.018 Z-1.800
G1 X5.840 Y5.943 Z-1.800
G1 X6.012 Y5.917 Z-1.800
G1 X6.185 Y5.943 Z-1.800
G1 X6.343 Y6.018 Z-1.800
G1 X6.473 Y6.135 Z-1.800
G1 X6.563 Y6.285 Z-1.800
G1 X6.605 Y6.454 Z-1.800
G1 X6.608 Y6.512 Z-1.800
G1 X6.688 Y6.512 Z-1.800
G1 X6.659 Y6.709 Z-1.800
G1 X6.574 Y6.888 Z-1.800
G1 X6.441 Y7.035 Z-1.800
G1 X6.271 Y7.137 Z-1.800
G1 X6.079 Y7.185 Z-1.800
G1 X5.881 Y7.175 Z-1.800
G1 X5.694 Y7.108 Z-1.800
G1 X5.535 Y6.990 Z-1.800
G1 X5.417 Y6.831 Z-1.800
G1 X5.350 Y6.644 Z-1.800
G1 X5.340 Y6.446 Z-1.800
G1 X5.388 Y6.254 Z-1.800
G1 X5.490 Y6.084 Z-1.800
G1 X5.637 Y5.951 Z-1.800
G1 X5.816 Y5.866 Z-1.800
G1 X6.012 Y5.837 Z-1.800
G1 X6.209 Y5.866 Z-1.800
G1 X6.388 Y5.951 Z-1.800
G1 X6.535 Y6.084 Z-1.800
G1 X6.637 Y6.254 Z-1.800
G1 X6.685 Y6.446 Z-1.800
G1 X6.688 Y6.512 Z-1.800
G1 X6.768 Y6.512 Z-1.800
G1 X6.735 Y6.732 Z-1.800
G1 X6.641 Y6.932 Z-1.800
G1 X6.492 Y7.097 Z-1.800
G1 X6.302 Y7.211 Z-1.800
G1 X6.087 Y7.264 Z-1.800
G1 X5.865 Y7.253 Z-1.800
G1 X5.656 Y7.179 Z-1.800
G1 X5.478 Y7.047 Z-1.800
G1 X5.346 Y6.869 Z-1.800
G1 X5.272 Y6.660 Z-1.800
G1 X5.261 Y6.438 Z-1.800
G1 X5.314 Y6.223 Z-1.800
G1 X5.428 Y6.033 Z-1.800
G1 X5.593 Y5.884 Z-1.800
G1 X5.793 Y5.790 Z-1.800
G1 X6.012 Y5.757 Z-1.800
G1 X6.232 Y5.790 Z-1.800
G1 X6.432 Y5.884 Z-1.800
G1 X6.597 Y6.033 Z-1.800
G1 X6.711 Y6.223 Z-1.800
G1 X6.764 Y6.438 Z-1.800
G1 X6.768 Y6.512 Z-1.800
G1 X6.848 Y6.512 Z-1.800
G1 X6.812 Y6.755 Z-1.800
G1 X6.707 Y6.977 Z-1.800
G1 X6.543 Y7.158 Z-1.800
G1 X6.332 Y7.285 Z-1.800
G1 X6.094 Y7.344 Z-1.800
G1 X5.849 Y7.332 Z-1.800
G1 X5.619 Y7.249 Z-1.800
G1 X5.422 Y7.103 Z-1.800
G1 X5.276 Y6.906 Z-1.800
G1 X5.193 Y6.676 Z-1.800
G1 X5.181 Y6.431 Z-1.800
G1 X5.240 Y6.193 Z-1.800
G1 X5.367 Y5.982 Z-1.800
G1 X5.548 Y5.818 Z-1.800
G1 X5.770 Y5.713 Z-1.800
G1 X6.012 Y5.677 Z-1.800
G1 X6.255 Y5.713 Z-1.800
G1 X6.477 Y5.818 Z-1.800
G1 X6.658 Y5.982 Z-1.800
G1 X6.785 Y6.193 Z-1.800
G1 X6.844 Y6.431 Z-1.800
G1 X6.848 Y6.512 Z-1.800
G1 X6.928 Y6.512 Z-1.800
G1 X6.889 Y6.778 Z-1.800
G1 X6.774 Y7.021 Z-1.800
G1 X6.593 Y7.220 Z-1.800
G1 X6.363 Y7.359 Z-1.800
G1 X6.102 Y7.424 Z-1.800
G1 X5.834 Y7.411 Z-1.800
G1 X5.581 Y7.320 Z-1.800
G1 X5.365 Y7.160 Z-1.800
G1 X5.205 Y6.944 Z-1.800
G1 X5.114 Y6.691 Z-1.800
G1 X5.101 Y6.423 Z-1.800
G1 X5.166 Y6.162 Z-1.800
G1 X5.305 Y5.932 Z-1.800
G1 X5.504 Y5.751 Z-1.800
G1 X5.747 Y5.636 Z-1.800
G1 X6.012 Y5.597 Z-1.800
G1 X6.278 Y5.636 Z-1.800
G1 X6.521 Y5.751 Z-1.800
G1 X6.720 Y5.932 Z-1.800
G1 X6.859 Y6.162 Z-1.800
G1 X6.924 Y6.423 Z-1.800
G1 X6.928 Y6.512 Z-1.800
G1 X7.008 Y6.512 Z-1.800
G1 X6.965 Y6.802 Z-1.800
G1 X6.840 Y7.066 Z-1.800
G1 X6.644 Y7.282 Z-1.800
G1 X6.394 Y7.433 Z-1.800
G1 X6.110 Y7.504 Z-1.800
G1 X5.818 Y7.489 Z-1.800
G1 X5.543 Y7.391 Z-1.800
G1 X5.308 Y7.217 Z-1.800
G1 X5.134 Y6.982 Z-1.800
G1 X5.036 Y6.707 Z-1.800
G1 X5.021 Y6.415 Z-1.800
G1 X5.092 Y6.131 Z-1.800
G1 X5.243 Y5.881 Z-1.800
G1 X5.459 Y5.685 Z-1.800
G1 X5.723 Y5.560 Z-1.800
G1 X6.012 Y5.517 Z-1.800
G1 X6.302 Y5.560 Z-1.800
G1 X6.566 Y5.685 Z-1.800
G1 X6.782 Y5.881 Z-1.800
G1 X6.933 Y6.131 Z-1.800
G1 X7.004 Y6.415 Z-1.800
G1 X7.008 Y6.512 Z-1.800
G1 X7.088 Y6.512 Z-1.800
G1 X7.068 Y6.722 Z-1.800
G1 X7.007 Y6.924 Z-1.800
G1 X6.907 Y7.110 Z-1.800
G1 X6.773 Y7.273 Z-1.800
G1 X6.610 Y7.407 Z-1.800
G1 X6.424 Y7.507 Z-1.800
G1 X6.222 Y7.568 Z-1.800
G1 X6.012 Y7.588 Z-1.800
G1 X5.803 Y7.568 Z-1.800
G1 X5.601 Y7.507 Z-1.800
G1 X5.415 Y7.407 Z-1.800
G1 X5.252 Y7.273 Z-1.800
G1 X5.118 Y7.110 Z-1.800
G1 X5.018 Y6.924 Z-1.800
G1 X4.957 Y6.722 Z-1.800
G1 X4.937 Y6.512 Z-1.800
G1 X4.957 Y6.303 Z-1.800
G1 X5.018 Y6.101 Z-1.800
G1 X5.118 Y5.915 Z-1.800
G1 X5.252 Y5.752 Z-1.800
G1 X5.415 Y5.618 Z-1.800
G1 X5.601 Y5.518 Z-1.800
G1 X5.803 Y5.457 Z-1.800
G1 X6.012 Y5.437 Z-1.800
G1 X6.222 Y5.457 Z-1.800
G1 X6.424 Y5.518 Z-1.800
G1 X6.610 Y5.618 Z-1.800
G1 X6.773 Y5.752 Z-1.800
G1 X6.907 Y5.915 Z-1.800
G1 X7.007 Y6.101 Z-1.800
G1 X7.068 Y6.303 Z-1.800
G1 X7.088 Y6.512 Z-1.800
G1 X7.168 Y6.512 Z-1.800
G1 X7.146 Y6.738 Z-1.800
G1 X7.080 Y6.955 Z-1.800
G1 X6.974 Y7.155 Z-1.800
G1 X6.830 Y7.330 Z-1.800
G1 X6.655 Y7.474 Z-1.800
G1 X6.455 Y7.580 Z-1.800
G1 X6.238 Y7.646 Z-1.800
G1 X6.012 Y7.668 Z-1.800
G1 X5.787 Y7.646 Z-1.800
G1 X5.570 Y7.580 Z-1.800
G1 X5.370 Y7.474 Z-1.800
G1 X5.195 Y7.330 Z-1.800
G1 X5.051 Y7.155 Z-1.800
G1 X4.944 Y6.955 Z-1.800
G1 X4.879 Y6.738 Z-1.800
G1 X4.857 Y6.512 Z-1.800
G1 X4.879 Y6.287 Z-1.800
G1 X4.944 Y6.070 Z-1.800
G1 X5.051 Y5.870 Z-1.800
G1 X5.195 Y5.695 Z-1.800
G1 X5.370 Y5.551 Z-1.800
G1 X5.570 Y5.444 Z-1.800
G1 X5.787 Y5.379 Z-1.800
G1 X6.012 Y5.357 Z-1.800
G1 X6.238 Y5.379 Z-1.800
G1 X6.455 Y5.444 Z-1.800
G1 X6.655 Y5.551 Z-1.800
G1 X6.830 Y5.695 Z-1.800
G1 X6.974 Y5.870 Z-1.800
G1 X7.080 Y6.070 Z-1.800
G1 X7.146 Y6.287 Z-1.800
G1 X7.168 Y6.512 Z-1.800
G1 X7.249 Y6.512 Z-1.800
G1 X7.225 Y6.754 Z-1.800
G1 X7.154 Y6.986 Z-1.800
G1 X7.040 Y7.199 Z-1.800
G1 X6.887 Y7.387 Z-1.800
G1 X6.699 Y7.540 Z-1.800
G1 X6.486 Y7.654 Z-1.800
G1 X6.254 Y7.725 Z-1.800
G1 X6.012 Y7.749 Z-1.800
G1 X5.771 Y7.725 Z-1.800
G1 X5.539 Y7.654 Z-1.800
G1 X5.326 Y7.540 Z-1.800
G1 X5.138 Y7.387 Z-1.800
G1 X4.985 Y7.199 Z-1.800
G1 X4.871 Y6.986 Z-1.800
G1 X4.800 Y6.754 Z-1.800
G1 X4.776 Y6.512 Z-1.800
G1 X4.800 Y6.271 Z-1.800
G1 X4.871 Y6.039 Z-1.800
G1 X4.985 Y5.826 Z-1.800
G1 X5.138 Y5.638 Z-1.800
G1 X5.326 Y5.485 Z-1.800
G1 X5.539 Y5.371 Z-1.800
G1 X5.771 Y5.300 Z-1.800
G1 X6.012 Y5.276 Z-1.800
G1 X6.254 Y5.300 Z-1.800
G1 X6.486 Y5.371 Z-1.800
G1 X6.699 Y5.485 Z-1.800
G1 X6.887 Y5.638 Z-1.800
G1 X7.040 Y5.826 Z-1.800
G1 X7.154 Y6.039 Z-1.800
G1 X7.225 Y6.271 Z-1.800
G1 X7.249 Y6.512 Z-1.800
G1 X7.329 Y6.512 Z-1.800
G1 X7.303 Y6.769 Z-1.800
G1 X7.228 Y7.016 Z-1.800
G1 X7.107 Y7.244 Z-1.800
G1 X6.943 Y7.443 Z-1.800
G1 X6.744 Y7.607 Z-1.800
G1 X6.516 Y7.728 Z-1.800
G1 X6.269 Y7.803 Z-1.800
G1 X6.012 Y7.829 Z-1.800
G1 X5.756 Y7.803 Z-1.800
G1 X5.509 Y7.728 Z-1.800
G1 X5.281 Y7.607 Z-1.800
G1 X5.082 Y7.443 Z-1.800
G1 X4.918 Y7.244 Z-1.800
G1 X4.797 Y7.016 Z-1.800
G1 X4.722 Y6.769 Z-1.800
G1 X4.696 Y6.512 Z-1.800
G1 X4.722 Y6.256 Z-1.800
G1 X4.797 Y6.009 Z-1.800
G1 X4.918 Y5.781 Z-1.800
G1 X5.082 Y5.582 Z-1.800
G1 X5.281 Y5.418 Z-1.800
G1 X5.509 Y5.297 Z-1.800
G1 X5.756 Y5.222 Z-1.800
G1 X6.012 Y5.196 Z-1.800
G1 X6.269 Y5.222 Z-1.800
G1 X6.516 Y5.297 Z-1.800
G1 X6.744 Y5.418 Z-1.800
G1 X6.943 Y5.582 Z-1.800
G1 X7.107 Y5.781 Z-1.800
G1 X7.228 Y6.009 Z-1.800
G1 X7.303 Y6.256 Z-1.800
G1 X7.329 Y6.512 Z-1.800
G1 X7.409 Y6.512 Z-1.800
G1 X7.382 Y6.785 Z-1.800
G1 X7.302 Y7.047 Z-1.800
G1 X7.173 Y7.288 Z-1.800
G1 X7.000 Y7.500 Z-1.800
G1 X6.788 Y7.673 Z-1.800
G1 X6.547 Y7.802 Z-1.800
G1 X6.285 Y7.882 Z-1.800
G1 X6.012 Y7.909 Z-1.800
G1 X5.740 Y7.882 Z-1.800
G1 X5.478 Y7.802 Z-1.800
G1 X5.237 Y7.673 Z-1.800
G1 X5.025 Y7.500 Z-1.800
G1 X4.852 Y7.288 Z-1.800
G1 X4.723 Y7.047 Z-1.800
G1 X4.643 Y6.785 Z-1.800
G1 X4.616 Y6.512 Z-1.800
G1 X4.643 Y6.240 Z-1.800
G1 X4.723 Y5.978 Z-1.800
G1 X4.852 Y5.737 Z-1.800
G1 X5.025 Y5.525 Z-1.800
G1 X5.237 Y5.352 Z-1.800
G1 X5.478 Y5.223 Z-1.800
G1 X5.740 Y5.143 Z-1.800
G1 X6.012 Y5.116 Z-1.800
G1 X6.285 Y5.143 Z-1.800
G1 X6.547 Y5.223 Z-1.800
G1 X6.788 Y5.352 Z-1.800
G1 X7.000 Y5.525 Z-1.800
G1 X7.173 Y5.737 Z-1.800
G1 X7.302 Y5.978 Z-1.800
G1 X7.382 Y6.240 Z-1.800
G1 X7.409 Y6.512 Z-1.800
G1 X7.489 Y6.512 Z-1.800
G1 X7.461 Y6.801 Z-1.800
G1 X7.376 Y7.077 Z-1.800
G1 X7.240 Y7.333 Z-1.800
G1 X7.056 Y7.556 Z-1.800
G1 X6.833 Y7.740 Z-1.800
G1 X6.577 Y7.876 Z-1.800
G1 X6.301 Y7.961 Z-1.800
G1 X6.012 Y7.989 Z-1.800
G1 X5.724 Y7.961 Z-1.800
G1 X5.448 Y7.876 Z-1.800
G1 X5.192 Y7.740 Z-1.800
G1 X4.969 Y7.556 Z-1.800
G1 X4.785 Y7.333 Z-1.800
G1 X4.649 Y7.077 Z-1.800
G1 X4.564 Y6.801 Z-1.800
G1 X4.536 Y6.512 Z-1.800
G1 X4.564 Y6.224 Z-1.800
G1 X4.649 Y5.948 Z-1.800
G1 X4.785 Y5.692 Z-1.800
G1 X4.969 Y5.469 Z-1.800
G1 X5.192 Y5.285 Z-1.800
G1 X5.448 Y5.149 Z-1.800
G1 X5.724 Y5.064 Z-1.800
G1 X6.012 Y5.036 Z-1.800
G1 X6.301 Y5.064 Z-1.800
G1 X6.577 Y5.149 Z-1.800
G1 X6.833 Y5.285 Z-1.800
G1 X7.056 Y5.469 Z-1.800
G1 X7.240 Y5.692 Z-1.800
G1 X7.376 Y5.948 Z-1.800
G1 X7.461 Y6.224 Z-1.800
G1 X7.489 Y6.512 Z-1.800
G1 X7.569 Y6.512 Z-1.800
G1 X7.539 Y6.816 Z-1.800
G1 X7.450 Y7.108 Z-1.800
G1 X7.307 Y7.377 Z-1.800
G1 X7.113 Y7.613 Z-1.800
G1 X6.877 Y7.807 Z-1.800
G1 X6.608 Y7.950 Z-1.800
G1 X6.316 Y8.039 Z-1.800
G1 X6.012 Y8.069 Z-1.800
G1 X5.709 Y8.039 Z-1.800
G1 X5.417 Y7.950 Z-1.800
G1 X5.148 Y7.807 Z-1.800
G1 X4.912 Y7.613 Z-1.800
G1 X4.718 Y7.377 Z-1.800
G1 X4.575 Y7.108 Z-1.800
G1 X4.486 Y6.816 Z-1.800
G1 X4.456 Y6.512 Z-1.800
G1 X4.486 Y6.209 Z-1.800
G1 X4.575 Y5.917 Z-1.800
G1 X4.718 Y5.648 Z-1.800
G1 X4.912 Y5.412 Z-1.800
G1 X5.148 Y5.218 Z-1.800
G1 X5.417 Y5.075 Z-1.800
G1 X5.709 Y4.986 Z-1.800
G1 X6.012 Y4.956 Z-1.800
G1 X6.316 Y4.986 Z-1.800
G1 X6.608 Y5.075 Z-1.800
G1 X6.877 Y5.218 Z-1.800
G1 X7.113 Y5.412 Z-1.800
G1 X7.307 Y5.648 Z-1.800
G1 X7.450 Y5.917 Z-1.800
G1 X7.539 Y6.209 Z-1.800
G1 X7.569 Y6.512 Z-1.800
G1 X7.649 Y6.512 Z-1.800
G1 X7.618 Y6.832 Z-1.800
G1 X7.524 Y7.139 Z-1.800
G1 X7.373 Y7.422 Z-1.800
G1 X7.170 Y7.670 Z-1.800
G1 X6.922 Y7.873 Z-1.800
G1 X6.639 Y8.024 Z-1.800
G1 X6.332 Y8.118 Z-1.800
G1 X6.012 Y8.149 Z-1.800
G1 X5.693 Y8.118 Z-1.800
G1 X5.386 Y8.024 Z-1.800
G1 X5.103 Y7.873 Z-1.800
G1 X4.855 Y7.670 Z-1.800
G1 X4.652 Y7.422 Z-1.800
G1 X4.501 Y7.139 Z-1.800
G1 X4.407 Y6.832 Z-1.800
G1 X4.376 Y6.512 Z-1.800
G1 X4.407 Y6.193 Z-1.800
G1 X4.501 Y5.886 Z-1.800
G1 X4.652 Y5.603 Z-1.800
G1 X4.855 Y5.355 Z-1.800
G1 X5.103 Y5.152 Z-1.800
G1 X5.386 Y5.001 Z-1.800
G1 X5.693 Y4.907 Z-1.800
G1 X6.012 Y4.876 Z-1.800
G1 X6.332 Y4.907 Z-1.800
G1 X6.639 Y5.001 Z-1.800
G1 X6.922 Y5.152 Z-1.800
G1 X7.170 Y5.355 Z-1.800
G1 X7.373 Y5.603 Z-1.800
G1 X7.524 Y5.886 Z-1.800
G1 X7.618 Y6.193 Z-1.800
G1 X7.649 Y6.512 Z-1.800
G1 X7.729 Y6.512 Z-1.800
G1 X7.696 Y6.847 Z-1.800
G1 X7.598 Y7.169 Z-1.800
G1 X7.440 Y7.466 Z-1.800
G1 X7.226 Y7.726 Z-1.800
G1 X6.966 Y7.940 Z-1.800
G1 X6.669 Y8.098 Z-1.800
G1 X6.347 Y8.196 Z-1.800
G1 X6.012 Y8.229 Z-1.800
G1 X5.678 Y8.196 Z-1.800
G1 X5.356 Y8.098 Z-1.800
G1 X5.059 Y7.940 Z-1.800
G1 X4.799 Y7.726 Z-1.800
G1 X4.585 Y7.466 Z-1.800
G1 X4.427 Y7.169 Z-1.800
G1 X4.329 Y6.847 Z-1.800
G1 X4.296 Y6.512 Z-1.800
G1 X4.329 Y6.178 Z-1.800
G1 X4.427 Y5.856 Z-1.800
G1 X4.585 Y5.559 Z-1.800
G1 X4.799 Y5.299 Z-1.800
G1 X5.059 Y5.085 Z-1.800
G1 X5.356 Y4.927 Z-1.800
G1 X5.678 Y4.829 Z-1.800
G1 X6.012 Y4.796 Z-1.800
G1 X6.347 Y4.829 Z-1.800
G1 X6.669 Y4.927 Z-1.800
G1 X6.966 Y5.085 Z-1.800
G1 X7.226 Y5.299 Z-1.800
G1 X7.440 Y5.559 Z-1.800
G1 X7.598 Y5.856 Z-1.800
G1 X7.696 Y6.178 Z-1.800
G1 X7.729 Y6.512 Z-1.800
G1 X7.809 Y6.512 Z-1.800
G1 X7.775 Y6.863 Z-1.800
G1 X7.672 Y7.200 Z-1.800
G1 X7.506 Y7.511 Z-1.800
G1 X7.283 Y7.783 Z-1.800
G1 X7.011 Y8.006 Z-1.800
G1 X6.700 Y8.172 Z-1.800
G1 X6.363 Y8.275 Z-1.800
G1 X6.012 Y8.309 Z-1.800
G1 X5.662 Y8.275 Z-1.800
G1 X5.325 Y8.172 Z-1.800
G1 X5.014 Y8.006 Z-1.800
G1 X4.742 Y7.783 Z-1.800
G1 X4.519 Y7.511 Z-1.800
G1 X4.353 Y7.200 Z-1.800
G1 X4.250 Y6.863 Z-1.800
G1 X4.216 Y6.512 Z-1.800
G1 X4.250 Y6.162 Z-1.800
G1 X4.353 Y5.825 Z-1.800
G1 X4.519 Y5.514 Z-1.800
G1 X4.742 Y5.242 Z-1.800
G1 X5.014 Y5.019 Z-1.800
G1 X5.325 Y4.853 Z-1.800
G1 X5.662 Y4.750 Z-1.800
G1 X6.012 Y4.716 Z-1.800
G1 X6.363 Y4.750 Z-1.800
G1 X6.700 Y4.853 Z-1.800
G1 X7.011 Y5.019 Z-1.800
G1 X7.283 Y5.242 Z-1.800
G1 X7.506 Y5.514 Z-1.800
G1 X7.672 Y5.825 Z-1.800
G1 X7.775 Y6.162 Z-1.800
G1 X7.809 Y6.512 Z-1.800
G1 X7.889 Y6.512 Z-1.800
G1 X7.853 Y6.879 Z-1.800
G1 X7.746 Y7.231 Z-1.800
G1 X7.573 Y7.555 Z-1.800
G1 X7.340 Y7.840 Z-1.800
G1 X7.055 Y8.073 Z-1.800
G1 X6.731 Y8.246 Z-1.800
G1 X6.379 Y8.353 Z-1.800
G1 X6.012 Y8.389 Z-1.800
G1 X5.646 Y8.353 Z-1.800
G1 X5.294 Y8.246 Z-1.800
G1 X4.970 Y8.073 Z-1.800
G1 X4.685 Y7.840 Z-1.800
G1 X4.452 Y7.555 Z-1.800
G1 X4.279 Y7.231 Z-1.800
G1 X4.172 Y6.879 Z-1.800
G1 X4.136 Y6.512 Z-1.800
G1 X4.172 Y6.146 Z-1.800
G1 X4.279 Y5.794 Z-1.800
G1 X4.452 Y5.470 Z-1.800
G1 X4.685 Y5.185 Z-1.800
G1 X4.970 Y4.952 Z-1.800
G1 X5.294 Y4.779 Z-1.800
G1 X5.646 Y4.672 Z-1.800
G1 X6.012 Y4.636 Z-1.800
G1 X6.379 Y4.672 Z-1.800
G1 X6.731 Y4.779 Z-1.800
G1 X7.055 Y4.952 Z-1.800
G1 X7.340 Y5.185 Z-1.800
G1 X7.573 Y5.470 Z-1.800
G1 X7.746 Y5.794 Z-1.800
G1 X7.853 Y6.146 Z-1.800
G1 X7.889 Y6.512 Z-1.800
G1 X7.969 Y6.512 Z-1.800
G1 X7.932 Y6.894 Z-1.800
G1 X7.820 Y7.261 Z-1.800
G1 X7.640 Y7.600 Z-1.800
G1 X7.396 Y7.896 Z-1.800
G1 X7.100 Y8.140 Z-1.800
G1 X6.761 Y8.320 Z-1.800
G1 X6.394 Y8.432 Z-1.800
G1 X6.012 Y8.469 Z-1.800
G1 X5.631 Y8.432 Z-1.800
G1 X5.264 Y8.320 Z-1.800
G1 X4.925 Y8.140 Z-1.800
G1 X4.629 Y7.896 Z-1.800
G1 X4.385 Y7.600 Z-1.800
G1 X4.205 Y7.261 Z-1.800
G1 X4.093 Y6.894 Z-1.800
G1 X4.056 Y6.512 Z-1.800
G1 X4.093 Y6.131 Z-1.800
G1 X4.205 Y5.764 Z-1.800
G1 X4.385 Y5.425 Z-1.800
G1 X4.629 Y5.129 Z-1.800
G1 X4.925 Y4.885 Z-1.800
G1 X5.264 Y4.705 Z-1.800
G1 X5.631 Y4.593 Z-1.800
G1 X6.012 Y4.556 Z-1.800
G1 X6.394 Y4.593 Z-1.800
G1 X6.761 Y4.705 Z-1.800
G1 X7.100 Y4.885 Z-1.800
G1 X7.396 Y5.129 Z-1.800
G1 X7.640 Y5.425 Z-1.800
G1 X7.820 Y5.764 Z-1.800
G1 X7.932 Y6.131 Z-1.800
G1 X7.969 Y6.512 Z-1.800
G0 X7.969 Y6.512
G0 Z5.080
G0 X58.045 Y6.512
G0 Z5.080
G1 X58.045 Y6.512 Z-0.450 F1000.0
G1 X58.016 Y6.545 Z-0.450 F3000.0
G1 X57.980 Y6.519 Z-0.450
G1 X58.003 Y6.481 Z-0.450
G1 X58.043 Y6.500 Z-0.450
G1 X58.045 Y6.512 Z-0.450
G1 X58.125 Y6.512 Z-0.450
G1 X58.092 Y6.592 Z-0.450
G1 X58.013 Y6.625 Z-0.450
G1 X57.933 Y6.592 Z-0.450
G1 X57.900 Y6.512 Z-0.450
G1 X57.933 Y6.433 Z-0.450
G1 X58.013 Y6.400 Z-0.450
G1 X58.092 Y6.433 Z-0.450
G1 X58.125 Y6.512 Z-0.450
G1 X58.205 Y6.512 Z-0.450
G1 X58.173 Y6.620 Z-0.450
G1 X58.086 Y6.691 Z-0.450
G1 X57.975 Y6.702 Z-0.450
G1 X57.876 Y6.649 Z-0.450
G1 X57.823 Y6.550 Z-0.450
G1 X57.834 Y6.439 Z-0.450
G1 X57.905 Y6.352 Z-0.450
G1 X58.013 Y6.320 Z-0.450
G1 X58.120 Y6.352 Z-0.450
G1 X58.191 Y6.439 Z-0.450
G1 X58.205 Y6.512 Z-0.450
G1 X58.285 Y6.512 Z-0.450
G1 X58.253 Y6.641 Z-0.450
G1 X58.164 Y6.739 Z-0.450
G1 X58.039 Y6.784 Z-0.450
G1 X57.908 Y6.765 Z-0.450
G1 X57.801 Y6.686 Z-0.450
G1 X57.745 Y6.566 Z-0.450
G1 X57.751 Y6.433 Z-0.450
G1 X57.819 Y6.319 Z-0.450
G1 X57.933 Y6.251 Z-0.450
G1 X58.066 Y6.245 Z-0.450
G1 X58.186 Y6.301 Z-0.450
G1 X58.265 Y6.408 Z-0.450
G1 X58.285 Y6.512 Z-0.450
G1 X58.366 Y6.512 Z-0.450
G1 X58.339 Y6.648 Z-0.450
G1 X58.262 Y6.762 Z-0.450
G1 X58.148 Y6.839 Z-0.450
G1 X58.013 Y6.866 Z-0.450
G1 X57.877 Y6.839 Z-0.450
G1 X57.763 Y6.762 Z-0.450
G1 X57.686 Y6.648 Z-0.450
G1 X57.659 Y6.512 Z-0.450
G1 X57.686 Y6.377 Z-0.450
G1 X57.763 Y6.263 Z-0.450
G1 X57.877 Y6.186 Z-0.450
G1 X58.013 Y6.159 Z-0.450
G1 X58.148 Y6.186 Z-0.450
G1 X58.262 Y6.263 Z-0.450
G1 X58.339 Y6.377 Z-0.450
G1 X58.366 Y6.512 Z-0.450
G1 X58.446 Y6.512 Z-0.450
G1 X58.413 Y6.678 Z-0.450
G1 X58.319 Y6.819 Z-0.450
G1 X58.178 Y6.913 Z-0.450
G1 X58.013 Y6.946 Z-0.450
G1 X57.847 Y6.913 Z-0.450
G1 X57.706 Y6.819 Z-0.450
G1 X57.612 Y6.678 Z-0.450
G1 X57.579 Y6.512 Z-0.450
G1 X57.612 Y6.347 Z-0.450
G1 X57.706 Y6.206 Z-0.450
G1 X57.847 Y6.112 Z-0.450
G1 X58.013 Y6.079 Z-0.450
G1 X58.178 Y6.112 Z-0.450
G1 X58.319 Y6.206 Z-0.450
G1 X58.413 Y6.347 Z-0.450
G1 X58.446 Y6.512 Z-0.450
G1 X58.526 Y6.512 Z-0.450
G1 X58.487 Y6.709 Z-0.450
G1 X58.375 Y6.875 Z-0.450
G1 X58.209 Y6.987 Z-0.450
G1 X58.013 Y7.026 Z-0.450
G1 X57.816 Y6.987 Z-0.450
G1 X57.650 Y6.875 Z-0.450
G1 X57.538 Y6.709 Z-0.450
G1 X57.499 Y6.512 Z-0.450
G1 X57.538 Y6.316 Z-0.450
G1 X57.650 Y6.150 Z-0.450
G1 X57.816 Y6.038 Z-0.450
G1 X58.013 Y5.999 Z-0.450
G1 X58.209 Y6.038 Z-0.450
G1 X58.375 Y6.150 Z-0.450
G1 X58.487 Y6.316 Z-0.450
G1 X58.526 Y6.512 Z-0.450
G1 X58.606 Y6.512 Z-0.450
G1 X58.580 Y6.685 Z-0.450
G1 X58.506 Y6.842 Z-0.450
G1 X58.389 Y6.971 Z-0.450
G1 X58.240 Y7.061 Z-0.450
G1 X58.071 Y7.103 Z-0.450
G1 X57.897 Y7.094 Z-0.450
G1 X57.733 Y7.036 Z-0.450
G1 X57.593 Y6.932 Z-0.450
G1 X57.489 Y6.792 Z-0.450
G1 X57.431 Y6.628 Z-0.450
G1 X57.422 Y6.454 Z-0.450
G1 X57.464 Y6.285 Z-0.450
G1 X57.554 Y6.136 Z-0.450
G1 X57.683 Y6.019 Z-0.450
G1 X57.840 Y5.945 Z-0.450
G1 X58.013 Y5.919 Z-0.450
G1 X58.185 Y5.945 Z-0.450
G1 X58.342 Y6.019 Z-0.450
G1 X58.471 Y6.136 Z-0.450
G1 X58.561 Y6.285 Z-0.450
G1 X58.603 Y6.454 Z-0.450
G1 X58.606 Y6.512 Z-0.450
G1 X58.686 Y6.512 Z-0.450
G1 X58.657 Y6.708 Z-0.450
G1 X58.572 Y6.887 Z-0.450
G1 X58.440 Y7.033 Z-0.450
G1 X58.270 Y7.135 Z-0.450
G1 X58.079 Y7.183 Z-0.450
G1 X57.881 Y7.173 Z-0.450
G1 X57.695 Y7.106 Z-0.450
G1 X57.536 Y6.989 Z-0.450
G1 X57.419 Y6.830 Z-0.450
G1 X57.352 Y6.644 Z-0.450
G1 X57.342 Y6.446 Z-0.450
G1 X57.390 Y6.255 Z-0.450
G1 X57.492 Y6.085 Z-0.450
G1 X57.638 Y5.953 Z-0.450
G1 X57.817 Y5.868 Z-0.450
G1 X58.013 Y5.839 Z-0.450
G1 X58.208 Y5.868 Z-0.450
G1 X58.387 Y5.953 Z-0.450
G1 X58.533 Y6.085 Z-0.450
G1 X58.635 Y6.255 Z-0.450
G1 X58.683 Y6.446 Z-0.450
G1 X58.686 Y6.512 Z-0.450
G1 X58.766 Y6.512 Z-0.450
G1 X58.734 Y6.731 Z-0.450
G1 X58.639 Y6.931 Z-0.450
G1 X58.491 Y7.095 Z-0.450
G1 X58.301 Y7.209 Z-0.450
G1 X58.086 Y7.262 Z-0.450
G1 X57.865 Y7.252 Z-0.450
G1 X57.657 Y7.177 Z-0.450
G1 X57.480 Y7.045 Z-0.450
G1 X57.348 Y6.868 Z-0.450
G1 X57.273 Y6.660 Z-0.450
G1 X57.263 Y6.439 Z-0.450
G1 X57.316 Y6.224 Z-0.450
G1 X57.430 Y6.034 Z-0.450
G1 X57.594 Y5.886 Z-0.450
G1 X57.794 Y5.791 Z-0.450
G1 X58.013 Y5.759 Z-0.450
G1 X58.231 Y5.791 Z-0.450
G1 X58.431 Y5.886 Z-0.450
G1 X58.595 Y6.034 Z-0.450
G1 X58.709 Y6.224 Z-0.450
G1 X58.762 Y6.439 Z-0.450
G1 X58.766 Y6.512 Z-0.450
G1 X58.846 Y6.512 Z-0.450
G1 X58.810 Y6.754 Z-0.450
G1 X58.706 Y6.976 Z-0.450
G1 X58.541 Y7.157 Z-0.450
G1 X58.332 Y7.283 Z-0.450
G1 X58.094 Y7.342 Z-0.450
G1 X57.850 Y7.330 Z-0.450
G1 X57.620 Y7.248 Z-0.450
G1 X57.423 Y7.102 Z-0.450
G1 X57.277 Y6.905 Z-0.450
G1 X57.195 Y6.675 Z-0.450
G1 X57.183 Y6.431 Z-0.450
G1 X57.242 Y6.193 Z-0.450
G1 X57.368 Y5.984 Z-0.450
G1 X57.549 Y5.819 Z-0.450
G1 X57.771 Y5.715 Z-0.450
G1 X58.013 Y5.679 Z-0.450
G1 X58.254 Y5.715 Z-0.450
G1 X58.476 Y5.819 Z-0.450
G1 X58.657 Y5.984 Z-0.450
G1 X58.783 Y6.193 Z-0.450
G1 X58.842 Y6.431 Z-0.450
G1 X58.846 Y6.512 Z-0.450
G1 X58.926 Y6.512 Z-0.450
G1 X58.887 Y6.778 Z-0.450
G1 X58.772 Y7.020 Z-0.450
G1 X58.592 Y7.219 Z-0.450
G1 X58.362 Y7.357 Z-0.450
G1 X58.102 Y7.422 Z-0.450
G1 X57.834 Y7.409 Z-0.450
G1 X57.582 Y7.318 Z-0.450
G1 X57.366 Y7.159 Z-0.450
G1 X57.207 Y6.943 Z-0.450
G1 X57.116 Y6.691 Z-0.450
G1 X57.103 Y6.423 Z-0.450
G1 X57.168 Y6.163 Z-0.450
G1 X57.306 Y5.933 Z-0.450
G1 X57.505 Y5.753 Z-0.450
G1 X57.747 Y5.638 Z-0.450
G1 X58.013 Y5.599 Z-0.450
G1 X58.278 Y5.638 Z-0.450
G1 X58.520 Y5.753 Z-0.450
G1 X58.719 Y5.933 Z-0.450
G1 X58.857 Y6.163 Z-0.450
G1 X58.922 Y6.423 Z-0.450
G1 X58.926 Y6.512 Z-0.450
G1 X59.006 Y6.512 Z-0.450
G1 X58.964 Y6.801 Z-0.450
G1 X58.839 Y7.065 Z-0.450
G1 X58.643 Y7.281 Z-0.450
G1 X58.393 Y7.431 Z-0.450
G1 X58.110 Y7.502 Z-0.450
G1 X57.819 Y7.487 Z-0.450
G1 X57.544 Y7.389 Z-0.450
G1 X57.310 Y7.215 Z-0.450
G1 X57.136 Y6.981 Z-0.450
G1 X57.038 Y6.706 Z-0.450
G1 X57.023 Y6.415 Z-0.450
G1 X57.094 Y6.132 Z-0.450
G1 X57.244 Y5.882 Z-0.450
G1 X57.460 Y5.686 Z-0.450
G1 X57.724 Y5.561 Z-0.450
G1 X58.013 Y5.519 Z-0.450
G1 X58.301 Y5.561 Z-0.450
G1 X58.565 Y5.686 Z-0.450
G1 X58.781 Y5.882 Z-0.450
G1 X58.931 Y6.132 Z-0.450
G1 X59.002 Y6.415 Z-0.450
G1 X59.006 Y6.512 Z-0.450
G1 X59.086 Y6.512 Z-0.450
G1 X59.066 Y6.722 Z-0.450
G1 X59.005 Y6.923 Z-0.450
G1 X58.905 Y7.109 Z-0.450
G1 X58.772 Y7.272 Z-0.450
G1 X58.609 Y7.405 Z-0.450
G1 X58.423 Y7.505 Z-0.450
G1 X58.222 Y7.566 Z-0.450
G1 X58.013 Y7.586 Z-0.450
G1 X57.803 Y7.566 Z-0.450
G1 X57.602 Y7.505 Z-0.450
G1 X57.416 Y7.405 Z-0.450
G1 X57.253 Y7.272 Z-0.450
G1 X57.120 Y7.109 Z-0.450
G1 X57.020 Y6.923 Z-0.450
G1 X56.959 Y6.722 Z-0.450
G1 X56.939 Y6.512 Z-0.450
G1 X56.959 Y6.303 Z-0.450
G1 X57.020 Y6.102 Z-0.450
G1 X57.120 Y5.916 Z-0.450
G1 X57.253 Y5.753 Z-0.450
G1 X57.416 Y5.620 Z-0.450
G1 X57.602 Y5.520 Z-0.450
G1 X57.803 Y5.459 Z-0.450
G1 X58.013 Y5.439 Z-0.450
G1 X58.222 Y5.459 Z-0.450
G1 X58.423 Y5.520 Z-0.450
G1 X58.609 Y5.620 Z-0.450
G1 X58.772 Y5.753 Z-0.450
G1 X58.905 Y5.916 Z-0.450
G1 X59.005 Y6.102 Z-0.450
G1 X59.066 Y6.303 Z-0.450
G1 X59.086 Y6.512 Z-0.450
G1 X59.167 Y6.512 Z-0.450
G1 X59.144 Y6.738 Z-0.450
G1 X59.079 Y6.954 Z-0.450
G1 X58.972 Y7.154 Z-0.450
G1 X58.829 Y7.329 Z-0.450
G1 X58.654 Y7.472 Z-0.450
G1 X58.454 Y7.579 Z-0.450
G1 X58.238 Y7.644 Z-0.450
G1 X58.013 Y7.667 Z-0.450
G1 X57.787 Y7.644 Z-0.450
G1 X57.571 Y7.579 Z-0.450
G1 X57.371 Y7.472 Z-0.450
G1 X57.196 Y7.329 Z-0.450
G1 X57.053 Y7.154 Z-0.450
G1 X56.946 Y6.954 Z-0.450
G1 X56.881 Y6.738 Z-0.450
G1 X56.858 Y6.512 Z-0.450
G1 X56.881 Y6.287 Z-0.450
G1 X56.946 Y6.071 Z-0.450
G1 X57.053 Y5.871 Z-0.450
G1 X57.196 Y5.696 Z-0.450
G1 X57.371 Y5.553 Z-0.450
G1 X57.571 Y5.446 Z-0.450
G1 X57.787 Y5.381 Z-0.450
G1 X58.013 Y5.358 Z-0.450
G1 X58.238 Y5.381 Z-0.450
G1 X58.454 Y5.446 Z-0.450
G1 X58.654 Y5.553 Z-0.450
G1 X58.829 Y5.696 Z-0.450
G1 X58.972 Y5.871 Z-0.450
G1 X59.079 Y6.071 Z-0.450
G1 X59.144 Y6.287 Z-0.450
G1 X59.167 Y6.512 Z-0.450
G1 X59.247 Y6.512 Z-0.450
G1 X59.223 Y6.753 Z-0.450
G1 X59.153 Y6.985 Z-0.450
G1 X59.039 Y7.198 Z-0.450
G1 X58.885 Y7.385 Z-0.450
G1 X58.698 Y7.539 Z-0.450
G1 X58.485 Y7.653 Z-0.450
G1 X58.253 Y7.723 Z-0.450
G1 X58.013 Y7.747 Z-0.450
G1 X57.772 Y7.723 Z-0.450
G1 X57.540 Y7.653 Z-0.450
G1 X57.327 Y7.539 Z-0.450
G1 X57.140 Y7.385 Z-0.450
G1 X56.986 Y7.198 Z-0.450
G1 X56.872 Y6.985 Z-0.450
G1 X56.802 Y6.753 Z-0.450
G1 X56.778 Y6.512 Z-0.450
G1 X56.802 Y6.272 Z-0.450
G1 X56.872 Y6.040 Z-0.450
G1 X56.986 Y5.827 Z-0.450
G1 X57.140 Y5.640 Z-0.450
G1 X57.327 Y5.486 Z-0.450
G1 X57.540 Y5.372 Z-0.450
G1 X57.772 Y5.302 Z-0.450
G1 X58.013 Y5.278 Z-0.450
G1 X58.253 Y5.302 Z-0.450
G1 X58.485 Y5.372 Z-0.450
G1 X58.698 Y5.486 Z-0.450
G1 X58.885 Y5.640 Z-0.450
G1 X59.039 Y5.827 Z-0.450
G1 X59.153 Y6.040 Z-0.450
G1 X59.223 Y6.272 Z-0.450
G1 X59.247 Y6.512 Z-0.450
G1 X59.327 Y6.512 Z-0.450
G1 X59.301 Y6.769 Z-0.450
G1 X59.227 Y7.015 Z-0.450
G1 X59.105 Y7.243 Z-0.450
G1 X58.942 Y7.442 Z-0.450
G1 X58.743 Y7.605 Z-0.450
G1 X58.515 Y7.727 Z-0.450
G1 X58.269 Y7.801 Z-0.450
G1 X58.013 Y7.827 Z-0.450
G1 X57.756 Y7.801 Z-0.450
G1 X57.510 Y7.727 Z-0.450
G1 X57.282 Y7.605 Z-0.450
G1 X57.083 Y7.442 Z-0.450
G1 X56.920 Y7.243 Z-0.450
G1 X56.798 Y7.015 Z-0.450
G1 X56.724 Y6.769 Z-0.450
G1 X56.698 Y6.512 Z-0.450
G1 X56.724 Y6.256 Z-0.450
G1 X56.798 Y6.010 Z-0.450
G1 X56.920 Y5.782 Z-0.450
G1 X57.083 Y5.583 Z-0.450
G1 X57.282 Y5.420 Z-0.450
G1 X57.510 Y5.298 Z-0.450
G1 X57.756 Y5.224 Z-0.450
G1 X58.013 Y5.198 Z-0.450
G1 X58.269 Y5.224 Z-0.450
G1 X58.515 Y5.298 Z-0.450
G1 X58.743 Y5.420 Z-0.450
G1 X58.942 Y5.583 Z-0.450
G1 X59.105 Y5.782 Z-0.450
G1 X59.227 Y6.010 Z-0.450
G1 X59.301 Y6.256 Z-0.450
G1 X59.327 Y6.512 Z-0.450
G1 X59.407 Y6.512 Z-0.450
G1 X59.380 Y6.785 Z-0.450
G1 X59.301 Y7.046 Z-0.450
G1 X59.172 Y7.287 Z-0.450
G1 X58.998 Y7.498 Z-0.450
G1 X58.787 Y7.672 Z-0.450
G1 X58.546 Y7.801 Z-0.450
G1 X58.285 Y7.880 Z-0.450
G1 X58.013 Y7.907 Z-0.450
G1 X57.740 Y7.880 Z-0.450
G1 X57.479 Y7.801 Z-0.450
G1 X57.238 Y7.672 Z-0.450
G1 X57.027 Y7.498 Z-0.450
G1 X56.853 Y7.287 Z-0.450
G1 X56.724 Y7.046 Z-0.450
G1 X56.645 Y6.785 Z-0.450
G1 X56.618 Y6.512 Z-0.450
G1 X56.645 Y6.240 Z-0.450
G1 X56.724 Y5.979 Z-0.450
G1 X56.853 Y5.738 Z-0.450
G1 X57.027 Y5.527 Z-0.450
G1 X57.238 Y5.353 Z-0.450
G1 X57.479 Y5.224 Z-0.450
G1 X57.740 Y5.145 Z-0.450
G1 X58.013 Y5.118 Z-0.450
G1 X58.285 Y5.145 Z-0.450
G1 X58.546 Y5.224 Z-0.450
G1 X58.787 Y5.353 Z-0.450
G1 X58.998 Y5.527 Z-0.450
G1 X59.172 Y5.738 Z-0.450
G1 X59.301 Y5.979 Z-0.450
G1 X59.380 Y6.240 Z-0.450
G1 X59.407 Y6.512 Z-0.450
G1 X59.487 Y6.512 Z-0.450
G1 X59.459 Y6.800 Z-0.450
G1 X59.375 Y7.077 Z-0.450
G1 X59.238 Y7.332 Z-0.450
G1 X59.055 Y7.555 Z-0.450
G1 X58.832 Y7.738 Z-0.450
G1 X58.577 Y7.875 Z-0.450
G1 X58.300 Y7.959 Z-0.450
G1 X58.013 Y7.987 Z-0.450
G1 X57.725 Y7.959 Z-0.450
G1 X57.448 Y7.875 Z-0.450
G1 X57.193 Y7.738 Z-0.450
G1 X56.970 Y7.555 Z-0.450
G1 X56.787 Y7.332 Z-0.450
G1 X56.650 Y7.077 Z-0.450
G1 X56.566 Y6.800 Z-0.450
G1 X56.538 Y6.512 Z-0.450
G1 X56.566 Y6.225 Z-0.450
G1 X56.650 Y5.948 Z-0.450
G1 X56.787 Y5.693 Z-0.450
G1 X56.970 Y5.470 Z-0.450
G1 X57.193 Y5.287 Z-0.450
G1 X57.448 Y5.150 Z-0.450
G1 X57.725 Y5.066 Z-0.450
G1 X58.013 Y5.038 Z-0.450
G1 X58.300 Y5.066 Z-0.450
G1 X58.577 Y5.150 Z-0.450
G1 X58.832 Y5.287 Z-0.450
G1 X59.055 Y5.470 Z-0.450
G1 X59.238 Y5.693 Z-0.450
G1 X59.375 Y5.948 Z-0.450
G1 X59.459 Y6.225 Z-0.450
G1 X59.487 Y6.512 Z-0.450
G1 X59.567 Y6.512 Z-0.450
G1 X59.537 Y6.816 Z-0.450
G1 X59.449 Y7.107 Z-0.450
G1 X59.305 Y7.376 Z-0.450
G1 X59.112 Y7.612 Z-0.450
G1 X58.876 Y7.805 Z-0.450
G1 X58.607 Y7.949 Z-0.450
G1 X58.316 Y8.037 Z-0.450
G1 X58.013 Y8.067 Z-0.450
G1 X57.709 Y8.037 Z-0.450
G1 X57.418 Y7.949 Z-0.450
G1 X57.149 Y7.805 Z-0.450
G1 X56.913 Y7.612 Z-0.450
G1 X56.720 Y7.376 Z-0.450
G1 X56.576 Y7.107 Z-0.450
G1 X56.488 Y6.816 Z-0.450
G1 X56.458 Y6.512 Z-0.450
G1 X56.488 Y6.209 Z-0.450
G1 X56.576 Y5.918 Z-0.450
G1 X56.720 Y5.649 Z-0.450
G1 X56.913 Y5.413 Z-0.450
G1 X57.149 Y5.220 Z-0.450
G1 X57.418 Y5.076 Z-0.450
G1 X57.709 Y4.988 Z-0.450
G1 X58.013 Y4.958 Z-0.450
G1 X58.316 Y4.988 Z-0.450
G1 X58.607 Y5.076 Z-0.450
G1 X58.876 Y5.220 Z-0.450
G1 X59.112 Y5.413 Z-0.450
G1 X59.305 Y5.649 Z-0.450
G1 X59.449 Y5.918 Z-0.450
G1 X59.537 Y6.209 Z-0.450
G1 X59.567 Y6.512 Z-0.450
G1 X59.647 Y6.512 Z-0.450
G1 X59.616 Y6.831 Z-0.450
G1 X59.523 Y7.138 Z-0.450
G1 X59.372 Y7.421 Z-0.450
G1 X59.168 Y7.668 Z-0.450
G1 X58.921 Y7.872 Z-0.450
G1 X58.638 Y8.023 Z-0.450
G1 X58.331 Y8.116 Z-0.450
G1 X58.013 Y8.147 Z-0.450
G1 X57.694 Y8.116 Z-0.450
G1 X57.387 Y8.023 Z-0.450
G1 X57.104 Y7.872 Z-0.450
G1 X56.857 Y7.668 Z-0.450
G1 X56.653 Y7.421 Z-0.450
G1 X56.502 Y7.138 Z-0.450
G1 X56.409 Y6.831 Z-0.450
G1 X56.378 Y6.512 Z-0.450
G1 X56.409 Y6.194 Z-0.450
G1 X56.502 Y5.887 Z-0.450
G1 X56.653 Y5.604 Z-0.450
G1 X56.857 Y5.357 Z-0.450
G1 X57.104 Y5.153 Z-0.450
G1 X57.387 Y5.002 Z-0.450
G1 X57.694 Y4.909 Z-0.450
G1 X58.013 Y4.878 Z-0.450
G1 X58.331 Y4.909 Z-0.450
G1 X58.638 Y5.002 Z-0.450
G1 X58.921 Y5.153 Z-0.450
G1 X59.168 Y5.357 Z-0.450
G1 X59.372 Y5.604 Z-0.450
G1 X59.523 Y5.887 Z-0.450
G1 X59.616 Y6.194 Z-0.450
G1 X59.647 Y6.512 Z-0.450
G1 X59.727 Y6.512 Z-0.450
G1 X59.694 Y6.847 Z-0.450
G1 X59.597 Y7.169 Z-0.450
G1 X59.438 Y7.465 Z-0.450
G1 X59.225 Y7.725 Z-0.450
G1 X58.965 Y7.938 Z-0.450
G1 X58.669 Y8.097 Z-0.450
G1 X58.347 Y8.194 Z-0.450
G1 X58.013 Y8.227 Z-0.450
G1 X57.678 Y8.194 Z-0.450
G1 X57.356 Y8.097 Z-0.450
G1 X57.060 Y7.938 Z-0.450
G1 X56.800 Y7.725 Z-0.450
G1 X56.587 Y7.465 Z-0.450
G1 X56.428 Y7.169 Z-0.450
G1 X56.331 Y6.847 Z-0.450
G1 X56.298 Y6.512 Z-0.450
G1 X56.331 Y6.178 Z-0.450
G1 X56.428 Y5.856 Z-0.450
G1 X56.587 Y5.560 Z-0.450
G1 X56.800 Y5.300 Z-0.450
G1 X57.060 Y5.087 Z-0.450
G1 X57.356 Y4.928 Z-0.450
G1 X57.678 Y4.831 Z-0.450
G1 X58.013 Y4.798 Z-0.450
G1 X58.347 Y4.831 Z-0.450
G1 X58.669 Y4.928 Z-0.450
G1 X58.965 Y5.087 Z-0.450
G1 X59.225 Y5.300 Z-0.450
G1 X59.438 Y5.560 Z-0.450
G1 X59.597 Y5.856 Z-0.450
G1 X59.694 Y6.178 Z-0.450
G1 X59.727 Y6.512 Z-0.450
G1 X59.807 Y6.512 Z-0.450
G1 X59.773 Y6.863 Z-0.450
G1 X59.671 Y7.199 Z-0.450
G1 X59.505 Y7.510 Z-0.450
G1 X59.282 Y7.782 Z-0.450
G1 X59.010 Y8.005 Z-0.450
G1 X58.699 Y8.171 Z-0.450
G1 X58.363 Y8.273 Z-0.450
G1 X58.013 Y8.307 Z-0.450
G1 X57.662 Y8.273 Z-0.450
G1 X57.326 Y8.171 Z-0.450
G1 X57.015 Y8.005 Z-0.450
G1 X56.743 Y7.782 Z-0.450
G1 X56.520 Y7.510 Z-0.450
G1 X56.354 Y7.199 Z-0.450
G1 X56.252 Y6.863 Z-0.450
G1 X56.218 Y6.512 Z-0.450
G1 X56.252 Y6.162 Z-0.450
G1 X56.354 Y5.826 Z-0.450
G1 X56.520 Y5.515 Z-0.450
G1 X56.743 Y5.243 Z-0.450
G1 X57.015 Y5.020 Z-0.450
G1 X57.326 Y4.854 Z-0.450
G1 X57.662 Y4.752 Z-0.450
G1 X58.013 Y4.718 Z-0.450
G1 X58.363 Y4.752 Z-0.450
G1 X58.699 Y4.854 Z-0.450
G1 X59.010 Y5.020 Z-0.450
G1 X59.282 Y5.243 Z-0.450
G1 X59.505 Y5.515 Z-0.450
G1 X59.671 Y5.826 Z-0.450
G1 X59.773 Y6.162 Z-0.450
G1 X59.807 Y6.512 Z-0.450
G1 X59.887 Y6.512 Z-0.450
G1 X59.851 Y6.878 Z-0.450
G1 X59.745 Y7.230 Z-0.450
G1 X59.571 Y7.554 Z-0.450
G1 X59.338 Y7.838 Z-0.450
G1 X59.054 Y8.071 Z-0.450
G1 X58.730 Y8.245 Z-0.450
G1 X58.378 Y8.351 Z-0.450
G1 X58.013 Y8.387 Z-0.450
G1 X57.647 Y8.351 Z-0.450
G1 X57.295 Y8.245 Z-0.450
G1 X56.971 Y8.071 Z-0.450
G1 X56.687 Y7.838 Z-0.450
G1 X56.454 Y7.554 Z-0.450
G1 X56.280 Y7.230 Z-0.450
G1 X56.174 Y6.878 Z-0.450
G1 X56.138 Y6.512 Z-0.450
G1 X56.174 Y6.147 Z-0.450
G1 X56.280 Y5.795 Z-0.450
G1 X56.454 Y5.471 Z-0.450
G1 X56.687 Y5.187 Z-0.450
G1 X56.971 Y4.954 Z-0.450
G1 X57.295 Y4.780 Z-0.450
G1 X57.647 Y4.674 Z-0.450
G1 X58.013 Y4.638 Z-0.450
G1 X58.378 Y4.674 Z-0.450
G1 X58.730 Y4.780 Z-0.450
G1 X59.054 Y4.954 Z-0.450
G1 X59.338 Y5.187 Z-0.450
G1 X59.571 Y5.471 Z-0.450
G1 X59.745 Y5.795 Z-0.450
G1 X59.851 Y6.147 Z-0.450
G1 X59.887 Y6.512 Z-0.450
G1 X59.967 Y6.512 Z-0.450
G1 X59.930 Y6.894 Z-0.450
G1 X59.819 Y7.261 Z-0.450
G1 X59.638 Y7.599 Z-0.450
G1 X59.395 Y7.895 Z-0.450
G1 X59.099 Y8.138 Z-0.450
G1 X58.761 Y8.319 Z-0.450
G1 X58.394 Y8.430 Z-0.450
G1 X58.013 Y8.467 Z-0.450
G1 X57.631 Y8.430 Z-0.450
G1 X57.264 Y8.319 Z-0.450
G1 X56.926 Y8.138 Z-0.450
G1 X56.630 Y7.895 Z-0.450
G1 X56.387 Y7.599 Z-0.450
G1 X56.206 Y7.261 Z-0.450
G1 X56.095 Y6.894 Z-0.450
G1 X56.058 Y6.512 Z-0.450
G1 X56.095 Y6.131 Z-0.450
G1 X56.206 Y5.764 Z-0.450
G1 X56.387 Y5.426 Z-0.450
G1 X56.630 Y5.130 Z-0.450
G1 X56.926 Y4.887 Z-0.450
G1 X57.264 Y4.706 Z-0.450
G1 X57.631 Y4.595 Z-0.450
G1 X58.013 Y4.558 Z-0.450
G1 X58.394 Y4.595 Z-0.450
G1 X58.761 Y4.706 Z-0.450
G1 X59.099 Y4.887 Z-0.450
G1 X59.395 Y5.130 Z-0.450
G1 X59.638 Y5.426 Z-0.450
G1 X59.819 Y5.764 Z-0.450
G1 X59.930 Y6.131 Z-0.450
G1 X59.967 Y6.512 Z-0.450
G1 X60.048 Y6.512 Z-0.450
G1 X60.008 Y6.910 Z-0.450
G1 X59.893 Y7.291 Z-0.450
G1 X59.705 Y7.643 Z-0.450
G1 X59.452 Y7.952 Z-0.450
G1 X59.143 Y8.205 Z-0.450
G1 X58.791 Y8.393 Z-0.450
G1 X58.410 Y8.508 Z-0.450
G1 X58.013 Y8.548 Z-0.450
G1 X57.615 Y8.508 Z-0.450
G1 X57.234 Y8.393 Z-0.450
G1 X56.882 Y8.205 Z-0.450
G1 X56.573 Y7.952 Z-0.450
G1 X56.320 Y7.643 Z-0.450
G1 X56.132 Y7.291 Z-0.450
G1 X56.017 Y6.910 Z-0.450
G1 X55.977 Y6.512 Z-0.450
G1 X56.017 Y6.115 Z-0.450
G1 X56.132 Y5.734 Z-0.450
G1 X56.320 Y5.382 Z-0.450
G1 X56.573 Y5.073 Z-0.450
G1 X56.882 Y4.820 Z-0.450
G1 X57.234 Y4.632 Z-0.450
G1 X57.615 Y4.517 Z-0.450
G1 X58.013 Y4.477 Z-0.450
G1 X58.410 Y4.517 Z-0.450
G1 X58.791 Y4.632 Z-0.450
G1 X59.143 Y4.820 Z-0.450
G1 X59.452 Y5.073 Z-0.450
G1 X59.705 Y5.382 Z-0.450
G1 X59.893 Y5.734 Z-0.450
G1 X60.008 Y6.115 Z-0.450
G1 X60.048 Y6.512 Z-0.450
G1 X60.128 Y6.512 Z-0.450
G1 X60.117 Y6.720 Z-0.450
G1 X60.087 Y6.925 Z-0.450
G1 X60.037 Y7.127 Z-0.450
G1 X59.967 Y7.322 Z-0.450
G1 X59.878 Y7.510 Z-0.450
G1 X59.771 Y7.688 Z-0.450
G1 X59.648 Y7.854 Z-0.450
G1 X59.508 Y8.008 Z-0.450
G1 X59.354 Y8.148 Z-0.450
G1 X59.188 Y8.271 Z-0.450
G1 X59.010 Y8.378 Z-0.450
G1 X58.822 Y8.467 Z-0.450
G1 X58.627 Y8.537 Z-0.450
G1 X58.425 Y8.587 Z-0.450
G1 X58.220 Y8.617 Z-0.450
G1 X58.013 Y8.628 Z-0.450
G1 X57.805 Y8.617 Z-0.450
G1 X57.600 Y8.587 Z-0.450
G1 X57.398 Y8.537 Z-0.450
G1 X57.203 Y8.467 Z-0.450
G1 X57.015 Y8.378 Z-0.450
G1 X56.837 Y8.271 Z-0.450
G1 X56.671 Y8.148 Z-0.450
G1 X56.517 Y8.008 Z-0.450
G1 X56.377 Y7.854 Z-0.450
G1 X56.254 Y7.688 Z-0.450
G1 X56.147 Y7.510 Z-0.450
G1 X56.058 Y7.322 Z-0.450
G1 X55.988 Y7.127 Z-0.450
G1 X55.938 Y6.925 Z-0.450
G1 X55.908 Y6.720 Z-0.450
G1 X55.897 Y6.512 Z-0.450
G1 X55.908 Y6.305 Z-0.450
G1 X55.938 Y6.100 Z-0.450
G1 X55.988 Y5.898 Z-0.450
G1 X56.058 Y5.703 Z-0.450
G1 X56.147 Y5.515 Z-0.450
G1 X56.254 Y5.337 Z-0.450
G1 X56.377 Y5.171 Z-0.450
G1 X56.517 Y5.017 Z-0.450
G1 X56.671 Y4.877 Z-0.450
G1 X56.837 Y4.754 Z-0.450
G1 X57.015 Y4.647 Z-0.450
G1 X57.203 Y4.558 Z-0.450
G1 X57.398 Y4.488 Z-0.450
G1 X57.600 Y4.438 Z-0.450
G1 X57.805 Y4.408 Z-0.450
G1 X58.013 Y4.397 Z-0.450
G1 X58.220 Y4.408 Z-0.450
G1 X58.425 Y4.438 Z-0.450
G1 X58.627 Y4.488 Z-0.450
G1 X58.822 Y4.558 Z-0.450
G1 X59.010 Y4.647 Z-0.450
G1 X59.188 Y4.754 Z-0.450
G1 X59.354 Y4.877 Z-0.450
G1 X59.508 Y5.017 Z-0.450
G1 X59.648 Y5.171 Z-0.450
G1 X59.771 Y5.337 Z-0.450
G1 X59.878 Y5.515 Z-0.450
G1 X59.967 Y5.703 Z-0.450
G1 X60.037 Y5.898 Z-0.450
G1 X60.087 Y6.100 Z-0.450
G1 X60.117 Y6.305 Z-0.450
G1 X60.128 Y6.512 Z-0.450
G1 X60.208 Y6.512 Z-0.450
G1 X60.197 Y6.728 Z-0.450
G1 X60.166 Y6.941 Z-0.450
G1 X60.113 Y7.150 Z-0.450
G1 X60.041 Y7.353 Z-0.450
G1 X59.949 Y7.547 Z-0.450
G1 X59.838 Y7.732 Z-0.450
G1 X59.709 Y7.905 Z-0.450
G1 X59.565 Y8.065 Z-0.450
G1 X59.405 Y8.209 Z-0.450
G1 X59.232 Y8.338 Z-0.450
G1 X59.047 Y8.449 Z-0.450
G1 X58.853 Y8.541 Z-0.450
G1 X58.650 Y8.613 Z-0.450
G1 X58.441 Y8.666 Z-0.450
G1 X58.228 Y8.697 Z-0.450
G1 X58.013 Y8.708 Z-0.450
G1 X57.797 Y8.697 Z-0.450
G1 X57.584 Y8.666 Z-0.450
G1 X57.375 Y8.613 Z-0.450
G1 X57.172 Y8.541 Z-0.450
G1 X56.978 Y8.449 Z-0.450
G1 X56.793 Y8.338 Z-0.450
G1 X56.620 Y8.209 Z-0.450
G1 X56.460 Y8.065 Z-0.450
G1 X56.316 Y7.905 Z-0.450
G1 X56.187 Y7.732 Z-0.450
G1 X56.076 Y7.547 Z-0.450
G1 X55.984 Y7.353 Z-0.450
G1 X55.912 Y7.150 Z-0.450
G1 X55.859 Y6.941 Z-0.450
G1 X55.828 Y6.728 Z-0.450
G1 X55.817 Y6.512 Z-0.450
G1 X55.828 Y6.297 Z-0.450
G1 X55.859 Y6.084 Z-0.450
G1 X55.912 Y5.875 Z-0.450
G1 X55.984 Y5.672 Z-0.450
G1 X56.076 Y5.478 Z-0.450
G1 X56.187 Y5.293 Z-0.450
G1 X56.316 Y5.120 Z-0.450
G1 X56.460 Y4.960 Z-0.450
G1 X56.620 Y4.816 Z-0.450
G1 X56.793 Y4.687 Z-0.450
G1 X56.978 Y4.576 Z-0.450
G1 X57.172 Y4.484 Z-0.450
G1 X57.375 Y4.412 Z-0.450
G1 X57.584 Y4.359 Z-0.450
G1 X57.797 Y4.328 Z-0.450
G1 X58.013 Y4.317 Z-0.450
G1 X58.228 Y4.328 Z-0.450
G1 X58.441 Y4.359 Z-0.450
G1 X58.650 Y4.412 Z-0.450
G1 X58.853 Y4.484 Z-0.450
G1 X59.047 Y4.576 Z-0.450
G1 X59.232 Y4.687 Z-0.450
G1 X59.405 Y4.816 Z-0.450
G1 X59.565 Y4.960 Z-0.450
G1 X59.709 Y5.120 Z-0.450
G1 X59.838 Y5.293 Z-0.450
G1 X59.949 Y5.478 Z-0.450
G1 X60.041 Y5.672 Z-0.450
G1 X60.113 Y5.875 Z-0.450
G1 X60.166 Y6.084 Z-0.450
G1 X60.197 Y6.297 Z-0.450
G1 X60.208 Y6.512 Z-0.450
G0 X60.208 Y6.512
G0 Z5.080
G0 X58.046 Y6.512
G0 Z5.080
G1 X58.046 Y6.512 Z-0.900 F1000.0
G1 X58.016 Y6.546 Z-0.900 F3000.0
G1 X57.980 Y6.519 Z-0.900
G1 X58.003 Y6.481 Z-0.900
G1 X58.043 Y6.500 Z-0.900
G1 X58.046 Y6.512 Z-0.900
G1 X58.126 Y6.512 Z-0.900
G1 X58.093 Y6.593 Z-0.900
G1 X58.013 Y6.626 Z-0.900
G1 X57.932 Y6.593 Z-0.900
G1 X57.899 Y6.512 Z-0.900
G1 X57.932 Y6.432 Z-0.900
G1 X58.013 Y6.399 Z-0.900
G1 X58.093 Y6.432 Z-0.900
G1 X58.126 Y6.512 Z-0.900
G1 X58.206 Y6.512 Z-0.900
G1 X58.173 Y6.620 Z-0.900
G1 X58.087 Y6.691 Z-0.900
G1 X57.975 Y6.702 Z-0.900
G1 X57.876 Y6.649 Z-0.900
G1 X57.823 Y6.550 Z-0.900
G1 X57.834 Y6.438 Z-0.900
G1 X57.905 Y6.352 Z-0.900
G1 X58.013 Y6.319 Z-0.900
G1 X58.120 Y6.352 Z-0.900
G1 X58.191 Y6.438 Z-0.900
G1 X58.206 Y6.512 Z-0.900
G1 X58.286 Y6.512 Z-0.900
G1 X58.254 Y6.641 Z-0.900
G1 X58.165 Y6.740 Z-0.900
G1 X58.039 Y6.785 Z-0.900
G1 X57.908 Y6.765 Z-0.900
G1 X57.801 Y6.686 Z-0.900
G1 X57.744 Y6.566 Z-0.900
G1 X57.751 Y6.433 Z-0.900
G1 X57.819 Y6.319 Z-0.900
G1 X57.933 Y6.251 Z-0.900
G1 X58.066 Y6.244 Z-0.900
G1 X58.186 Y6.301 Z-0.900
G1 X58.265 Y6.408 Z-0.900
G1 X58.286 Y6.512 Z-0.900
G1 X58.366 Y6.512 Z-0.900
G1 X58.339 Y6.648 Z-0.900
G1 X58.263 Y6.763 Z-0.900
G1 X58.148 Y6.839 Z-0.900
G1 X58.013 Y6.866 Z-0.900
G1 X57.877 Y6.839 Z-0.900
G1 X57.762 Y6.763 Z-0.900
G1 X57.686 Y6.648 Z-0.900
G1 X57.659 Y6.512 Z-0.900
G1 X57.686 Y6.377 Z-0.900
G1 X57.762 Y6.262 Z-0.900
G1 X57.877 Y6.186 Z-0.900
G1 X58.013 Y6.159 Z-0.900
G1 X58.148 Y6.186 Z-0.900
G1 X58.263 Y6.262 Z-0.900
G1 X58.339 Y6.377 Z-0.900
G1 X58.366 Y6.512 Z-0.900
G1 X58.446 Y6.512 Z-0.900
G1 X58.413 Y6.679 Z-0.900
G1 X58.319 Y6.819 Z-0.900
G1 X58.179 Y6.913 Z-0.900
G1 X58.013 Y6.946 Z-0.900
G1 X57.846 Y6.913 Z-0.900
G1 X57.706 Y6.819 Z-0.900
G1 X57.612 Y6.679 Z-0.900
G1 X57.579 Y6.512 Z-0.900
G1 X57.612 Y6.346 Z-0.900
G1 X57.706 Y6.206 Z-0.900
G1 X57.846 Y6.112 Z-0.900
G1 X58.013 Y6.079 Z-0.900
G1 X58.179 Y6.112 Z-0.900
G1 X58.319 Y6.206 Z-0.900
G1 X58.413 Y6.346 Z-0.900
G1 X58.446 Y6.512 Z-0.900
G1 X58.526 Y6.512 Z-0.900
G1 X58.487 Y6.709 Z-0.900
G1 X58.376 Y6.876 Z-0.900
G1 X58.209 Y6.987 Z-0.900
G1 X58.013 Y7.026 Z-0.900
G1 X57.816 Y6.987 Z-0.900
G1 X57.649 Y6.876 Z-0.900
G1 X57.538 Y6.709 Z-0.900
G1 X57.499 Y6.512 Z-0.900
G1 X57.538 Y6.316 Z-0.900
G1 X57.649 Y6.149 Z-0.900
G1 X57.816 Y6.038 Z-0.900
G1 X58.013 Y5.999 Z-0.900
G1 X58.209 Y6.038 Z-0.900
G1 X58.376 Y6.149 Z-0.900
G1 X58.487 Y6.316 Z-0.900
G1 X58.526 Y6.512 Z-0.900
G1 X58.607 Y6.512 Z-0.900
G1 X58.581 Y6.685 Z-0.900
G1 X58.506 Y6.843 Z-0.900
G1 X58.389 Y6.972 Z-0.900
G1 X58.240 Y7.061 Z-0.900
G1 X58.071 Y7.104 Z-0.900
G1 X57.897 Y7.095 Z-0.900
G1 X57.732 Y7.036 Z-0.900
G1 X57.592 Y6.933 Z-0.900
G1 X57.489 Y6.793 Z-0.900
G1 X57.430 Y6.628 Z-0.900
G1 X57.421 Y6.454 Z-0.900
G1 X57.464 Y6.285 Z-0.900
G1 X57.553 Y6.136 Z-0.900
G1 X57.682 Y6.019 Z-0.900
G1 X57.840 Y5.944 Z-0.900
G1 X58.013 Y5.918 Z-0.900
G1 X58.185 Y5.944 Z-0.900
G1 X58.343 Y6.019 Z-0.900
G1 X58.472 Y6.136 Z-0.900
G1 X58.561 Y6.285 Z-0.900
G1 X58.604 Y6.454 Z-0.900
G1 X58.607 Y6.512 Z-0.900
G1 X58.687 Y6.512 Z-0.900
G1 X58.658 Y6.708 Z-0.900
G1 X58.573 Y6.887 Z-0.900
G1 X58.440 Y7.034 Z-0.900
G1 X58.270 Y7.135 Z-0.900
G1 X58.079 Y7.183 Z-0.900
G1 X57.881 Y7.174 Z-0.900
G1 X57.695 Y7.107 Z-0.900
G1 X57.536 Y6.989 Z-0.900
G1 X57.418 Y6.830 Z-0.900
G1 X57.351 Y6.644 Z-0.900
G1 X57.342 Y6.446 Z-0.900
G1 X57.390 Y6.255 Z-0.900
G1 X57.491 Y6.085 Z-0.900
G1 X57.638 Y5.952 Z-0.900
G1 X57.817 Y5.867 Z-0.900
G1 X58.013 Y5.838 Z-0.900
G1 X58.208 Y5.867 Z-0.900
G1 X58.387 Y5.952 Z-0.900
G1 X58.534 Y6.085 Z-0.900
G1 X58.635 Y6.255 Z-0.900
G1 X58.683 Y6.446 Z-0.900
G1 X58.687 Y6.512 Z-0.900
G1 X58.767 Y6.512 Z-0.900
G1 X58.734 Y6.731 Z-0.900
G1 X58.640 Y6.932 Z-0.900
G1 X58.491 Y7.096 Z-0.900
G1 X58.301 Y7.209 Z-0.900
G1 X58.086 Y7.263 Z-0.900
G1 X57.865 Y7.252 Z-0.900
G1 X57.657 Y7.178 Z-0.900
G1 X57.479 Y7.046 Z-0.900
G1 X57.347 Y6.868 Z-0.900
G1 X57.273 Y6.660 Z-0.900
G1 X57.262 Y6.439 Z-0.900
G1 X57.316 Y6.224 Z-0.900
G1 X57.429 Y6.034 Z-0.900
G1 X57.593 Y5.885 Z-0.900
G1 X57.794 Y5.791 Z-0.900
G1 X58.013 Y5.758 Z-0.900
G1 X58.231 Y5.791 Z-0.900
G1 X58.432 Y5.885 Z-0.900
G1 X58.596 Y6.034 Z-0.900
G1 X58.709 Y6.224 Z-0.900
G1 X58.763 Y6.439 Z-0.900
G1 X58.767 Y6.512 Z-0.900
G1 X58.847 Y6.512 Z-0.900
G1 X58.811 Y6.755 Z-0.900
G1 X58.706 Y6.976 Z-0.900
G1 X58.542 Y7.157 Z-0.900
G1 X58.332 Y7.283 Z-0.900
G1 X58.094 Y7.343 Z-0.900
G1 X57.850 Y7.331 Z-0.900
G1 X57.619 Y7.248 Z-0.900
G1 X57.423 Y7.102 Z-0.900
G1 X57.277 Y6.906 Z-0.900
G1 X57.194 Y6.675 Z-0.900
G1 X57.182 Y6.431 Z-0.900
G1 X57.242 Y6.193 Z-0.900
G1 X57.368 Y5.983 Z-0.900
G1 X57.549 Y5.819 Z-0.900
G1 X57.770 Y5.714 Z-0.900
G1 X58.013 Y5.678 Z-0.900
G1 X58.255 Y5.714 Z-0.900
G1 X58.476 Y5.819 Z-0.900
G1 X58.657 Y5.983 Z-0.900
G1 X58.783 Y6.193 Z-0.900
G1 X58.843 Y6.431 Z-0.900
G1 X58.847 Y6.512 Z-0.900
G1 X58.927 Y6.512 Z-0.900
G1 X58.888 Y6.778 Z-0.900
G1 X58.773 Y7.021 Z-0.900
G1 X58.593 Y7.219 Z-0.900
G1 X58.362 Y7.357 Z-0.900
G1 X58.102 Y7.422 Z-0.900
G1 X57.834 Y7.409 Z-0.900
G1 X57.581 Y7.319 Z-0.900
G1 X57.366 Y7.159 Z-0.900
G1 X57.206 Y6.944 Z-0.900
G1 X57.116 Y6.691 Z-0.900
G1 X57.103 Y6.423 Z-0.900
G1 X57.168 Y6.163 Z-0.900
G1 X57.306 Y5.932 Z-0.900
G1 X57.504 Y5.752 Z-0.900
G1 X57.747 Y5.637 Z-0.900
G1 X58.013 Y5.598 Z-0.900
G1 X58.278 Y5.637 Z-0.900
G1 X58.521 Y5.752 Z-0.900
G1 X58.719 Y5.932 Z-0.900
G1 X58.857 Y6.163 Z-0.900
G1 X58.922 Y6.423 Z-0.900
G1 X58.927 Y6.512 Z-0.900
G1 X59.007 Y6.512 Z-0.900
G1 X58.964 Y6.801 Z-0.900
G1 X58.839 Y7.065 Z-0.900
G1 X58.643 Y7.281 Z-0.900
G1 X58.393 Y7.431 Z-0.900
G1 X58.110 Y7.502 Z-0.900
G1 X57.818 Y7.488 Z-0.900
G1 X57.544 Y7.390 Z-0.900
G1 X57.309 Y7.216 Z-0.900
G1 X57.135 Y6.981 Z-0.900
G1 X57.037 Y6.707 Z-0.900
G1 X57.023 Y6.415 Z-0.900
G1 X57.094 Y6.132 Z-0.900
G1 X57.244 Y5.882 Z-0.900
G1 X57.460 Y5.686 Z-0.900
G1 X57.724 Y5.561 Z-0.900
G1 X58.013 Y5.518 Z-0.900
G1 X58.301 Y5.561 Z-0.900
G1 X58.565 Y5.686 Z-0.900
G1 X58.781 Y5.882 Z-0.900
G1 X58.931 Y6.132 Z-0.900
G1 X59.002 Y6.415 Z-0.900
G1 X59.007 Y6.512 Z-0.900
G1 X59.087 Y6.512 Z-0.900
G1 X59.066 Y6.722 Z-0.900
G1 X59.005 Y6.924 Z-0.900
G1 X58.906 Y7.110 Z-0.900
G1 X58.772 Y7.272 Z-0.900
G1 X58.610 Y7.406 Z-0.900
G1 X58.424 Y7.505 Z-0.900
G1 X58.222 Y7.566 Z-0.900
G1 X58.013 Y7.587 Z-0.900
G1 X57.803 Y7.566 Z-0.900
G1 X57.601 Y7.505 Z-0.900
G1 X57.415 Y7.406 Z-0.900
G1 X57.253 Y7.272 Z-0.900
G1 X57.119 Y7.110 Z-0.900
G1 X57.020 Y6.924 Z-0.900
G1 X56.959 Y6.722 Z-0.900
G1 X56.938 Y6.512 Z-0.900
G1 X56.959 Y6.303 Z-0.900
G1 X57.020 Y6.101 Z-0.900
G1 X57.119 Y5.915 Z-0.900
G1 X57.253 Y5.753 Z-0.900
G1 X57.415 Y5.619 Z-0.900
G1 X57.601 Y5.520 Z-0.900
G1 X57.803 Y5.459 Z-0.900
G1 X58.013 Y5.438 Z-0.900
G1 X58.222 Y5.459 Z-0.900
G1 X58.424 Y5.520 Z-0.900
G1 X58.610 Y5.619 Z-0.900
G1 X58.772 Y5.753 Z-0.900
G1 X58.906 Y5.915 Z-0.900
G1 X59.005 Y6.101 Z-0.900
G1 X59.066 Y6.303 Z-0.900
G1 X59.087 Y6.512 Z-0.900
G1 X59.167 Y6.512 Z-0.900
G1 X59.145 Y6.738 Z-0.900
G1 X59.079 Y6.954 Z-0.900
G1 X58.973 Y7.154 Z-0.900
G1 X58.829 Y7.329 Z-0.900
G1 X58.654 Y7.473 Z-0.900
G1 X58.454 Y7.579 Z-0.900
G1 X58.238 Y7.645 Z-0.900
G1 X58.013 Y7.667 Z-0.900
G1 X57.787 Y7.645 Z-0.900
G1 X57.571 Y7.579 Z-0.900
G1 X57.371 Y7.473 Z-0.900
G1 X57.196 Y7.329 Z-0.900
G1 X57.052 Y7.154 Z-0.900
G1 X56.946 Y6.954 Z-0.900
G1 X56.880 Y6.738 Z-0.900
G1 X56.858 Y6.512 Z-0.900
G1 X56.880 Y6.287 Z-0.900
G1 X56.946 Y6.071 Z-0.900
G1 X57.052 Y5.871 Z-0.900
G1 X57.196 Y5.696 Z-0.900
G1 X57.371 Y5.552 Z-0.900
G1 X57.571 Y5.446 Z-0.900
G1 X57.787 Y5.380 Z-0.900
G1 X58.013 Y5.358 Z-0.900
G1 X58.238 Y5.380 Z-0.900
G1 X58.454 Y5.446 Z-0.900
G1 X58.654 Y5.552 Z-0.900
G1 X58.829 Y5.696 Z-0.900
G1 X58.973 Y5.871 Z-0.900
G1 X59.079 Y6.071 Z-0.900
G1 X59.145 Y6.287 Z-0.900
G1 X59.167 Y6.512 Z-0.900
G1 X59.247 Y6.512 Z-0.900
G1 X59.224 Y6.753 Z-0.900
G1 X59.153 Y6.985 Z-0.900
G1 X59.039 Y7.199 Z-0.900
G1 X58.886 Y7.386 Z-0.900
G1 X58.699 Y7.539 Z-0.900
G1 X58.485 Y7.653 Z-0.900
G1 X58.253 Y7.724 Z-0.900
G1 X58.013 Y7.747 Z-0.900
G1 X57.772 Y7.724 Z-0.900
G1 X57.540 Y7.653 Z-0.900
G1 X57.326 Y7.539 Z-0.900
G1 X57.139 Y7.386 Z-0.900
G1 X56.986 Y7.199 Z-0.900
G1 X56.872 Y6.985 Z-0.900
G1 X56.801 Y6.753 Z-0.900
G1 X56.778 Y6.512 Z-0.900
G1 X56.801 Y6.272 Z-0.900
G1 X56.872 Y6.040 Z-0.900
G1 X56.986 Y5.826 Z-0.900
G1 X57.139 Y5.639 Z-0.900
G1 X57.326 Y5.486 Z-0.900
G1 X57.540 Y5.372 Z-0.900
G1 X57.772 Y5.301 Z-0.900
G1 X58.013 Y5.278 Z-0.900
G1 X58.253 Y5.301 Z-0.900
G1 X58.485 Y5.372 Z-0.900
G1 X58.699 Y5.486 Z-0.900
G1 X58.886 Y5.639 Z-0.900
G1 X59.039 Y5.826 Z-0.900
G1 X59.153 Y6.040 Z-0.900
G1 X59.224 Y6.272 Z-0.900
G1 X59.247 Y6.512 Z-0.900
G1 X59.327 Y6.512 Z-0.900
G1 X59.302 Y6.769 Z-0.900
G1 X59.227 Y7.016 Z-0.900
G1 X59.106 Y7.243 Z-0.900
G1 X58.942 Y7.442 Z-0.900
G1 X58.743 Y7.606 Z-0.900
G1 X58.516 Y7.727 Z-0.900
G1 X58.269 Y7.802 Z-0.900
G1 X58.013 Y7.827 Z-0.900
G1 X57.756 Y7.802 Z-0.900
G1 X57.509 Y7.727 Z-0.900
G1 X57.282 Y7.606 Z-0.900
G1 X57.083 Y7.442 Z-0.900
G1 X56.919 Y7.243 Z-0.900
G1 X56.798 Y7.016 Z-0.900
G1 X56.723 Y6.769 Z-0.900
G1 X56.698 Y6.512 Z-0.900
G1 X56.723 Y6.256 Z-0.900
