(VECTRIC POST REVISION)
(B2925ED459631B7A3767E32CB7BCFE47)
%
G21
G40
G94
G97
G64
G90
T1 M6
M8
M3 S10000
G0 X11.153 Y12.187
G0 Z5.080
G1 X11.153 Y12.187 Z-0.200 F1000.0
G1 X11.083 Y12.264 Z-0.200 F3000.0
G1 X11.022 Y12.347 Z-0.200
G1 X10.968 Y12.436 Z-0.200
G1 X10.924 Y12.529 Z-0.200
G1 X10.889 Y12.627 Z-0.200
G1 X10.864 Y12.727 Z-0.200
G1 X10.849 Y12.830 Z-0.200
G1 X10.844 Y12.933 Z-0.200
G1 X10.849 Y13.037 Z-0.200
G1 X10.864 Y13.139 Z-0.200
G1 X10.889 Y13.240 Z-0.200
G1 X10.924 Y13.337 Z-0.200
G1 X10.968 Y13.431 Z-0.200
G1 X11.022 Y13.520 Z-0.200
G1 X11.083 Y13.603 Z-0.200
G1 X11.153 Y13.680 Z-0.200
G1 X11.230 Y13.749 Z-0.200
G1 X11.313 Y13.811 Z-0.200
G1 X11.402 Y13.864 Z-0.200
G1 X11.495 Y13.908 Z-0.200
G1 X11.593 Y13.943 Z-0.200
G1 X11.693 Y13.968 Z-0.200
G1 X11.796 Y13.984 Z-0.200
G1 X11.899 Y13.989 Z-0.200
G1 X12.003 Y13.984 Z-0.200
G1 X12.105 Y13.968 Z-0.200
G1 X12.206 Y13.943 Z-0.200
G1 X12.303 Y13.908 Z-0.200
G1 X12.397 Y13.864 Z-0.200
G1 X12.486 Y13.811 Z-0.200
G1 X12.569 Y13.749 Z-0.200
G1 X12.646 Y13.680 Z-0.200
G1 X12.715 Y13.603 Z-0.200
G1 X12.777 Y13.520 Z-0.200
G1 X12.830 Y13.431 Z-0.200
G1 X12.874 Y13.337 Z-0.200
G1 X12.909 Y13.240 Z-0.200
G1 X12.934 Y13.139 Z-0.200
G1 X12.950 Y13.037 Z-0.200
G1 X12.955 Y12.933 Z-0.200
G1 X12.950 Y12.830 Z-0.200
G1 X12.934 Y12.727 Z-0.200
G1 X12.909 Y12.627 Z-0.200
G1 X12.874 Y12.529 Z-0.200
G1 X12.830 Y12.436 Z-0.200
G1 X12.777 Y12.347 Z-0.200
G1 X12.715 Y12.264 Z-0.200
G1 X12.646 Y12.187 Z-0.200
G1 X12.569 Y12.117 Z-0.200
G1 X12.486 Y12.056 Z-0.200
G1 X12.397 Y12.002 Z-0.200
G1 X12.303 Y11.958 Z-0.200
G1 X12.206 Y11.923 Z-0.200
G1 X12.105 Y11.898 Z-0.200
G1 X12.003 Y11.883 Z-0.200
G1 X11.899 Y11.878 Z-0.200
G1 X11.796 Y11.883 Z-0.200
G1 X11.693 Y11.898 Z-0.200
G1 X11.593 Y11.923 Z-0.200
G1 X11.495 Y11.958 Z-0.200
G1 X11.402 Y12.002 Z-0.200
G1 X11.313 Y12.056 Z-0.200
G1 X11.230 Y12.117 Z-0.200
G1 X11.153 Y12.187 Z-0.200
G0 X11.153 Y12.187
G0 Z5.080
G0 X11.693 Y14.438
G0 Z5.080
G1 X11.693 Y14.438 Z-0.200 F1000.0
G1 X11.593 Y14.463 Z-0.200 F3000.0
G1 X11.495 Y14.498 Z-0.200
G1 X11.402 Y14.542 Z-0.200
G1 X11.313 Y14.596 Z-0.200
G1 X11.230 Y14.657 Z-0.200
G1 X11.153 Y14.727 Z-0.200
G1 X11.083 Y14.804 Z-0.200
G1 X11.022 Y14.887 Z-0.200
G1 X10.968 Y14.976 Z-0.200
G1 X10.924 Y15.069 Z-0.200
G1 X10.889 Y15.167 Z-0.200
G1 X10.864 Y15.267 Z-0.200
G1 X10.849 Y15.370 Z-0.200
G1 X10.844 Y15.473 Z-0.200
G1 X10.849 Y15.577 Z-0.200
G1 X10.864 Y15.679 Z-0.200
G1 X10.889 Y15.780 Z-0.200
G1 X10.924 Y15.877 Z-0.200
G1 X10.968 Y15.971 Z-0.200
G1 X11.022 Y16.060 Z-0.200
G1 X11.083 Y16.143 Z-0.200
G1 X11.153 Y16.220 Z-0.200
G1 X11.230 Y16.289 Z-0.200
G1 X11.313 Y16.351 Z-0.200
G1 X11.402 Y16.404 Z-0.200
G1 X11.495 Y16.448 Z-0.200
G1 X11.593 Y16.483 Z-0.200
G1 X11.693 Y16.508 Z-0.200
G1 X11.796 Y16.524 Z-0.200
G1 X11.899 Y16.529 Z-0.200
G1 X12.003 Y16.524 Z-0.200
G1 X12.105 Y16.508 Z-0.200
G1 X12.206 Y16.483 Z-0.200
G1 X12.303 Y16.448 Z-0.200
G1 X12.397 Y16.404 Z-0.200
G1 X12.486 Y16.351 Z-0.200
G1 X12.569 Y16.289 Z-0.200
G1 X12.646 Y16.220 Z-0.200
G1 X12.715 Y16.143 Z-0.200
G1 X12.777 Y16.060 Z-0.200
G1 X12.830 Y15.971 Z-0.200
G1 X12.874 Y15.877 Z-0.200
G1 X12.909 Y15.780 Z-0.200
G1 X12.934 Y15.679 Z-0.200
G1 X12.950 Y15.577 Z-0.200
G1 X12.955 Y15.473 Z-0.200
G1 X12.950 Y15.370 Z-0.200
G1 X12.934 Y15.267 Z-0.200
G1 X12.909 Y15.167 Z-0.200
G1 X12.874 Y15.069 Z-0.200
G1 X12.830 Y14.976 Z-0.200
G1 X12.777 Y14.887 Z-0.200
G1 X12.715 Y14.804 Z-0.200
G1 X12.646 Y14.727 Z-0.200
G1 X12.569 Y14.657 Z-0.200
G1 X12.486 Y14.596 Z-0.200
G1 X12.397 Y14.542 Z-0.200
G1 X12.303 Y14.498 Z-0.200
G1 X12.206 Y14.463 Z-0.200
G1 X12.105 Y14.438 Z-0.200
G1 X12.003 Y14.423 Z-0.200
G1 X11.899 Y14.418 Z-0.200
G1 X11.796 Y14.423 Z-0.200
G1 X11.693 Y14.438 Z-0.200
G0 X11.693 Y14.438
G0 Z5.080
G0 X11.899 Y32.298
G0 Z5.080
G1 X11.899 Y32.298 Z-0.200 F1000.0
G1 X11.796 Y32.303 Z-0.200 F3000.0
G1 X11.693 Y32.318 Z-0.200
G1 X11.593 Y32.343 Z-0.200
G1 X11.495 Y32.378 Z-0.200
G1 X11.402 Y32.422 Z-0.200
G1 X11.313 Y32.476 Z-0.200
G1 X11.230 Y32.537 Z-0.200
G1 X11.153 Y32.607 Z-0.200
G1 X11.083 Y32.684 Z-0.200
G1 X11.022 Y32.767 Z-0.200
G1 X10.968 Y32.856 Z-0.200
G1 X10.924 Y32.949 Z-0.200
G1 X10.889 Y33.047 Z-0.200
G1 X10.864 Y33.147 Z-0.200
G1 X10.849 Y33.250 Z-0.200
G1 X10.844 Y33.353 Z-0.200
G1 X10.849 Y33.457 Z-0.200
G1 X10.864 Y33.559 Z-0.200
G1 X10.889 Y33.660 Z-0.200
G1 X10.924 Y33.757 Z-0.200
G1 X10.968 Y33.851 Z-0.200
G1 X11.022 Y33.940 Z-0.200
G1 X11.083 Y34.023 Z-0.200
G1 X11.153 Y34.100 Z-0.200
G1 X11.230 Y34.169 Z-0.200
G1 X11.313 Y34.231 Z-0.200
G1 X11.402 Y34.284 Z-0.200
G1 X11.495 Y34.328 Z-0.200
G1 X11.593 Y34.363 Z-0.200
G1 X11.693 Y34.388 Z-0.200
G1 X11.796 Y34.404 Z-0.200
G1 X11.899 Y34.409 Z-0.200
G1 X12.003 Y34.404 Z-0.200
G1 X12.105 Y34.388 Z-0.200
G1 X12.206 Y34.363 Z-0.200
G1 X12.303 Y34.328 Z-0.200
G1 X12.397 Y34.284 Z-0.200
G1 X12.486 Y34.231 Z-0.200
G1 X12.569 Y34.169 Z-0.200
G1 X12.646 Y34.100 Z-0.200
G1 X12.715 Y34.023 Z-0.200
G1 X12.777 Y33.940 Z-0.200
G1 X12.830 Y33.851 Z-0.200
G1 X12.874 Y33.757 Z-0.200
G1 X12.909 Y33.660 Z-0.200
G1 X12.934 Y33.559 Z-0.200
G1 X12.950 Y33.457 Z-0.200
G1 X12.955 Y33.353 Z-0.200
G1 X12.950 Y33.250 Z-0.200
G1 X12.934 Y33.147 Z-0.200
G1 X12.909 Y33.047 Z-0.200
G1 X12.874 Y32.949 Z-0.200
G1 X12.830 Y32.856 Z-0.200
G1 X12.777 Y32.767 Z-0.200
G1 X12.715 Y32.684 Z-0.200
G1 X12.646 Y32.607 Z-0.200
G1 X12.569 Y32.537 Z-0.200
G1 X12.486 Y32.476 Z-0.200
G1 X12.397 Y32.422 Z-0.200
G1 X12.303 Y32.378 Z-0.200
G1 X12.206 Y32.343 Z-0.200
G1 X12.105 Y32.318 Z-0.200
G1 X12.003 Y32.303 Z-0.200
G1 X11.899 Y32.298 Z-0.200
G0 X11.899 Y32.298
G0 Z5.080
G0 X11.899 Y34.838
G0 Z5.080
G1 X11.899 Y34.838 Z-0.200 F1000.0
G1 X11.796 Y34.843 Z-0.200 F3000.0
G1 X11.693 Y34.858 Z-0.200
G1 X11.593 Y34.883 Z-0.200
G1 X11.495 Y34.918 Z-0.200
G1 X11.402 Y34.962 Z-0.200
G1 X11.313 Y35.016 Z-0.200
G1 X11.230 Y35.077 Z-0.200
G1 X11.153 Y35.147 Z-0.200
G1 X11.083 Y35.224 Z-0.200
G1 X11.022 Y35.307 Z-0.200
G1 X10.968 Y35.396 Z-0.200
G1 X10.924 Y35.489 Z-0.200
G1 X10.889 Y35.587 Z-0.200
G1 X10.864 Y35.687 Z-0.200
G1 X10.849 Y35.790 Z-0.200
G1 X10.844 Y35.893 Z-0.200
G1 X10.849 Y35.997 Z-0.200
G1 X10.864 Y36.099 Z-0.200
G1 X10.889 Y36.200 Z-0.200
G1 X10.924 Y36.297 Z-0.200
G1 X10.968 Y36.391 Z-0.200
G1 X11.022 Y36.480 Z-0.200
G1 X11.083 Y36.563 Z-0.200
G1 X11.153 Y36.640 Z-0.200
G1 X11.230 Y36.709 Z-0.200
G1 X11.313 Y36.771 Z-0.200
G1 X11.402 Y36.824 Z-0.200
G1 X11.495 Y36.868 Z-0.200
G1 X11.593 Y36.903 Z-0.200
G1 X11.693 Y36.928 Z-0.200
G1 X11.796 Y36.944 Z-0.200
G1 X11.899 Y36.949 Z-0.200
G1 X12.003 Y36.944 Z-0.200
G1 X12.105 Y36.928 Z-0.200
G1 X12.206 Y36.903 Z-0.200
G1 X12.303 Y36.868 Z-0.200
G1 X12.397 Y36.824 Z-0.200
G1 X12.486 Y36.771 Z-0.200
G1 X12.569 Y36.709 Z-0.200
G1 X12.646 Y36.640 Z-0.200
G1 X12.715 Y36.563 Z-0.200
G1 X12.777 Y36.480 Z-0.200
G1 X12.830 Y36.391 Z-0.200
G1 X12.874 Y36.297 Z-0.200
G1 X12.909 Y36.200 Z-0.200
G1 X12.934 Y36.099 Z-0.200
G1 X12.950 Y35.997 Z-0.200
G1 X12.955 Y35.893 Z-0.200
G1 X12.950 Y35.790 Z-0.200
G1 X12.934 Y35.687 Z-0.200
G1 X12.909 Y35.587 Z-0.200
G1 X12.874 Y35.489 Z-0.200
G1 X12.830 Y35.396 Z-0.200
G1 X12.777 Y35.307 Z-0.200
G1 X12.715 Y35.224 Z-0.200
G1 X12.646 Y35.147 Z-0.200
G1 X12.569 Y35.077 Z-0.200
G1 X12.486 Y35.016 Z-0.200
G1 X12.397 Y34.962 Z-0.200
G1 X12.303 Y34.918 Z-0.200
G1 X12.206 Y34.883 Z-0.200
G1 X12.105 Y34.858 Z-0.200
G1 X12.003 Y34.843 Z-0.200
G1 X11.899 Y34.838 Z-0.200
G0 X11.899 Y34.838
G0 Z5.080
G0 X11.899 Y37.378
G0 Z5.080
G1 X11.899 Y37.378 Z-0.200 F1000.0
G1 X11.796 Y37.383 Z-0.200 F3000.0
G1 X11.693 Y37.398 Z-0.200
G1 X11.593 Y37.423 Z-0.200
G1 X11.495 Y37.458 Z-0.200
G1 X11.402 Y37.502 Z-0.200
G1 X11.313 Y37.556 Z-0.200
G1 X11.230 Y37.617 Z-0.200
G1 X11.153 Y37.687 Z-0.200
G1 X11.083 Y37.764 Z-0.200
G1 X11.022 Y37.847 Z-0.200
G1 X10.968 Y37.936 Z-0.200
G1 X10.924 Y38.029 Z-0.200
G1 X10.889 Y38.127 Z-0.200
G1 X10.864 Y38.227 Z-0.200
G1 X10.849 Y38.330 Z-0.200
G1 X10.844 Y38.433 Z-0.200
G1 X10.849 Y38.537 Z-0.200
G1 X10.864 Y38.639 Z-0.200
G1 X10.889 Y38.740 Z-0.200
G1 X10.924 Y38.837 Z-0.200
G1 X10.968 Y38.931 Z-0.200
G1 X11.022 Y39.020 Z-0.200
G1 X11.083 Y39.103 Z-0.200
G1 X11.153 Y39.180 Z-0.200
G1 X11.230 Y39.249 Z-0.200
G1 X11.313 Y39.311 Z-0.200
G1 X11.402 Y39.364 Z-0.200
G1 X11.495 Y39.408 Z-0.200
G1 X11.593 Y39.443 Z-0.200
G1 X11.693 Y39.468 Z-0.200
G1 X11.796 Y39.484 Z-0.200
G1 X11.899 Y39.489 Z-0.200
G1 X12.003 Y39.484 Z-0.200
G1 X12.105 Y39.468 Z-0.200
G1 X12.206 Y39.443 Z-0.200
G1 X12.303 Y39.408 Z-0.200
G1 X12.397 Y39.364 Z-0.200
G1 X12.486 Y39.311 Z-0.200
G1 X12.569 Y39.249 Z-0.200
G1 X12.646 Y39.180 Z-0.200
G1 X12.715 Y39.103 Z-0.200
G1 X12.777 Y39.020 Z-0.200
G1 X12.830 Y38.931 Z-0.200
G1 X12.874 Y38.837 Z-0.200
G1 X12.909 Y38.740 Z-0.200
G1 X12.934 Y38.639 Z-0.200
G1 X12.950 Y38.537 Z-0.200
G1 X12.955 Y38.433 Z-0.200
G1 X12.950 Y38.330 Z-0.200
G1 X12.934 Y38.227 Z-0.200
G1 X12.909 Y38.127 Z-0.200
G1 X12.874 Y38.029 Z-0.200
G1 X12.830 Y37.936 Z-0.200
G1 X12.777 Y37.847 Z-0.200
G1 X12.715 Y37.764 Z-0.200
G1 X12.646 Y37.687 Z-0.200
G1 X12.569 Y37.617 Z-0.200
G1 X12.486 Y37.556 Z-0.200
G1 X12.397 Y37.502 Z-0.200
G1 X12.303 Y37.458 Z-0.200
G1 X12.206 Y37.423 Z-0.200
G1 X12.105 Y37.398 Z-0.200
G1 X12.003 Y37.383 Z-0.200
G1 X11.899 Y37.378 Z-0.200
G0 X11.899 Y37.378
G0 Z5.080
G0 X12.749 Y50.078
G0 Z5.080
G1 X12.749 Y50.078 Z-0.200 F1000.0
G1 X11.049 Y50.078 Z-0.200 F3000.0
G1 X11.022 Y50.080 Z-0.200
G1 X10.994 Y50.085 Z-0.200
G1 X10.967 Y50.095 Z-0.200
G1 X10.940 Y50.109 Z-0.200
G1 X10.915 Y50.128 Z-0.200
G1 X10.894 Y50.149 Z-0.200
G1 X10.875 Y50.174 Z-0.200
G1 X10.861 Y50.201 Z-0.200
G1 X10.851 Y50.229 Z-0.200
G1 X10.846 Y50.256 Z-0.200
G1 X10.844 Y50.283 Z-0.200
G1 X10.844 Y51.983 Z-0.200
G1 X10.846 Y52.010 Z-0.200
G1 X10.851 Y52.038 Z-0.200
G1 X10.861 Y52.066 Z-0.200
G1 X10.875 Y52.092 Z-0.200
G1 X10.894 Y52.117 Z-0.200
G1 X10.915 Y52.139 Z-0.200
G1 X10.940 Y52.157 Z-0.200
G1 X10.967 Y52.171 Z-0.200
G1 X10.994 Y52.181 Z-0.200
G1 X11.022 Y52.187 Z-0.200
G1 X11.049 Y52.189 Z-0.200
G1 X12.749 Y52.189 Z-0.200
G1 X12.779 Y52.186 Z-0.200
G1 X12.809 Y52.179 Z-0.200
G1 X12.840 Y52.167 Z-0.200
G1 X12.868 Y52.150 Z-0.200
G1 X12.894 Y52.128 Z-0.200
G1 X12.916 Y52.103 Z-0.200
G1 X12.933 Y52.074 Z-0.200
G1 X12.945 Y52.044 Z-0.200
G1 X12.952 Y52.013 Z-0.200
G1 X12.954 Y51.983 Z-0.200
G1 X12.954 Y50.283 Z-0.200
G1 X12.952 Y50.254 Z-0.200
G1 X12.945 Y50.223 Z-0.200
G1 X12.933 Y50.193 Z-0.200
G1 X12.916 Y50.164 Z-0.200
G1 X12.894 Y50.138 Z-0.200
G1 X12.868 Y50.116 Z-0.200
G1 X12.840 Y50.099 Z-0.200
G1 X12.809 Y50.087 Z-0.200
G1 X12.779 Y50.080 Z-0.200
G1 X12.749 Y50.078 Z-0.200
G0 X12.749 Y50.078
G0 Z5.080
G0 X18.774 Y55.293
G0 Z5.080
G1 X18.774 Y55.293 Z-0.200 F1000.0
G1 X18.774 Y56.993 Z-0.200 F3000.0
G1 X18.776 Y57.020 Z-0.200
G1 X18.781 Y57.048 Z-0.200
G1 X18.791 Y57.076 Z-0.200
G1 X18.805 Y57.102 Z-0.200
G1 X18.824 Y57.127 Z-0.200
G1 X18.845 Y57.149 Z-0.200
G1 X18.870 Y57.167 Z-0.200
G1 X18.897 Y57.181 Z-0.200
G1 X18.924 Y57.191 Z-0.200
G1 X18.952 Y57.197 Z-0.200
G1 X18.979 Y57.199 Z-0.200
G1 X22.479 Y57.199 Z-0.200
G1 X22.509 Y57.196 Z-0.200
G1 X22.539 Y57.189 Z-0.200
G1 X22.570 Y57.177 Z-0.200
G1 X22.598 Y57.160 Z-0.200
G1 X22.624 Y57.138 Z-0.200
G1 X22.646 Y57.113 Z-0.200
G1 X22.663 Y57.084 Z-0.200
G1 X22.675 Y57.054 Z-0.200
G1 X22.682 Y57.023 Z-0.200
G1 X22.684 Y56.993 Z-0.200
G1 X22.684 Y55.293 Z-0.200
G1 X22.682 Y55.264 Z-0.200
G1 X22.675 Y55.233 Z-0.200
G1 X22.663 Y55.203 Z-0.200
G1 X22.646 Y55.174 Z-0.200
G1 X22.624 Y55.148 Z-0.200
G1 X22.598 Y55.126 Z-0.200
G1 X22.570 Y55.109 Z-0.200
G1 X22.539 Y55.097 Z-0.200
G1 X22.509 Y55.090 Z-0.200
G1 X22.479 Y55.088 Z-0.200
G1 X18.979 Y55.088 Z-0.200
G1 X18.952 Y55.090 Z-0.200
G1 X18.924 Y55.095 Z-0.200
G1 X18.897 Y55.105 Z-0.200
G1 X18.870 Y55.119 Z-0.200
G1 X18.845 Y55.138 Z-0.200
G1 X18.824 Y55.159 Z-0.200
G1 X18.805 Y55.184 Z-0.200
G1 X18.791 Y55.211 Z-0.200
G1 X18.781 Y55.239 Z-0.200
G1 X18.776 Y55.266 Z-0.200
G1 X18.774 Y55.293 Z-0.200
G0 X18.774 Y55.293
G0 Z5.080
G0 X18.979 Y54.659
G0 Z5.080
G1 X18.979 Y54.659 Z-0.200 F1000.0
G1 X22.479 Y54.659 Z-0.200 F3000.0
G1 X22.509 Y54.656 Z-0.200
G1 X22.539 Y54.649 Z-0.200
G1 X22.570 Y54.637 Z-0.200
G1 X22.598 Y54.620 Z-0.200
G1 X22.624 Y54.598 Z-0.200
G1 X22.646 Y54.573 Z-0.200
G1 X22.663 Y54.544 Z-0.200
G1 X22.675 Y54.514 Z-0.200
G1 X22.682 Y54.483 Z-0.200
G1 X22.684 Y54.453 Z-0.200
G1 X22.684 Y52.753 Z-0.200
G1 X22.682 Y52.724 Z-0.200
G1 X22.675 Y52.693 Z-0.200
G1 X22.663 Y52.663 Z-0.200
G1 X22.646 Y52.634 Z-0.200
G1 X22.624 Y52.608 Z-0.200
G1 X22.598 Y52.586 Z-0.200
G1 X22.570 Y52.569 Z-0.200
G1 X22.539 Y52.557 Z-0.200
G1 X22.509 Y52.550 Z-0.200
G1 X22.479 Y52.548 Z-0.200
G1 X18.979 Y52.548 Z-0.200
G1 X18.952 Y52.550 Z-0.200
G1 X18.924 Y52.555 Z-0.200
G1 X18.897 Y52.565 Z-0.200
G1 X18.870 Y52.579 Z-0.200
G1 X18.845 Y52.598 Z-0.200
G1 X18.824 Y52.619 Z-0.200
G1 X18.805 Y52.644 Z-0.200
G1 X18.791 Y52.671 Z-0.200
G1 X18.781 Y52.699 Z-0.200
G1 X18.776 Y52.726 Z-0.200
G1 X18.774 Y52.753 Z-0.200
G1 X18.774 Y54.453 Z-0.200
G1 X18.776 Y54.480 Z-0.200
G1 X18.781 Y54.508 Z-0.200
G1 X18.791 Y54.536 Z-0.200
G1 X18.805 Y54.562 Z-0.200
G1 X18.824 Y54.587 Z-0.200
G1 X18.845 Y54.609 Z-0.200
G1 X18.870 Y54.627 Z-0.200
G1 X18.897 Y54.641 Z-0.200
G1 X18.924 Y54.651 Z-0.200
G1 X18.952 Y54.657 Z-0.200
G1 X18.979 Y54.659 Z-0.200
G0 X18.979 Y54.659
G0 Z5.080
G0 X18.979 Y52.119
G0 Z5.080
G1 X18.979 Y52.119 Z-0.200 F1000.0
G1 X22.479 Y52.119 Z-0.200 F3000.0
G1 X22.509 Y52.116 Z-0.200
G1 X22.539 Y52.109 Z-0.200
G1 X22.570 Y52.097 Z-0.200
G1 X22.598 Y52.080 Z-0.200
G1 X22.624 Y52.058 Z-0.200
G1 X22.646 Y52.033 Z-0.200
G1 X22.663 Y52.004 Z-0.200
G1 X22.675 Y51.974 Z-0.200
G1 X22.682 Y51.943 Z-0.200
G1 X22.684 Y51.913 Z-0.200
G1 X22.684 Y50.213 Z-0.200
G1 X22.682 Y50.184 Z-0.200
G1 X22.675 Y50.153 Z-0.200
G1 X22.663 Y50.123 Z-0.200
G1 X22.646 Y50.094 Z-0.200
G1 X22.624 Y50.068 Z-0.200
G1 X22.598 Y50.046 Z-0.200
G1 X22.570 Y50.029 Z-0.200
G1 X22.539 Y50.017 Z-0.200
G1 X22.509 Y50.010 Z-0.200
G1 X22.479 Y50.008 Z-0.200
G1 X18.979 Y50.008 Z-0.200
G1 X18.949 Y50.010 Z-0.200
G1 X18.919 Y50.017 Z-0.200
G1 X18.889 Y50.029 Z-0.200
G1 X18.860 Y50.046 Z-0.200
G1 X18.834 Y50.068 Z-0.200
G1 X18.812 Y50.094 Z-0.200
G1 X18.795 Y50.123 Z-0.200
G1 X18.783 Y50.153 Z-0.200
G1 X18.776 Y50.184 Z-0.200
G1 X18.774 Y50.213 Z-0.200
G1 X18.774 Y50.356 Z-0.200
G1 X18.724 Y50.338 Z-0.200
G1 X18.657 Y50.321 Z-0.200
G1 X18.588 Y50.311 Z-0.200
G1 X18.519 Y50.307 Z-0.200
G1 X18.450 Y50.311 Z-0.200
G1 X18.381 Y50.321 Z-0.200
G1 X18.314 Y50.338 Z-0.200
G1 X18.249 Y50.361 Z-0.200
G1 X18.186 Y50.391 Z-0.200
G1 X18.127 Y50.426 Z-0.200
G1 X18.071 Y50.468 Z-0.200
G1 X18.024 Y50.511 Z-0.200
G1 X14.727 Y53.808 Z-0.200
G1 X11.071 Y53.808 Z-0.200
G1 X10.105 Y52.841 Z-0.200
G1 X10.105 Y47.425 Z-0.200
G1 X10.771 Y46.759 Z-0.200
G1 X11.116 Y46.759 Z-0.200
G1 X11.153 Y46.800 Z-0.200
G1 X11.230 Y46.869 Z-0.200
G1 X11.313 Y46.931 Z-0.200
G1 X11.402 Y46.984 Z-0.200
G1 X11.495 Y47.028 Z-0.200
G1 X11.593 Y47.063 Z-0.200
G1 X11.693 Y47.088 Z-0.200
G1 X11.796 Y47.104 Z-0.200
G1 X11.899 Y47.109 Z-0.200
G1 X12.003 Y47.104 Z-0.200
G1 X12.105 Y47.088 Z-0.200
G1 X12.206 Y47.063 Z-0.200
G1 X12.303 Y47.028 Z-0.200
G1 X12.397 Y46.984 Z-0.200
G1 X12.486 Y46.931 Z-0.200
G1 X12.569 Y46.869 Z-0.200
G1 X12.646 Y46.800 Z-0.200
G1 X12.715 Y46.723 Z-0.200
G1 X12.777 Y46.640 Z-0.200
G1 X12.830 Y46.551 Z-0.200
G1 X12.874 Y46.457 Z-0.200
G1 X12.909 Y46.360 Z-0.200
G1 X12.934 Y46.259 Z-0.200
G1 X12.950 Y46.157 Z-0.200
G1 X12.955 Y46.053 Z-0.200
G1 X12.950 Y45.950 Z-0.200
G1 X12.934 Y45.847 Z-0.200
G1 X12.909 Y45.747 Z-0.200
G1 X12.874 Y45.649 Z-0.200
G1 X12.830 Y45.556 Z-0.200
G1 X12.777 Y45.467 Z-0.200
G1 X12.715 Y45.384 Z-0.200
G1 X12.646 Y45.307 Z-0.200
G1 X12.569 Y45.237 Z-0.200
G1 X12.486 Y45.176 Z-0.200
G1 X12.397 Y45.122 Z-0.200
G1 X12.303 Y45.078 Z-0.200
G1 X12.206 Y45.043 Z-0.200
G1 X12.105 Y45.018 Z-0.200
G1 X12.003 Y45.003 Z-0.200
G1 X11.899 Y44.998 Z-0.200
G1 X11.796 Y45.003 Z-0.200
G1 X11.693 Y45.018 Z-0.200
G1 X11.593 Y45.043 Z-0.200
G1 X11.495 Y45.078 Z-0.200
G1 X11.402 Y45.122 Z-0.200
G1 X11.313 Y45.176 Z-0.200
G1 X11.230 Y45.237 Z-0.200
G1 X11.153 Y45.307 Z-0.200
G1 X11.116 Y45.348 Z-0.200
G1 X10.474 Y45.348 Z-0.200
G1 X10.410 Y45.351 Z-0.200
G1 X10.341 Y45.361 Z-0.200
G1 X10.274 Y45.378 Z-0.200
G1 X10.209 Y45.401 Z-0.200
G1 X10.146 Y45.431 Z-0.200
G1 X10.087 Y45.466 Z-0.200
G1 X10.031 Y45.508 Z-0.200
G1 X9.984 Y45.551 Z-0.200
G1 X8.897 Y46.638 Z-0.200
G1 X8.854 Y46.686 Z-0.200
G1 X8.812 Y46.741 Z-0.200
G1 X8.777 Y46.801 Z-0.200
G1 X8.747 Y46.863 Z-0.200
G1 X8.724 Y46.928 Z-0.200
G1 X8.707 Y46.996 Z-0.200
G1 X8.697 Y47.064 Z-0.200
G1 X8.694 Y47.128 Z-0.200
G1 X8.694 Y53.138 Z-0.200
G1 X8.697 Y53.202 Z-0.200
G1 X8.707 Y53.271 Z-0.200
G1 X8.724 Y53.338 Z-0.200
G1 X8.747 Y53.403 Z-0.200
G1 X8.777 Y53.466 Z-0.200
G1 X8.812 Y53.525 Z-0.200
G1 X8.854 Y53.581 Z-0.200
G1 X8.897 Y53.629 Z-0.200
G1 X10.284 Y55.016 Z-0.200
G1 X10.331 Y55.059 Z-0.200
G1 X10.387 Y55.100 Z-0.200
G1 X10.446 Y55.136 Z-0.200
G1 X10.509 Y55.165 Z-0.200
G1 X10.574 Y55.189 Z-0.200
G1 X10.641 Y55.205 Z-0.200
G1 X10.710 Y55.216 Z-0.200
G1 X10.774 Y55.219 Z-0.200
G1 X15.024 Y55.219 Z-0.200
G1 X15.088 Y55.216 Z-0.200
G1 X15.157 Y55.205 Z-0.200
G1 X15.224 Y55.189 Z-0.200
G1 X15.289 Y55.165 Z-0.200
G1 X15.352 Y55.136 Z-0.200
G1 X15.411 Y55.100 Z-0.200
G1 X15.467 Y55.059 Z-0.200
G1 X15.514 Y55.016 Z-0.200
G1 X18.761 Y51.769 Z-0.200
G1 X18.774 Y51.769 Z-0.200
G1 X18.774 Y51.913 Z-0.200
G1 X18.776 Y51.943 Z-0.200
G1 X18.783 Y51.974 Z-0.200
G1 X18.795 Y52.004 Z-0.200
G1 X18.812 Y52.033 Z-0.200
G1 X18.834 Y52.058 Z-0.200
G1 X18.860 Y52.080 Z-0.200
G1 X18.889 Y52.097 Z-0.200
G1 X18.919 Y52.109 Z-0.200
G1 X18.949 Y52.116 Z-0.200
G1 X18.979 Y52.119 Z-0.200
G0 X18.979 Y52.119
G0 Z5.080
G0 X18.979 Y49.579
G0 Z5.080
G1 X18.979 Y49.579 Z-0.200 F1000.0
G1 X22.479 Y49.579 Z-0.200 F3000.0
G1 X22.509 Y49.576 Z-0.200
G1 X22.539 Y49.569 Z-0.200
G1 X22.570 Y49.557 Z-0.200
G1 X22.598 Y49.540 Z-0.200
G1 X22.624 Y49.518 Z-0.200
G1 X22.646 Y49.493 Z-0.200
G1 X22.663 Y49.464 Z-0.200
G1 X22.675 Y49.434 Z-0.200
G1 X22.682 Y49.403 Z-0.200
G1 X22.684 Y49.373 Z-0.200
G1 X22.684 Y47.673 Z-0.200
G1 X22.682 Y47.644 Z-0.200
G1 X22.675 Y47.613 Z-0.200
G1 X22.663 Y47.583 Z-0.200
G1 X22.646 Y47.554 Z-0.200
G1 X22.624 Y47.528 Z-0.200
G1 X22.598 Y47.506 Z-0.200
G1 X22.570 Y47.489 Z-0.200
G1 X22.539 Y47.477 Z-0.200
G1 X22.509 Y47.470 Z-0.200
G1 X22.479 Y47.468 Z-0.200
G1 X18.979 Y47.468 Z-0.200
G1 X18.949 Y47.470 Z-0.200
G1 X18.919 Y47.477 Z-0.200
G1 X18.889 Y47.489 Z-0.200
G1 X18.860 Y47.506 Z-0.200
G1 X18.834 Y47.528 Z-0.200
G1 X18.812 Y47.554 Z-0.200
G1 X18.795 Y47.583 Z-0.200
G1 X18.783 Y47.613 Z-0.200
G1 X18.776 Y47.644 Z-0.200
G1 X18.774 Y47.673 Z-0.200
G1 X18.774 Y49.373 Z-0.200
G1 X18.776 Y49.400 Z-0.200
G1 X18.781 Y49.428 Z-0.200
G1 X18.791 Y49.456 Z-0.200
G1 X18.805 Y49.482 Z-0.200
G1 X18.824 Y49.507 Z-0.200
G1 X18.845 Y49.529 Z-0.200
G1 X18.870 Y49.547 Z-0.200
G1 X18.897 Y49.561 Z-0.200
G1 X18.924 Y49.571 Z-0.200
G1 X18.952 Y49.577 Z-0.200
G1 X18.979 Y49.579 Z-0.200
G0 X18.979 Y49.579
G0 Z5.080
G0 X18.979 Y44.499
G0 Z5.080
G1 X18.979 Y44.499 Z-0.200 F1000.0
G1 X22.479 Y44.499 Z-0.200 F3000.0
G1 X22.509 Y44.496 Z-0.200
G1 X22.539 Y44.489 Z-0.200
G1 X22.570 Y44.477 Z-0.200
G1 X22.598 Y44.460 Z-0.200
G1 X22.624 Y44.438 Z-0.200
G1 X22.646 Y44.413 Z-0.200
G1 X22.663 Y44.384 Z-0.200
G1 X22.675 Y44.354 Z-0.200
G1 X22.682 Y44.323 Z-0.200
G1 X22.684 Y44.293 Z-0.200
G1 X22.684 Y42.593 Z-0.200
G1 X22.682 Y42.564 Z-0.200
G1 X22.675 Y42.533 Z-0.200
G1 X22.663 Y42.503 Z-0.200
G1 X22.646 Y42.474 Z-0.200
G1 X22.624 Y42.448 Z-0.200
G1 X22.598 Y42.426 Z-0.200
G1 X22.570 Y42.409 Z-0.200
G1 X22.539 Y42.397 Z-0.200
G1 X22.509 Y42.390 Z-0.200
G1 X22.479 Y42.388 Z-0.200
G1 X18.979 Y42.388 Z-0.200
G1 X18.952 Y42.390 Z-0.200
G1 X18.924 Y42.395 Z-0.200
G1 X18.897 Y42.405 Z-0.200
G1 X18.870 Y42.419 Z-0.200
G1 X18.845 Y42.438 Z-0.200
G1 X18.824 Y42.459 Z-0.200
G1 X18.805 Y42.484 Z-0.200
G1 X18.791 Y42.511 Z-0.200
G1 X18.781 Y42.539 Z-0.200
G1 X18.776 Y42.566 Z-0.200
G1 X18.774 Y42.593 Z-0.200
G1 X18.774 Y44.293 Z-0.200
G1 X18.776 Y44.320 Z-0.200
G1 X18.781 Y44.348 Z-0.200
G1 X18.791 Y44.376 Z-0.200
G1 X18.805 Y44.402 Z-0.200
G1 X18.824 Y44.427 Z-0.200
G1 X18.845 Y44.449 Z-0.200
G1 X18.870 Y44.467 Z-0.200
G1 X18.897 Y44.481 Z-0.200
G1 X18.924 Y44.491 Z-0.200
G1 X18.952 Y44.497 Z-0.200
G1 X18.979 Y44.499 Z-0.200
G0 X18.979 Y44.499
G0 Z5.080
G0 X18.979 Y41.959
G0 Z5.080
G1 X18.979 Y41.959 Z-0.200 F1000.0
G1 X22.479 Y41.959 Z-0.200 F3000.0
G1 X22.509 Y41.956 Z-0.200
G1 X22.539 Y41.949 Z-0.200
G1 X22.570 Y41.937 Z-0.200
G1 X22.598 Y41.920 Z-0.200
G1 X22.624 Y41.898 Z-0.200
G1 X22.646 Y41.873 Z-0.200
G1 X22.663 Y41.844 Z-0.200
G1 X22.675 Y41.814 Z-0.200
G1 X22.682 Y41.783 Z-0.200
G1 X22.684 Y41.753 Z-0.200
G1 X22.684 Y40.053 Z-0.200
G1 X22.682 Y40.024 Z-0.200
G1 X22.675 Y39.993 Z-0.200
G1 X22.663 Y39.963 Z-0.200
G1 X22.646 Y39.934 Z-0.200
G1 X22.624 Y39.908 Z-0.200
G1 X22.598 Y39.886 Z-0.200
G1 X22.570 Y39.869 Z-0.200
G1 X22.539 Y39.857 Z-0.200
G1 X22.509 Y39.850 Z-0.200
G1 X22.479 Y39.848 Z-0.200
G1 X18.979 Y39.848 Z-0.200
G1 X18.952 Y39.850 Z-0.200
G1 X18.924 Y39.855 Z-0.200
G1 X18.897 Y39.865 Z-0.200
G1 X18.870 Y39.879 Z-0.200
G1 X18.845 Y39.898 Z-0.200
G1 X18.824 Y39.919 Z-0.200
G1 X18.805 Y39.944 Z-0.200
G1 X18.791 Y39.971 Z-0.200
G1 X18.781 Y39.999 Z-0.200
G1 X18.776 Y40.026 Z-0.200
G1 X18.774 Y40.053 Z-0.200
G1 X18.774 Y41.753 Z-0.200
G1 X18.776 Y41.780 Z-0.200
G1 X18.781 Y41.808 Z-0.200
G1 X18.791 Y41.836 Z-0.200
G1 X18.805 Y41.862 Z-0.200
G1 X18.824 Y41.887 Z-0.200
G1 X18.845 Y41.909 Z-0.200
G1 X18.870 Y41.927 Z-0.200
G1 X18.897 Y41.941 Z-0.200
G1 X18.924 Y41.951 Z-0.200
G1 X18.952 Y41.957 Z-0.200
G1 X18.979 Y41.959 Z-0.200
G0 X18.979 Y41.959
G0 Z5.080
G0 X18.979 Y39.419
G0 Z5.080
G1 X18.979 Y39.419 Z-0.200 F1000.0
G1 X22.479 Y39.419 Z-0.200 F3000.0
G1 X22.509 Y39.416 Z-0.200
G1 X22.539 Y39.409 Z-0.200
G1 X22.570 Y39.397 Z-0.200
G1 X22.598 Y39.380 Z-0.200
G1 X22.624 Y39.358 Z-0.200
G1 X22.646 Y39.333 Z-0.200
G1 X22.663 Y39.304 Z-0.200
G1 X22.675 Y39.274 Z-0.200
G1 X22.682 Y39.243 Z-0.200
G1 X22.684 Y39.213 Z-0.200
G1 X22.684 Y37.513 Z-0.200
G1 X22.682 Y37.484 Z-0.200
G1 X22.675 Y37.453 Z-0.200
G1 X22.663 Y37.423 Z-0.200
G1 X22.646 Y37.394 Z-0.200
G1 X22.624 Y37.368 Z-0.200
G1 X22.598 Y37.346 Z-0.200
G1 X22.570 Y37.329 Z-0.200
G1 X22.539 Y37.317 Z-0.200
G1 X22.509 Y37.310 Z-0.200
G1 X22.479 Y37.308 Z-0.200
G1 X18.979 Y37.308 Z-0.200
G1 X18.952 Y37.310 Z-0.200
G1 X18.924 Y37.315 Z-0.200
G1 X18.897 Y37.325 Z-0.200
G1 X18.870 Y37.339 Z-0.200
G1 X18.845 Y37.358 Z-0.200
G1 X18.824 Y37.379 Z-0.200
G1 X18.805 Y37.404 Z-0.200
G1 X18.791 Y37.431 Z-0.200
G1 X18.781 Y37.459 Z-0.200
G1 X18.776 Y37.486 Z-0.200
G1 X18.774 Y37.513 Z-0.200
G1 X18.774 Y39.213 Z-0.200
G1 X18.776 Y39.240 Z-0.200
G1 X18.781 Y39.268 Z-0.200
G1 X18.791 Y39.296 Z-0.200
G1 X18.805 Y39.322 Z-0.200
G1 X18.824 Y39.347 Z-0.200
G1 X18.845 Y39.369 Z-0.200
G1 X18.870 Y39.387 Z-0.200
G1 X18.897 Y39.401 Z-0.200
G1 X18.924 Y39.411 Z-0.200
G1 X18.952 Y39.417 Z-0.200
G1 X18.979 Y39.419 Z-0.200
G0 X18.979 Y39.419
G0 Z5.080
G0 X18.979 Y36.879
G0 Z5.080
G1 X18.979 Y36.879 Z-0.200 F1000.0
G1 X22.479 Y36.879 Z-0.200 F3000.0
G1 X22.509 Y36.876 Z-0.200
G1 X22.539 Y36.869 Z-0.200
G1 X22.570 Y36.857 Z-0.200
G1 X22.598 Y36.840 Z-0.200
G1 X22.624 Y36.818 Z-0.200
G1 X22.646 Y36.793 Z-0.200
G1 X22.663 Y36.764 Z-0.200
G1 X22.675 Y36.734 Z-0.200
G1 X22.682 Y36.703 Z-0.200
G1 X22.684 Y36.673 Z-0.200
G1 X22.684 Y34.973 Z-0.200
G1 X22.682 Y34.944 Z-0.200
G1 X22.675 Y34.913 Z-0.200
G1 X22.663 Y34.883 Z-0.200
G1 X22.646 Y34.854 Z-0.200
G1 X22.624 Y34.828 Z-0.200
G1 X22.598 Y34.806 Z-0.200
G1 X22.570 Y34.789 Z-0.200
G1 X22.539 Y34.777 Z-0.200
G1 X22.509 Y34.770 Z-0.200
G1 X22.479 Y34.768 Z-0.200
G1 X18.979 Y34.768 Z-0.200
G1 X18.952 Y34.770 Z-0.200
G1 X18.924 Y34.775 Z-0.200
G1 X18.897 Y34.785 Z-0.200
G1 X18.870 Y34.799 Z-0.200
G1 X18.845 Y34.818 Z-0.200
G1 X18.824 Y34.839 Z-0.200
G1 X18.805 Y34.864 Z-0.200
G1 X18.791 Y34.891 Z-0.200
G1 X18.781 Y34.919 Z-0.200
G1 X18.776 Y34.946 Z-0.200
G1 X18.774 Y34.973 Z-0.200
G1 X18.774 Y36.673 Z-0.200
G1 X18.776 Y36.700 Z-0.200
G1 X18.781 Y36.728 Z-0.200
G1 X18.791 Y36.756 Z-0.200
G1 X18.805 Y36.782 Z-0.200
G1 X18.824 Y36.807 Z-0.200
G1 X18.845 Y36.829 Z-0.200
G1 X18.870 Y36.847 Z-0.200
G1 X18.897 Y36.861 Z-0.200
G1 X18.924 Y36.871 Z-0.200
G1 X18.952 Y36.877 Z-0.200
G1 X18.979 Y36.879 Z-0.200
G0 X18.979 Y36.879
G0 Z5.080
G0 X18.979 Y34.339
G0 Z5.080
G1 X18.979 Y34.339 Z-0.200 F1000.0
G1 X22.479 Y34.339 Z-0.200 F3000.0
G1 X22.509 Y34.336 Z-0.200
G1 X22.539 Y34.329 Z-0.200
G1 X22.570 Y34.317 Z-0.200
G1 X22.598 Y34.300 Z-0.200
G1 X22.624 Y34.278 Z-0.200
G1 X22.646 Y34.253 Z-0.200
G1 X22.663 Y34.224 Z-0.200
G1 X22.675 Y34.194 Z-0.200
G1 X22.682 Y34.163 Z-0.200
G1 X22.684 Y34.133 Z-0.200
G1 X22.684 Y32.433 Z-0.200
G1 X22.682 Y32.404 Z-0.200
G1 X22.675 Y32.373 Z-0.200
G1 X22.663 Y32.343 Z-0.200
G1 X22.646 Y32.314 Z-0.200
G1 X22.624 Y32.288 Z-0.200
G1 X22.598 Y32.266 Z-0.200
G1 X22.570 Y32.249 Z-0.200
G1 X22.539 Y32.237 Z-0.200
G1 X22.509 Y32.230 Z-0.200
G1 X22.479 Y32.228 Z-0.200
G1 X18.979 Y32.228 Z-0.200
G1 X18.952 Y32.230 Z-0.200
G1 X18.924 Y32.235 Z-0.200
G1 X18.897 Y32.245 Z-0.200
G1 X18.870 Y32.259 Z-0.200
G1 X18.845 Y32.278 Z-0.200
G1 X18.824 Y32.299 Z-0.200
G1 X18.805 Y32.324 Z-0.200
G1 X18.791 Y32.351 Z-0.200
G1 X18.781 Y32.379 Z-0.200
G1 X18.776 Y32.406 Z-0.200
G1 X18.774 Y32.433 Z-0.200
G1 X18.774 Y34.133 Z-0.200
G1 X18.776 Y34.160 Z-0.200
G1 X18.781 Y34.188 Z-0.200
G1 X18.791 Y34.216 Z-0.200
G1 X18.805 Y34.242 Z-0.200
G1 X18.824 Y34.267 Z-0.200
G1 X18.845 Y34.289 Z-0.200
G1 X18.870 Y34.307 Z-0.200
G1 X18.897 Y34.321 Z-0.200
G1 X18.924 Y34.331 Z-0.200
G1 X18.952 Y34.337 Z-0.200
G1 X18.979 Y34.339 Z-0.200
G0 X18.979 Y34.339
G0 Z5.080
G0 X18.979 Y31.799
G0 Z5.080
G1 X18.979 Y31.799 Z-0.200 F1000.0
G1 X22.479 Y31.799 Z-0.200 F3000.0
G1 X22.509 Y31.796 Z-0.200
G1 X22.539 Y31.789 Z-0.200
G1 X22.570 Y31.777 Z-0.200
G1 X22.598 Y31.760 Z-0.200
G1 X22.624 Y31.738 Z-0.200
G1 X22.646 Y31.713 Z-0.200
G1 X22.663 Y31.684 Z-0.200
G1 X22.675 Y31.654 Z-0.200
G1 X22.682 Y31.623 Z-0.200
G1 X22.684 Y31.593 Z-0.200
G1 X22.684 Y29.893 Z-0.200
G1 X22.682 Y29.864 Z-0.200
G1 X22.675 Y29.833 Z-0.200
G1 X22.663 Y29.803 Z-0.200
G1 X22.646 Y29.774 Z-0.200
G1 X22.624 Y29.748 Z-0.200
G1 X22.598 Y29.726 Z-0.200
G1 X22.570 Y29.709 Z-0.200
G1 X22.539 Y29.697 Z-0.200
G1 X22.509 Y29.690 Z-0.200
G1 X22.479 Y29.688 Z-0.200
G1 X18.979 Y29.688 Z-0.200
G1 X18.952 Y29.690 Z-0.200
G1 X18.924 Y29.695 Z-0.200
G1 X18.897 Y29.705 Z-0.200
G1 X18.870 Y29.719 Z-0.200
G1 X18.845 Y29.738 Z-0.200
G1 X18.824 Y29.759 Z-0.200
G1 X18.805 Y29.784 Z-0.200
G1 X18.791 Y29.811 Z-0.200
G1 X18.781 Y29.839 Z-0.200
G1 X18.776 Y29.866 Z-0.200
G1 X18.774 Y29.893 Z-0.200
G1 X18.774 Y31.593 Z-0.200
G1 X18.776 Y31.620 Z-0.200
G1 X18.781 Y31.648 Z-0.200
G1 X18.791 Y31.676 Z-0.200
G1 X18.805 Y31.702 Z-0.200
G1 X18.824 Y31.727 Z-0.200
G1 X18.845 Y31.749 Z-0.200
G1 X18.870 Y31.767 Z-0.200
G1 X18.897 Y31.781 Z-0.200
G1 X18.924 Y31.791 Z-0.200
G1 X18.952 Y31.797 Z-0.200
G1 X18.979 Y31.799 Z-0.200
G0 X18.979 Y31.799
G0 Z5.080
G0 X18.979 Y29.259
G0 Z5.080
G1 X18.979 Y29.259 Z-0.200 F1000.0
G1 X22.479 Y29.259 Z-0.200 F3000.0
G1 X22.509 Y29.256 Z-0.200
G1 X22.539 Y29.249 Z-0.200
G1 X22.570 Y29.237 Z-0.200
G1 X22.598 Y29.220 Z-0.200
G1 X22.624 Y29.198 Z-0.200
G1 X22.646 Y29.173 Z-0.200
G1 X22.663 Y29.144 Z-0.200
G1 X22.675 Y29.114 Z-0.200
G1 X22.682 Y29.083 Z-0.200
G1 X22.684 Y29.053 Z-0.200
G1 X22.684 Y27.353 Z-0.200
G1 X22.682 Y27.324 Z-0.200
G1 X22.675 Y27.293 Z-0.200
G1 X22.663 Y27.263 Z-0.200
G1 X22.646 Y27.234 Z-0.200
G1 X22.624 Y27.208 Z-0.200
G1 X22.598 Y27.186 Z-0.200
G1 X22.570 Y27.169 Z-0.200
G1 X22.539 Y27.157 Z-0.200
G1 X22.509 Y27.150 Z-0.200
G1 X22.479 Y27.148 Z-0.200
G1 X18.979 Y27.148 Z-0.200
G1 X18.952 Y27.150 Z-0.200
G1 X18.924 Y27.155 Z-0.200
G1 X18.897 Y27.165 Z-0.200
G1 X18.870 Y27.179 Z-0.200
G1 X18.845 Y27.198 Z-0.200
G1 X18.824 Y27.219 Z-0.200
G1 X18.805 Y27.244 Z-0.200
G1 X18.791 Y27.271 Z-0.200
G1 X18.781 Y27.299 Z-0.200
G1 X18.776 Y27.326 Z-0.200
G1 X18.774 Y27.353 Z-0.200
G1 X18.774 Y29.053 Z-0.200
G1 X18.776 Y29.080 Z-0.200
G1 X18.781 Y29.108 Z-0.200
G1 X18.791 Y29.136 Z-0.200
G1 X18.805 Y29.162 Z-0.200
G1 X18.824 Y29.187 Z-0.200
G1 X18.845 Y29.209 Z-0.200
G1 X18.870 Y29.227 Z-0.200
G1 X18.897 Y29.241 Z-0.200
G1 X18.924 Y29.251 Z-0.200
G1 X18.952 Y29.257 Z-0.200
G1 X18.979 Y29.259 Z-0.200
G0 X18.979 Y29.259
G0 Z5.080
G0 X18.979 Y26.719
G0 Z5.080
G1 X18.979 Y26.719 Z-0.200 F1000.0
G1 X22.479 Y26.719 Z-0.200 F3000.0
G1 X22.509 Y26.716 Z-0.200
G1 X22.539 Y26.709 Z-0.200
G1 X22.570 Y26.697 Z-0.200
G1 X22.598 Y26.680 Z-0.200
G1 X22.624 Y26.658 Z-0.200
G1 X22.646 Y26.633 Z-0.200
G1 X22.663 Y26.604 Z-0.200
G1 X22.675 Y26.574 Z-0.200
G1 X22.682 Y26.543 Z-0.200
G1 X22.684 Y26.513 Z-0.200
G1 X22.684 Y24.813 Z-0.200
G1 X22.682 Y24.784 Z-0.200
G1 X22.675 Y24.753 Z-0.200
G1 X22.663 Y24.723 Z-0.200
G1 X22.646 Y24.694 Z-0.200
G1 X22.624 Y24.668 Z-0.200
G1 X22.598 Y24.646 Z-0.200
G1 X22.570 Y24.629 Z-0.200
G1 X22.539 Y24.617 Z-0.200
G1 X22.509 Y24.610 Z-0.200
G1 X22.479 Y24.608 Z-0.200
G1 X18.979 Y24.608 Z-0.200
G1 X18.952 Y24.610 Z-0.200
G1 X18.924 Y24.615 Z-0.200
G1 X18.897 Y24.625 Z-0.200
G1 X18.870 Y24.639 Z-0.200
G1 X18.845 Y24.658 Z-0.200
G1 X18.824 Y24.679 Z-0.200
G1 X18.805 Y24.704 Z-0.200
G1 X18.791 Y24.731 Z-0.200
G1 X18.781 Y24.759 Z-0.200
G1 X18.776 Y24.786 Z-0.200
G1 X18.774 Y24.813 Z-0.200
G1 X18.774 Y26.513 Z-0.200
G1 X18.776 Y26.540 Z-0.200
G1 X18.781 Y26.568 Z-0.200
G1 X18.791 Y26.596 Z-0.200
G1 X18.805 Y26.622 Z-0.200
G1 X18.824 Y26.647 Z-0.200
G1 X18.845 Y26.669 Z-0.200
G1 X18.870 Y26.687 Z-0.200
G1 X18.897 Y26.701 Z-0.200
G1 X18.924 Y26.711 Z-0.200
G1 X18.952 Y26.717 Z-0.200
G1 X18.979 Y26.719 Z-0.200
G0 X18.979 Y26.719
G0 Z5.080
G0 X18.979 Y24.179
G0 Z5.080
G1 X18.979 Y24.179 Z-0.200 F1000.0
G1 X22.479 Y24.179 Z-0.200 F3000.0
G1 X22.509 Y24.176 Z-0.200
G1 X22.539 Y24.169 Z-0.200
G1 X22.570 Y24.157 Z-0.200
G1 X22.598 Y24.140 Z-0.200
G1 X22.624 Y24.118 Z-0.200
G1 X22.646 Y24.093 Z-0.200
G1 X22.663 Y24.064 Z-0.200
G1 X22.675 Y24.034 Z-0.200
G1 X22.682 Y24.003 Z-0.200
G1 X22.684 Y23.973 Z-0.200
G1 X22.684 Y22.273 Z-0.200
G1 X22.682 Y22.244 Z-0.200
G1 X22.675 Y22.213 Z-0.200
G1 X22.663 Y22.183 Z-0.200
G1 X22.646 Y22.154 Z-0.200
G1 X22.624 Y22.128 Z-0.200
G1 X22.598 Y22.106 Z-0.200
G1 X22.570 Y22.089 Z-0.200
G1 X22.539 Y22.077 Z-0.200
G1 X22.509 Y22.070 Z-0.200
G1 X22.479 Y22.068 Z-0.200
G1 X18.979 Y22.068 Z-0.200
G1 X18.952 Y22.070 Z-0.200
G1 X18.924 Y22.075 Z-0.200
G1 X18.897 Y22.085 Z-0.200
G1 X18.870 Y22.099 Z-0.200
G1 X18.845 Y22.118 Z-0.200
G1 X18.824 Y22.139 Z-0.200
G1 X18.805 Y22.164 Z-0.200
G1 X18.791 Y22.191 Z-0.200
G1 X18.781 Y22.219 Z-0.200
G1 X18.776 Y22.246 Z-0.200
G1 X18.774 Y22.273 Z-0.200
G1 X18.774 Y23.973 Z-0.200
G1 X18.776 Y24.000 Z-0.200
G1 X18.781 Y24.028 Z-0.200
G1 X18.791 Y24.056 Z-0.200
G1 X18.805 Y24.082 Z-0.200
G1 X18.824 Y24.107 Z-0.200
G1 X18.845 Y24.129 Z-0.200
G1 X18.870 Y24.147 Z-0.200
G1 X18.897 Y24.161 Z-0.200
G1 X18.924 Y24.171 Z-0.200
G1 X18.952 Y24.177 Z-0.200
G1 X18.979 Y24.179 Z-0.200
G0 X18.979 Y24.179
G0 Z5.080
G0 X18.979 Y21.639
G0 Z5.080
G1 X18.979 Y21.639 Z-0.200 F1000.0
G1 X22.479 Y21.639 Z-0.200 F3000.0
G1 X22.509 Y21.636 Z-0.200
G1 X22.539 Y21.629 Z-0.200
G1 X22.570 Y21.617 Z-0.200
G1 X22.598 Y21.600 Z-0.200
G1 X22.624 Y21.578 Z-0.200
G1 X22.646 Y21.553 Z-0.200
G1 X22.663 Y21.524 Z-0.200
G1 X22.675 Y21.494 Z-0.200
G1 X22.682 Y21.463 Z-0.200
G1 X22.684 Y21.433 Z-0.200
G1 X22.684 Y19.733 Z-0.200
G1 X22.682 Y19.704 Z-0.200
G1 X22.675 Y19.673 Z-0.200
G1 X22.663 Y19.643 Z-0.200
G1 X22.646 Y19.614 Z-0.200
G1 X22.624 Y19.588 Z-0.200
G1 X22.598 Y19.566 Z-0.200
G1 X22.570 Y19.549 Z-0.200
G1 X22.539 Y19.537 Z-0.200
G1 X22.509 Y19.530 Z-0.200
G1 X22.479 Y19.528 Z-0.200
G1 X18.979 Y19.528 Z-0.200
G1 X18.952 Y19.530 Z-0.200
G1 X18.924 Y19.535 Z-0.200
G1 X18.897 Y19.545 Z-0.200
G1 X18.870 Y19.559 Z-0.200
G1 X18.845 Y19.578 Z-0.200
G1 X18.824 Y19.599 Z-0.200
G1 X18.805 Y19.624 Z-0.200
G1 X18.791 Y19.651 Z-0.200
G1 X18.781 Y19.679 Z-0.200
G1 X18.776 Y19.706 Z-0.200
G1 X18.774 Y19.733 Z-0.200
G1 X18.774 Y21.433 Z-0.200
G1 X18.776 Y21.460 Z-0.200
G1 X18.781 Y21.488 Z-0.200
G1 X18.791 Y21.516 Z-0.200
G1 X18.805 Y21.542 Z-0.200
G1 X18.824 Y21.567 Z-0.200
G1 X18.845 Y21.589 Z-0.200
G1 X18.870 Y21.607 Z-0.200
G1 X18.897 Y21.621 Z-0.200
G1 X18.924 Y21.631 Z-0.200
G1 X18.952 Y21.637 Z-0.200
G1 X18.979 Y21.639 Z-0.200
G0 X18.979 Y21.639
G0 Z5.080
G0 X18.979 Y19.099
G0 Z5.080
G1 X18.979 Y19.099 Z-0.200 F1000.0
G1 X22.479 Y19.099 Z-0.200 F3000.0
G1 X22.509 Y19.096 Z-0.200
G1 X22.539 Y19.089 Z-0.200
G1 X22.570 Y19.077 Z-0.200
G1 X22.598 Y19.060 Z-0.200
G1 X22.624 Y19.038 Z-0.200
G1 X22.646 Y19.013 Z-0.200
G1 X22.663 Y18.984 Z-0.200
G1 X22.675 Y18.954 Z-0.200
G1 X22.682 Y18.923 Z-0.200
G1 X22.684 Y18.893 Z-0.200
G1 X22.684 Y17.193 Z-0.200
G1 X22.682 Y17.164 Z-0.200
G1 X22.675 Y17.133 Z-0.200
G1 X22.663 Y17.103 Z-0.200
G1 X22.646 Y17.074 Z-0.200
G1 X22.624 Y17.048 Z-0.200
G1 X22.598 Y17.026 Z-0.200
G1 X22.570 Y17.009 Z-0.200
G1 X22.539 Y16.997 Z-0.200
G1 X22.509 Y16.990 Z-0.200
G1 X22.479 Y16.988 Z-0.200
G1 X18.979 Y16.988 Z-0.200
G1 X18.952 Y16.990 Z-0.200
G1 X18.924 Y16.995 Z-0.200
G1 X18.897 Y17.005 Z-0.200
G1 X18.870 Y17.019 Z-0.200
G1 X18.845 Y17.038 Z-0.200
G1 X18.824 Y17.059 Z-0.200
G1 X18.805 Y17.084 Z-0.200
G1 X18.791 Y17.111 Z-0.200
G1 X18.781 Y17.139 Z-0.200
G1 X18.776 Y17.166 Z-0.200
G1 X18.774 Y17.193 Z-0.200
G1 X18.774 Y18.893 Z-0.200
G1 X18.776 Y18.920 Z-0.200
G1 X18.781 Y18.948 Z-0.200
G1 X18.791 Y18.976 Z-0.200
G1 X18.805 Y19.002 Z-0.200
G1 X18.824 Y19.027 Z-0.200
G1 X18.845 Y19.049 Z-0.200
G1 X18.870 Y19.067 Z-0.200
G1 X18.897 Y19.081 Z-0.200
G1 X18.924 Y19.091 Z-0.200
G1 X18.952 Y19.097 Z-0.200
G1 X18.979 Y19.099 Z-0.200
G0 X18.979 Y19.099
G0 Z5.080
G0 X18.979 Y16.559
G0 Z5.080
G1 X18.979 Y16.559 Z-0.200 F1000.0
G1 X22.479 Y16.559 Z-0.200 F3000.0
G1 X22.509 Y16.556 Z-0.200
G1 X22.539 Y16.549 Z-0.200
G1 X22.570 Y16.537 Z-0.200
G1 X22.598 Y16.520 Z-0.200
G1 X22.624 Y16.498 Z-0.200
G1 X22.646 Y16.473 Z-0.200
G1 X22.663 Y16.444 Z-0.200
G1 X22.675 Y16.414 Z-0.200
G1 X22.682 Y16.383 Z-0.200
G1 X22.684 Y16.353 Z-0.200
G1 X22.684 Y14.653 Z-0.200
G1 X22.682 Y14.624 Z-0.200
G1 X22.675 Y14.593 Z-0.200
G1 X22.663 Y14.563 Z-0.200
G1 X22.646 Y14.534 Z-0.200
G1 X22.624 Y14.508 Z-0.200
G1 X22.598 Y14.486 Z-0.200
G1 X22.570 Y14.469 Z-0.200
G1 X22.539 Y14.457 Z-0.200
G1 X22.509 Y14.450 Z-0.200
G1 X22.479 Y14.448 Z-0.200
G1 X18.979 Y14.448 Z-0.200
G1 X18.952 Y14.450 Z-0.200
G1 X18.924 Y14.455 Z-0.200
G1 X18.897 Y14.465 Z-0.200
G1 X18.870 Y14.479 Z-0.200
G1 X18.845 Y14.498 Z-0.200
G1 X18.824 Y14.519 Z-0.200
G1 X18.805 Y14.544 Z-0.200
G1 X18.791 Y14.571 Z-0.200
G1 X18.781 Y14.599 Z-0.200
G1 X18.776 Y14.626 Z-0.200
G1 X18.774 Y14.653 Z-0.200
G1 X18.774 Y16.353 Z-0.200
G1 X18.776 Y16.380 Z-0.200
G1 X18.781 Y16.408 Z-0.200
G1 X18.791 Y16.436 Z-0.200
G1 X18.805 Y16.462 Z-0.200
G1 X18.824 Y16.487 Z-0.200
G1 X18.845 Y16.509 Z-0.200
G1 X18.870 Y16.527 Z-0.200
G1 X18.897 Y16.541 Z-0.200
G1 X18.924 Y16.551 Z-0.200
G1 X18.952 Y16.557 Z-0.200
G1 X18.979 Y16.559 Z-0.200
G0 X18.979 Y16.559
G0 Z5.080
G0 X18.725 Y16.978
G0 Z5.080
G1 X18.725 Y16.978 Z-0.200 F1000.0
G1 X18.725 Y13.719 Z-0.200 F3000.0
G1 X18.774 Y13.719 Z-0.200
G1 X18.774 Y13.813 Z-0.200
G1 X18.776 Y13.843 Z-0.200
G1 X18.783 Y13.874 Z-0.200
G1 X18.795 Y13.904 Z-0.200
G1 X18.812 Y13.933 Z-0.200
G1 X18.834 Y13.958 Z-0.200
G1 X18.860 Y13.980 Z-0.200
G1 X18.889 Y13.997 Z-0.200
G1 X18.919 Y14.009 Z-0.200
G1 X18.949 Y14.016 Z-0.200
G1 X18.979 Y14.019 Z-0.200
G1 X22.479 Y14.019 Z-0.200
G1 X22.509 Y14.016 Z-0.200
G1 X22.539 Y14.009 Z-0.200
G1 X22.570 Y13.997 Z-0.200
G1 X22.598 Y13.980 Z-0.200
G1 X22.624 Y13.958 Z-0.200
G1 X22.646 Y13.933 Z-0.200
G1 X22.663 Y13.904 Z-0.200
G1 X22.675 Y13.874 Z-0.200
G1 X22.682 Y13.843 Z-0.200
G1 X22.684 Y13.813 Z-0.200
G1 X22.684 Y12.113 Z-0.200
G1 X22.682 Y12.084 Z-0.200
G1 X22.675 Y12.053 Z-0.200
G1 X22.663 Y12.023 Z-0.200
G1 X22.646 Y11.994 Z-0.200
G1 X22.624 Y11.968 Z-0.200
G1 X22.598 Y11.946 Z-0.200
G1 X22.570 Y11.929 Z-0.200
G1 X22.539 Y11.917 Z-0.200
G1 X22.509 Y11.910 Z-0.200
G1 X22.479 Y11.908 Z-0.200
G1 X18.979 Y11.908 Z-0.200
G1 X18.949 Y11.910 Z-0.200
G1 X18.919 Y11.917 Z-0.200
G1 X18.889 Y11.929 Z-0.200
G1 X18.860 Y11.946 Z-0.200
G1 X18.834 Y11.968 Z-0.200
G1 X18.812 Y11.994 Z-0.200
G1 X18.795 Y12.023 Z-0.200
G1 X18.783 Y12.053 Z-0.200
G1 X18.776 Y12.084 Z-0.200
G1 X18.774 Y12.113 Z-0.200
G1 X18.774 Y12.308 Z-0.200
G1 X18.014 Y12.308 Z-0.200
G1 X17.950 Y12.311 Z-0.200
G1 X17.881 Y12.321 Z-0.200
G1 X17.814 Y12.338 Z-0.200
G1 X17.749 Y12.361 Z-0.200
G1 X17.686 Y12.391 Z-0.200
G1 X17.627 Y12.426 Z-0.200
G1 X17.571 Y12.468 Z-0.200
G1 X17.520 Y12.514 Z-0.200
G1 X17.474 Y12.566 Z-0.200
G1 X17.432 Y12.621 Z-0.200
G1 X17.397 Y12.681 Z-0.200
G1 X17.367 Y12.743 Z-0.200
G1 X17.344 Y12.808 Z-0.200
G1 X17.327 Y12.876 Z-0.200
G1 X17.317 Y12.944 Z-0.200
G1 X17.314 Y13.008 Z-0.200
G1 X17.314 Y16.681 Z-0.200
G1 X11.954 Y22.040 Z-0.200
G1 X11.899 Y22.038 Z-0.200
G1 X11.796 Y22.043 Z-0.200
G1 X11.693 Y22.058 Z-0.200
G1 X11.593 Y22.083 Z-0.200
G1 X11.495 Y22.118 Z-0.200
G1 X11.402 Y22.162 Z-0.200
G1 X11.313 Y22.216 Z-0.200
G1 X11.230 Y22.277 Z-0.200
G1 X11.153 Y22.347 Z-0.200
G1 X11.083 Y22.424 Z-0.200
G1 X11.022 Y22.507 Z-0.200
G1 X10.968 Y22.596 Z-0.200
G1 X10.924 Y22.689 Z-0.200
G1 X10.889 Y22.787 Z-0.200
G1 X10.864 Y22.887 Z-0.200
G1 X10.849 Y22.990 Z-0.200
G1 X10.844 Y23.093 Z-0.200
G1 X10.849 Y23.197 Z-0.200
G1 X10.864 Y23.299 Z-0.200
G1 X10.889 Y23.400 Z-0.200
G1 X10.924 Y23.497 Z-0.200
G1 X10.968 Y23.591 Z-0.200
G1 X11.022 Y23.680 Z-0.200
G1 X11.083 Y23.763 Z-0.200
G1 X11.153 Y23.840 Z-0.200
G1 X11.230 Y23.909 Z-0.200
G1 X11.313 Y23.971 Z-0.200
G1 X11.402 Y24.024 Z-0.200
G1 X11.495 Y24.068 Z-0.200
G1 X11.593 Y24.103 Z-0.200
G1 X11.693 Y24.128 Z-0.200
G1 X11.796 Y24.144 Z-0.200
G1 X11.899 Y24.149 Z-0.200
G1 X12.003 Y24.144 Z-0.200
G1 X12.105 Y24.128 Z-0.200
G1 X12.206 Y24.103 Z-0.200
G1 X12.303 Y24.068 Z-0.200
G1 X12.397 Y24.024 Z-0.200
G1 X12.486 Y23.971 Z-0.200
G1 X12.569 Y23.909 Z-0.200
G1 X12.646 Y23.840 Z-0.200
G1 X12.715 Y23.763 Z-0.200
G1 X12.777 Y23.680 Z-0.200
G1 X12.830 Y23.591 Z-0.200
G1 X12.874 Y23.497 Z-0.200
G1 X12.909 Y23.400 Z-0.200
G1 X12.934 Y23.299 Z-0.200
G1 X12.950 Y23.197 Z-0.200
G1 X12.955 Y23.093 Z-0.200
G1 X12.952 Y23.038 Z-0.200
G1 X18.522 Y17.469 Z-0.200
G1 X18.565 Y17.421 Z-0.200
G1 X18.606 Y17.365 Z-0.200
G1 X18.642 Y17.306 Z-0.200
G1 X18.671 Y17.243 Z-0.200
G1 X18.695 Y17.178 Z-0.200
G1 X18.711 Y17.111 Z-0.200
G1 X18.722 Y17.042 Z-0.200
G1 X18.725 Y16.978 Z-0.200
G0 X18.725 Y16.978
G0 Z5.080
G0 X17.142 Y16.266
G0 Z5.080
G1 X17.142 Y16.266 Z-0.200 F1000.0
G1 X17.171 Y16.203 Z-0.200 F3000.0
G1 X17.195 Y16.138 Z-0.200
G1 X17.211 Y16.071 Z-0.200
G1 X17.222 Y16.002 Z-0.200
G1 X17.225 Y15.938 Z-0.200
G1 X17.225 Y12.305 Z-0.200
G1 X18.401 Y11.129 Z-0.200
G1 X18.774 Y11.129 Z-0.200
G1 X18.774 Y11.273 Z-0.200
G1 X18.776 Y11.303 Z-0.200
G1 X18.783 Y11.334 Z-0.200
G1 X18.795 Y11.364 Z-0.200
G1 X18.812 Y11.393 Z-0.200
G1 X18.834 Y11.418 Z-0.200
G1 X18.860 Y11.440 Z-0.200
G1 X18.889 Y11.457 Z-0.200
G1 X18.919 Y11.469 Z-0.200
G1 X18.949 Y11.476 Z-0.200
G1 X18.979 Y11.479 Z-0.200
G1 X22.479 Y11.479 Z-0.200
G1 X22.509 Y11.476 Z-0.200
G1 X22.539 Y11.469 Z-0.200
G1 X22.570 Y11.457 Z-0.200
G1 X22.598 Y11.440 Z-0.200
G1 X22.624 Y11.418 Z-0.200
G1 X22.646 Y11.393 Z-0.200
G1 X22.663 Y11.364 Z-0.200
G1 X22.675 Y11.334 Z-0.200
G1 X22.682 Y11.303 Z-0.200
G1 X22.684 Y11.273 Z-0.200
G1 X22.684 Y9.573 Z-0.200
G1 X22.682 Y9.544 Z-0.200
G1 X22.675 Y9.513 Z-0.200
G1 X22.663 Y9.483 Z-0.200
G1 X22.646 Y9.454 Z-0.200
G1 X22.624 Y9.428 Z-0.200
G1 X22.598 Y9.406 Z-0.200
G1 X22.570 Y9.389 Z-0.200
G1 X22.539 Y9.377 Z-0.200
G1 X22.509 Y9.370 Z-0.200
G1 X22.479 Y9.368 Z-0.200
G1 X18.979 Y9.368 Z-0.200
G1 X18.949 Y9.370 Z-0.200
G1 X18.919 Y9.377 Z-0.200
G1 X18.889 Y9.389 Z-0.200
G1 X18.860 Y9.406 Z-0.200
G1 X18.834 Y9.428 Z-0.200
G1 X18.812 Y9.454 Z-0.200
G1 X18.795 Y9.483 Z-0.200
G1 X18.783 Y9.513 Z-0.200
G1 X18.776 Y9.544 Z-0.200
G1 X18.774 Y9.573 Z-0.200
G1 X18.774 Y9.718 Z-0.200
G1 X18.104 Y9.718 Z-0.200
G1 X18.040 Y9.721 Z-0.200
G1 X17.971 Y9.731 Z-0.200
G1 X17.904 Y9.748 Z-0.200
G1 X17.839 Y9.771 Z-0.200
G1 X17.776 Y9.801 Z-0.200
G1 X17.717 Y9.836 Z-0.200
G1 X17.661 Y9.878 Z-0.200
G1 X17.614 Y9.921 Z-0.200
G1 X16.017 Y11.518 Z-0.200
G1 X15.974 Y11.566 Z-0.200
G1 X15.932 Y11.621 Z-0.200
G1 X15.897 Y11.681 Z-0.200
G1 X15.867 Y11.743 Z-0.200
G1 X15.844 Y11.808 Z-0.200
G1 X15.827 Y11.876 Z-0.200
G1 X15.817 Y11.944 Z-0.200
G1 X15.814 Y12.008 Z-0.200
G1 X15.814 Y15.641 Z-0.200
G1 X11.954 Y19.500 Z-0.200
G1 X11.899 Y19.498 Z-0.200
G1 X11.796 Y19.503 Z-0.200
G1 X11.693 Y19.518 Z-0.200
G1 X11.593 Y19.543 Z-0.200
G1 X11.495 Y19.578 Z-0.200
G1 X11.402 Y19.622 Z-0.200
G1 X11.313 Y19.676 Z-0.200
G1 X11.230 Y19.737 Z-0.200
G1 X11.153 Y19.807 Z-0.200
G1 X11.116 Y19.848 Z-0.200
G1 X9.974 Y19.848 Z-0.200
G1 X9.910 Y19.851 Z-0.200
G1 X9.841 Y19.861 Z-0.200
G1 X9.774 Y19.878 Z-0.200
G1 X9.709 Y19.901 Z-0.200
G1 X9.646 Y19.931 Z-0.200
G1 X9.587 Y19.966 Z-0.200
G1 X9.531 Y20.008 Z-0.200
G1 X9.484 Y20.051 Z-0.200
G1 X7.897 Y21.638 Z-0.200
G1 X7.854 Y21.686 Z-0.200
G1 X7.812 Y21.741 Z-0.200
G1 X7.777 Y21.801 Z-0.200
G1 X7.747 Y21.863 Z-0.200
G1 X7.724 Y21.928 Z-0.200
G1 X7.707 Y21.996 Z-0.200
G1 X7.697 Y22.064 Z-0.200
G1 X7.694 Y22.128 Z-0.200
G1 X7.694 Y28.138 Z-0.200
G1 X7.697 Y28.202 Z-0.200
G1 X7.707 Y28.271 Z-0.200
G1 X7.724 Y28.338 Z-0.200
G1 X7.747 Y28.403 Z-0.200
G1 X7.777 Y28.466 Z-0.200
G1 X7.812 Y28.525 Z-0.200
G1 X7.854 Y28.581 Z-0.200
G1 X7.897 Y28.629 Z-0.200
G1 X9.404 Y30.136 Z-0.200
G1 X9.451 Y30.179 Z-0.200
G1 X9.507 Y30.220 Z-0.200
G1 X9.566 Y30.256 Z-0.200
G1 X9.629 Y30.285 Z-0.200
G1 X9.694 Y30.309 Z-0.200
G1 X9.761 Y30.325 Z-0.200
G1 X9.830 Y30.336 Z-0.200
G1 X9.894 Y30.339 Z-0.200
G1 X14.107 Y30.339 Z-0.200
G1 X14.694 Y30.925 Z-0.200
G1 X14.694 Y41.841 Z-0.200
G1 X13.727 Y42.808 Z-0.200
G1 X12.683 Y42.808 Z-0.200
G1 X12.646 Y42.767 Z-0.200
G1 X12.569 Y42.697 Z-0.200
G1 X12.486 Y42.636 Z-0.200
G1 X12.397 Y42.582 Z-0.200
G1 X12.303 Y42.538 Z-0.200
G1 X12.206 Y42.503 Z-0.200
G1 X12.105 Y42.478 Z-0.200
G1 X12.003 Y42.463 Z-0.200
G1 X11.899 Y42.458 Z-0.200
G1 X11.796 Y42.463 Z-0.200
G1 X11.693 Y42.478 Z-0.200
G1 X11.593 Y42.503 Z-0.200
G1 X11.495 Y42.538 Z-0.200
G1 X11.402 Y42.582 Z-0.200
G1 X11.313 Y42.636 Z-0.200
G1 X11.230 Y42.697 Z-0.200
G1 X11.153 Y42.767 Z-0.200
G1 X11.083 Y42.844 Z-0.200
G1 X11.022 Y42.927 Z-0.200
G1 X10.968 Y43.016 Z-0.200
G1 X10.924 Y43.109 Z-0.200
G1 X10.889 Y43.207 Z-0.200
G1 X10.864 Y43.307 Z-0.200
G1 X10.849 Y43.410 Z-0.200
G1 X10.844 Y43.513 Z-0.200
G1 X10.849 Y43.617 Z-0.200
G1 X10.864 Y43.719 Z-0.200
G1 X10.889 Y43.820 Z-0.200
G1 X10.924 Y43.917 Z-0.200
G1 X10.968 Y44.011 Z-0.200
G1 X11.022 Y44.100 Z-0.200
G1 X11.083 Y44.183 Z-0.200
G1 X11.153 Y44.260 Z-0.200
G1 X11.230 Y44.329 Z-0.200
G1 X11.313 Y44.391 Z-0.200
G1 X11.402 Y44.444 Z-0.200
G1 X11.495 Y44.488 Z-0.200
G1 X11.593 Y44.523 Z-0.200
G1 X11.693 Y44.548 Z-0.200
G1 X11.796 Y44.564 Z-0.200
G1 X11.899 Y44.569 Z-0.200
G1 X12.003 Y44.564 Z-0.200
G1 X12.105 Y44.548 Z-0.200
G1 X12.206 Y44.523 Z-0.200
G1 X12.303 Y44.488 Z-0.200
G1 X12.397 Y44.444 Z-0.200
G1 X12.486 Y44.391 Z-0.200
G1 X12.569 Y44.329 Z-0.200
G1 X12.646 Y44.260 Z-0.200
G1 X12.683 Y44.219 Z-0.200
G1 X14.024 Y44.219 Z-0.200
G1 X14.088 Y44.216 Z-0.200
G1 X14.157 Y44.205 Z-0.200
G1 X14.224 Y44.189 Z-0.200
G1 X14.289 Y44.165 Z-0.200
G1 X14.352 Y44.136 Z-0.200
G1 X14.411 Y44.100 Z-0.200
G1 X14.467 Y44.059 Z-0.200
G1 X14.514 Y44.016 Z-0.200
G1 X15.902 Y42.629 Z-0.200
G1 X15.945 Y42.581 Z-0.200
G1 X15.986 Y42.525 Z-0.200
G1 X16.022 Y42.466 Z-0.200
G1 X16.051 Y42.403 Z-0.200
G1 X16.075 Y42.338 Z-0.200
G1 X16.091 Y42.271 Z-0.200
G1 X16.102 Y42.202 Z-0.200
G1 X16.105 Y42.138 Z-0.200
G1 X16.105 Y30.628 Z-0.200
G1 X16.102 Y30.564 Z-0.200
G1 X16.091 Y30.496 Z-0.200
G1 X16.075 Y30.428 Z-0.200
G1 X16.051 Y30.363 Z-0.200
G1 X16.022 Y30.301 Z-0.200
G1 X15.986 Y30.241 Z-0.200
G1 X15.945 Y30.186 Z-0.200
G1 X15.902 Y30.138 Z-0.200
G1 X14.894 Y29.131 Z-0.200
G1 X14.847 Y29.088 Z-0.200
G1 X14.791 Y29.046 Z-0.200
G1 X14.732 Y29.011 Z-0.200
G1 X14.669 Y28.981 Z-0.200
G1 X14.604 Y28.958 Z-0.200
G1 X14.537 Y28.941 Z-0.200
G1 X14.468 Y28.931 Z-0.200
G1 X14.404 Y28.928 Z-0.200
G1 X10.191 Y28.928 Z-0.200
G1 X9.105 Y27.841 Z-0.200
G1 X9.105 Y22.425 Z-0.200
G1 X10.271 Y21.259 Z-0.200
G1 X11.116 Y21.259 Z-0.200
G1 X11.153 Y21.300 Z-0.200
G1 X11.230 Y21.369 Z-0.200
G1 X11.313 Y21.431 Z-0.200
G1 X11.402 Y21.484 Z-0.200
G1 X11.495 Y21.528 Z-0.200
G1 X11.593 Y21.563 Z-0.200
G1 X11.693 Y21.588 Z-0.200
G1 X11.796 Y21.604 Z-0.200
G1 X11.899 Y21.609 Z-0.200
G1 X12.003 Y21.604 Z-0.200
G1 X12.105 Y21.588 Z-0.200
G1 X12.206 Y21.563 Z-0.200
G1 X12.303 Y21.528 Z-0.200
G1 X12.397 Y21.484 Z-0.200
G1 X12.486 Y21.431 Z-0.200
G1 X12.569 Y21.369 Z-0.200
G1 X12.646 Y21.300 Z-0.200
G1 X12.715 Y21.223 Z-0.200
G1 X12.777 Y21.140 Z-0.200
G1 X12.830 Y21.051 Z-0.200
G1 X12.874 Y20.957 Z-0.200
G1 X12.909 Y20.860 Z-0.200
G1 X12.934 Y20.759 Z-0.200
G1 X12.950 Y20.657 Z-0.200
G1 X12.955 Y20.553 Z-0.200
G1 X12.952 Y20.498 Z-0.200
G1 X17.022 Y16.429 Z-0.200
G1 X17.065 Y16.381 Z-0.200
G1 X17.106 Y16.325 Z-0.200
G1 X17.142 Y16.266 Z-0.200
G0 X17.142 Y16.266
G0 Z5.080
G0 X15.195 Y15.598
G0 Z5.080
G1 X15.195 Y15.598 Z-0.200 F1000.0
G1 X15.211 Y15.531 Z-0.200 F3000.0
G1 X15.222 Y15.462 Z-0.200
G1 X15.225 Y15.398 Z-0.200
G1 X15.225 Y11.805 Z-0.200
G1 X18.441 Y8.589 Z-0.200
G1 X18.774 Y8.589 Z-0.200
G1 X18.774 Y8.733 Z-0.200
G1 X18.776 Y8.763 Z-0.200
G1 X18.783 Y8.794 Z-0.200
G1 X18.795 Y8.824 Z-0.200
G1 X18.812 Y8.853 Z-0.200
G1 X18.834 Y8.878 Z-0.200
G1 X18.860 Y8.900 Z-0.200
G1 X18.889 Y8.917 Z-0.200
G1 X18.919 Y8.929 Z-0.200
G1 X18.949 Y8.936 Z-0.200
G1 X18.979 Y8.939 Z-0.200
G1 X22.479 Y8.939 Z-0.200
G1 X22.509 Y8.936 Z-0.200
G1 X22.539 Y8.929 Z-0.200
G1 X22.570 Y8.917 Z-0.200
G1 X22.598 Y8.900 Z-0.200
G1 X22.624 Y8.878 Z-0.200
G1 X22.646 Y8.853 Z-0.200
G1 X22.663 Y8.824 Z-0.200
G1 X22.675 Y8.794 Z-0.200
G1 X22.682 Y8.763 Z-0.200
G1 X22.684 Y8.733 Z-0.200
G1 X22.684 Y7.033 Z-0.200
G1 X22.682 Y7.004 Z-0.200
G1 X22.675 Y6.973 Z-0.200
G1 X22.663 Y6.943 Z-0.200
G1 X22.646 Y6.914 Z-0.200
G1 X22.624 Y6.888 Z-0.200
G1 X22.598 Y6.866 Z-0.200
G1 X22.570 Y6.849 Z-0.200
G1 X22.539 Y6.837 Z-0.200
G1 X22.509 Y6.830 Z-0.200
G1 X22.479 Y6.828 Z-0.200
G1 X18.979 Y6.828 Z-0.200
G1 X18.949 Y6.830 Z-0.200
G1 X18.919 Y6.837 Z-0.200
G1 X18.889 Y6.849 Z-0.200
G1 X18.860 Y6.866 Z-0.200
G1 X18.834 Y6.888 Z-0.200
G1 X18.812 Y6.914 Z-0.200
G1 X18.795 Y6.943 Z-0.200
G1 X18.783 Y6.973 Z-0.200
G1 X18.776 Y7.004 Z-0.200
G1 X18.774 Y7.033 Z-0.200
G1 X18.774 Y7.178 Z-0.200
G1 X18.144 Y7.178 Z-0.200
G1 X18.080 Y7.181 Z-0.200
G1 X18.011 Y7.191 Z-0.200
G1 X17.944 Y7.208 Z-0.200
G1 X17.879 Y7.231 Z-0.200
G1 X17.816 Y7.261 Z-0.200
G1 X17.757 Y7.296 Z-0.200
G1 X17.701 Y7.338 Z-0.200
G1 X17.654 Y7.381 Z-0.200
G1 X14.017 Y11.018 Z-0.200
G1 X13.974 Y11.066 Z-0.200
G1 X13.932 Y11.121 Z-0.200
G1 X13.897 Y11.181 Z-0.200
G1 X13.867 Y11.243 Z-0.200
G1 X13.844 Y11.308 Z-0.200
G1 X13.827 Y11.376 Z-0.200
G1 X13.817 Y11.444 Z-0.200
G1 X13.814 Y11.508 Z-0.200
G1 X13.814 Y15.101 Z-0.200
G1 X11.954 Y16.960 Z-0.200
G1 X11.899 Y16.958 Z-0.200
G1 X11.796 Y16.963 Z-0.200
G1 X11.693 Y16.978 Z-0.200
G1 X11.593 Y17.003 Z-0.200
G1 X11.495 Y17.038 Z-0.200
G1 X11.402 Y17.082 Z-0.200
G1 X11.313 Y17.136 Z-0.200
G1 X11.230 Y17.197 Z-0.200
G1 X11.153 Y17.267 Z-0.200
G1 X11.116 Y17.308 Z-0.200
G1 X10.014 Y17.308 Z-0.200
G1 X9.950 Y17.311 Z-0.200
G1 X9.881 Y17.321 Z-0.200
G1 X9.814 Y17.338 Z-0.200
G1 X9.749 Y17.361 Z-0.200
G1 X9.686 Y17.391 Z-0.200
G1 X9.627 Y17.426 Z-0.200
G1 X9.571 Y17.468 Z-0.200
G1 X9.524 Y17.511 Z-0.200
G1 X5.897 Y21.138 Z-0.200
G1 X5.854 Y21.186 Z-0.200
G1 X5.812 Y21.241 Z-0.200
G1 X5.777 Y21.301 Z-0.200
G1 X5.747 Y21.363 Z-0.200
G1 X5.724 Y21.428 Z-0.200
G1 X5.707 Y21.496 Z-0.200
G1 X5.697 Y21.564 Z-0.200
G1 X5.694 Y21.628 Z-0.200
G1 X5.694 Y29.138 Z-0.200
G1 X5.697 Y29.202 Z-0.200
G1 X5.707 Y29.271 Z-0.200
G1 X5.724 Y29.338 Z-0.200
G1 X5.747 Y29.403 Z-0.200
G1 X5.777 Y29.466 Z-0.200
G1 X5.812 Y29.525 Z-0.200
G1 X5.854 Y29.581 Z-0.200
G1 X5.897 Y29.629 Z-0.200
G1 X8.194 Y31.925 Z-0.200
G1 X8.194 Y39.638 Z-0.200
G1 X8.197 Y39.702 Z-0.200
G1 X8.207 Y39.771 Z-0.200
G1 X8.224 Y39.838 Z-0.200
G1 X8.247 Y39.903 Z-0.200
G1 X8.277 Y39.966 Z-0.200
G1 X8.312 Y40.025 Z-0.200
G1 X8.354 Y40.081 Z-0.200
G1 X8.397 Y40.129 Z-0.200
G1 X9.744 Y41.476 Z-0.200
G1 X9.791 Y41.519 Z-0.200
G1 X9.847 Y41.560 Z-0.200
G1 X9.906 Y41.596 Z-0.200
G1 X9.969 Y41.625 Z-0.200
G1 X10.034 Y41.649 Z-0.200
G1 X10.101 Y41.665 Z-0.200
G1 X10.170 Y41.676 Z-0.200
G1 X10.234 Y41.679 Z-0.200
G1 X11.116 Y41.679 Z-0.200
G1 X11.153 Y41.720 Z-0.200
G1 X11.230 Y41.789 Z-0.200
G1 X11.313 Y41.851 Z-0.200
G1 X11.402 Y41.904 Z-0.200
G1 X11.495 Y41.948 Z-0.200
G1 X11.593 Y41.983 Z-0.200
G1 X11.693 Y42.008 Z-0.200
G1 X11.796 Y42.024 Z-0.200
G1 X11.899 Y42.029 Z-0.200
G1 X12.003 Y42.024 Z-0.200
G1 X12.105 Y42.008 Z-0.200
G1 X12.206 Y41.983 Z-0.200
G1 X12.303 Y41.948 Z-0.200
G1 X12.397 Y41.904 Z-0.200
G1 X12.486 Y41.851 Z-0.200
G1 X12.569 Y41.789 Z-0.200
G1 X12.646 Y41.720 Z-0.200
G1 X12.715 Y41.643 Z-0.200
G1 X12.777 Y41.560 Z-0.200
G1 X12.830 Y41.471 Z-0.200
G1 X12.874 Y41.377 Z-0.200
G1 X12.909 Y41.280 Z-0.200
G1 X12.934 Y41.179 Z-0.200
G1 X12.950 Y41.077 Z-0.200
G1 X12.955 Y40.973 Z-0.200
G1 X12.950 Y40.870 Z-0.200
G1 X12.934 Y40.767 Z-0.200
G1 X12.909 Y40.667 Z-0.200
G1 X12.874 Y40.569 Z-0.200
G1 X12.830 Y40.476 Z-0.200
G1 X12.777 Y40.387 Z-0.200
G1 X12.715 Y40.304 Z-0.200
G1 X12.646 Y40.227 Z-0.200
G1 X12.569 Y40.157 Z-0.200
G1 X12.486 Y40.096 Z-0.200
G1 X12.397 Y40.042 Z-0.200
G1 X12.303 Y39.998 Z-0.200
G1 X12.206 Y39.963 Z-0.200
G1 X12.105 Y39.938 Z-0.200
G1 X12.003 Y39.923 Z-0.200
G1 X11.899 Y39.918 Z-0.200
G1 X11.796 Y39.923 Z-0.200
G1 X11.693 Y39.938 Z-0.200
G1 X11.593 Y39.963 Z-0.200
G1 X11.495 Y39.998 Z-0.200
G1 X11.402 Y40.042 Z-0.200
G1 X11.313 Y40.096 Z-0.200
G1 X11.230 Y40.157 Z-0.200
G1 X11.153 Y40.227 Z-0.200
G1 X11.116 Y40.268 Z-0.200
G1 X10.531 Y40.268 Z-0.200
G1 X9.605 Y39.341 Z-0.200
G1 X9.605 Y31.628 Z-0.200
G1 X9.602 Y31.564 Z-0.200
G1 X9.591 Y31.496 Z-0.200
G1 X9.575 Y31.428 Z-0.200
G1 X9.551 Y31.363 Z-0.200
G1 X9.522 Y31.301 Z-0.200
G1 X9.486 Y31.241 Z-0.200
G1 X9.445 Y31.186 Z-0.200
G1 X9.402 Y31.138 Z-0.200
G1 X7.105 Y28.841 Z-0.200
G1 X7.105 Y21.925 Z-0.200
G1 X10.311 Y18.719 Z-0.200
G1 X11.116 Y18.719 Z-0.200
G1 X11.153 Y18.760 Z-0.200
G1 X11.230 Y18.829 Z-0.200
G1 X11.313 Y18.891 Z-0.200
G1 X11.402 Y18.944 Z-0.200
G1 X11.495 Y18.988 Z-0.200
G1 X11.593 Y19.023 Z-0.200
G1 X11.693 Y19.048 Z-0.200
G1 X11.796 Y19.064 Z-0.200
G1 X11.899 Y19.069 Z-0.200
G1 X12.003 Y19.064 Z-0.200
G1 X12.105 Y19.048 Z-0.200
G1 X12.206 Y19.023 Z-0.200
G1 X12.303 Y18.988 Z-0.200
G1 X12.397 Y18.944 Z-0.200
G1 X12.486 Y18.891 Z-0.200
G1 X12.569 Y18.829 Z-0.200
G1 X12.646 Y18.760 Z-0.200
G1 X12.715 Y18.683 Z-0.200
G1 X12.777 Y18.600 Z-0.200
G1 X12.830 Y18.511 Z-0.200
G1 X12.874 Y18.417 Z-0.200
G1 X12.909 Y18.320 Z-0.200
G1 X12.934 Y18.219 Z-0.200
G1 X12.950 Y18.117 Z-0.200
G1 X12.955 Y18.013 Z-0.200
G1 X12.952 Y17.958 Z-0.200
G1 X15.022 Y15.889 Z-0.200
G1 X15.065 Y15.841 Z-0.200
G1 X15.106 Y15.785 Z-0.200
G1 X15.142 Y15.726 Z-0.200
G1 X15.171 Y15.663 Z-0.200
G1 X15.195 Y15.598 Z-0.200
G0 X15.195 Y15.598
G0 Z5.080
G0 X38.354 Y8.733
G0 Z5.080
G1 X38.354 Y8.733 Z-0.200 F1000.0
G1 X38.356 Y8.760 Z-0.200 F3000.0
G1 X38.361 Y8.788 Z-0.200
G1 X38.371 Y8.816 Z-0.200
G1 X38.385 Y8.842 Z-0.200
G1 X38.404 Y8.867 Z-0.200
G1 X38.425 Y8.889 Z-0.200
G1 X38.450 Y8.907 Z-0.200
G1 X38.477 Y8.921 Z-0.200
G1 X38.504 Y8.931 Z-0.200
G1 X38.532 Y8.937 Z-0.200
G1 X38.559 Y8.939 Z-0.200
G1 X42.059 Y8.939 Z-0.200
G1 X42.089 Y8.936 Z-0.200
G1 X42.119 Y8.929 Z-0.200
G1 X42.150 Y8.917 Z-0.200
G1 X42.178 Y8.900 Z-0.200
G1 X42.204 Y8.878 Z-0.200
G1 X42.226 Y8.853 Z-0.200
G1 X42.243 Y8.824 Z-0.200
G1 X42.255 Y8.794 Z-0.200
G1 X42.262 Y8.763 Z-0.200
G1 X42.264 Y8.733 Z-0.200
G1 X42.264 Y7.033 Z-0.200
G1 X42.262 Y7.004 Z-0.200
G1 X42.255 Y6.973 Z-0.200
G1 X42.243 Y6.943 Z-0.200
G1 X42.226 Y6.914 Z-0.200
G1 X42.204 Y6.888 Z-0.200
G1 X42.178 Y6.866 Z-0.200
G1 X42.150 Y6.849 Z-0.200
G1 X42.119 Y6.837 Z-0.200
G1 X42.089 Y6.830 Z-0.200
G1 X42.059 Y6.828 Z-0.200
G1 X38.559 Y6.828 Z-0.200
G1 X38.532 Y6.830 Z-0.200
G1 X38.504 Y6.835 Z-0.200
G1 X38.477 Y6.845 Z-0.200
G1 X38.450 Y6.859 Z-0.200
G1 X38.425 Y6.878 Z-0.200
G1 X38.404 Y6.899 Z-0.200
G1 X38.385 Y6.924 Z-0.200
G1 X38.371 Y6.951 Z-0.200
G1 X38.361 Y6.979 Z-0.200
G1 X38.356 Y7.006 Z-0.200
G1 X38.354 Y7.033 Z-0.200
G1 X38.354 Y8.733 Z-0.200
G0 X38.354 Y8.733
G0 Z5.080
G0 X38.559 Y9.368
G0 Z5.080
G1 X38.559 Y9.368 Z-0.200 F1000.0
G1 X38.532 Y9.370 Z-0.200 F3000.0
G1 X38.504 Y9.375 Z-0.200
G1 X38.477 Y9.385 Z-0.200
G1 X38.450 Y9.399 Z-0.200
G1 X38.425 Y9.418 Z-0.200
G1 X38.404 Y9.439 Z-0.200
G1 X38.385 Y9.464 Z-0.200
G1 X38.371 Y9.491 Z-0.200
G1 X38.361 Y9.519 Z-0.200
G1 X38.356 Y9.546 Z-0.200
G1 X38.354 Y9.573 Z-0.200
G1 X38.354 Y11.273 Z-0.200
G1 X38.356 Y11.300 Z-0.200
G1 X38.361 Y11.328 Z-0.200
G1 X38.371 Y11.356 Z-0.200
G1 X38.385 Y11.382 Z-0.200
G1 X38.404 Y11.407 Z-0.200
G1 X38.425 Y11.429 Z-0.200
G1 X38.450 Y11.447 Z-0.200
G1 X38.477 Y11.461 Z-0.200
G1 X38.504 Y11.471 Z-0.200
G1 X38.532 Y11.477 Z-0.200
G1 X38.559 Y11.479 Z-0.200
G1 X42.059 Y11.479 Z-0.200
G1 X42.089 Y11.476 Z-0.200
G1 X42.119 Y11.469 Z-0.200
G1 X42.150 Y11.457 Z-0.200
G1 X42.178 Y11.440 Z-0.200
G1 X42.204 Y11.418 Z-0.200
G1 X42.226 Y11.393 Z-0.200
G1 X42.243 Y11.364 Z-0.200
G1 X42.255 Y11.334 Z-0.200
G1 X42.262 Y11.303 Z-0.200
G1 X42.264 Y11.273 Z-0.200
G1 X42.264 Y9.573 Z-0.200
G1 X42.262 Y9.544 Z-0.200
G1 X42.255 Y9.513 Z-0.200
G1 X42.243 Y9.483 Z-0.200
G1 X42.226 Y9.454 Z-0.200
G1 X42.204 Y9.428 Z-0.200
G1 X42.178 Y9.406 Z-0.200
G1 X42.150 Y9.389 Z-0.200
G1 X42.119 Y9.377 Z-0.200
G1 X42.089 Y9.370 Z-0.200
G1 X42.059 Y9.368 Z-0.200
G1 X38.559 Y9.368 Z-0.200
G0 X38.559 Y9.368
G0 Z5.080
G0 X38.559 Y11.908
G0 Z5.080
G1 X38.559 Y11.908 Z-0.200 F1000.0
G1 X38.532 Y11.910 Z-0.200 F3000.0
G1 X38.504 Y11.915 Z-0.200
G1 X38.477 Y11.925 Z-0.200
G1 X38.450 Y11.939 Z-0.200
G1 X38.425 Y11.958 Z-0.200
G1 X38.404 Y11.979 Z-0.200
G1 X38.385 Y12.004 Z-0.200
G1 X38.371 Y12.031 Z-0.200
G1 X38.361 Y12.059 Z-0.200
G1 X38.356 Y12.086 Z-0.200
G1 X38.354 Y12.113 Z-0.200
G1 X38.354 Y13.813 Z-0.200
G1 X38.356 Y13.840 Z-0.200
G1 X38.361 Y13.868 Z-0.200
G1 X38.371 Y13.896 Z-0.200
G1 X38.385 Y13.922 Z-0.200
G1 X38.404 Y13.947 Z-0.200
G1 X38.425 Y13.969 Z-0.200
G1 X38.450 Y13.987 Z-0.200
G1 X38.477 Y14.001 Z-0.200
G1 X38.504 Y14.011 Z-0.200
G1 X38.532 Y14.017 Z-0.200
G1 X38.559 Y14.019 Z-0.200
G1 X42.059 Y14.019 Z-0.200
G1 X42.089 Y14.016 Z-0.200
G1 X42.119 Y14.009 Z-0.200
G1 X42.150 Y13.997 Z-0.200
G1 X42.178 Y13.980 Z-0.200
G1 X42.204 Y13.958 Z-0.200
G1 X42.226 Y13.933 Z-0.200
G1 X42.243 Y13.904 Z-0.200
G1 X42.255 Y13.874 Z-0.200
G1 X42.262 Y13.843 Z-0.200
G1 X42.264 Y13.813 Z-0.200
G1 X42.264 Y12.113 Z-0.200
G1 X42.262 Y12.084 Z-0.200
G1 X42.255 Y12.053 Z-0.200
G1 X42.243 Y12.023 Z-0.200
G1 X42.226 Y11.994 Z-0.200
G1 X42.204 Y11.968 Z-0.200
G1 X42.178 Y11.946 Z-0.200
G1 X42.150 Y11.929 Z-0.200
G1 X42.119 Y11.917 Z-0.200
G1 X42.089 Y11.910 Z-0.200
G1 X42.059 Y11.908 Z-0.200
G1 X38.559 Y11.908 Z-0.200
G0 X38.559 Y11.908
G0 Z5.080
G0 X51.824 Y6.776
G0 Z5.080
G1 X51.824 Y6.776 Z-0.200 F1000.0
G1 X51.824 Y6.250 Z-0.200 F3000.0
G1 X52.087 Y6.513 Z-0.200
G1 X51.824 Y6.776 Z-0.200
G0 X51.824 Y6.776
G0 Z5.080
G0 X52.214 Y7.250
G0 Z5.080
G1 X52.214 Y7.250 Z-0.200 F1000.0
G1 X52.214 Y7.518 Z-0.200 F3000.0
G1 X52.215 Y7.543 Z-0.200
G1 X52.219 Y7.573 Z-0.200
G1 X52.227 Y7.602 Z-0.200
G1 X52.237 Y7.630 Z-0.200
G1 X52.250 Y7.657 Z-0.200
G1 X52.265 Y7.683 Z-0.200
G1 X52.283 Y7.707 Z-0.200
G1 X52.303 Y7.729 Z-0.200
G1 X52.325 Y7.749 Z-0.200
G1 X52.349 Y7.767 Z-0.200
G1 X52.375 Y7.783 Z-0.200
G1 X52.402 Y7.796 Z-0.200
G1 X52.430 Y7.806 Z-0.200
G1 X52.460 Y7.813 Z-0.200
G1 X52.489 Y7.817 Z-0.200
G1 X52.519 Y7.819 Z-0.200
G1 X52.549 Y7.817 Z-0.200
G1 X52.579 Y7.813 Z-0.200
G1 X52.608 Y7.806 Z-0.200
G1 X52.636 Y7.796 Z-0.200
G1 X52.663 Y7.783 Z-0.200
G1 X52.689 Y7.767 Z-0.200
G1 X52.713 Y7.749 Z-0.200
G1 X52.735 Y7.729 Z-0.200
G1 X52.755 Y7.707 Z-0.200
G1 X52.773 Y7.683 Z-0.200
G1 X52.789 Y7.657 Z-0.200
G1 X52.801 Y7.630 Z-0.200
G1 X52.812 Y7.602 Z-0.200
G1 X52.819 Y7.573 Z-0.200
G1 X52.823 Y7.543 Z-0.200
G1 X52.824 Y7.518 Z-0.200
G1 X52.824 Y5.508 Z-0.200
G1 X52.823 Y5.483 Z-0.200
G1 X52.819 Y5.454 Z-0.200
G1 X52.812 Y5.425 Z-0.200
G1 X52.801 Y5.396 Z-0.200
G1 X52.789 Y5.369 Z-0.200
G1 X52.773 Y5.343 Z-0.200
G1 X52.755 Y5.319 Z-0.200
G1 X52.735 Y5.297 Z-0.200
G1 X52.713 Y5.277 Z-0.200
G1 X52.689 Y5.259 Z-0.200
G1 X52.663 Y5.244 Z-0.200
G1 X52.636 Y5.231 Z-0.200
G1 X52.608 Y5.221 Z-0.200
G1 X52.579 Y5.214 Z-0.200
G1 X52.549 Y5.209 Z-0.200
G1 X52.519 Y5.208 Z-0.200
G1 X52.489 Y5.209 Z-0.200
G1 X52.460 Y5.214 Z-0.200
G1 X52.430 Y5.221 Z-0.200
G1 X52.402 Y5.231 Z-0.200
G1 X52.375 Y5.244 Z-0.200
G1 X52.349 Y5.259 Z-0.200
G1 X52.325 Y5.277 Z-0.200
G1 X52.303 Y5.297 Z-0.200
G1 X52.283 Y5.319 Z-0.200
G1 X52.265 Y5.343 Z-0.200
G1 X52.250 Y5.369 Z-0.200
G1 X52.237 Y5.396 Z-0.200
G1 X52.227 Y5.425 Z-0.200
G1 X52.219 Y5.454 Z-0.200
G1 X52.215 Y5.483 Z-0.200
G1 X52.214 Y5.508 Z-0.200
G1 X52.214 Y5.776 Z-0.200
G1 X51.731 Y5.294 Z-0.200
G1 X51.713 Y5.277 Z-0.200
G1 X51.689 Y5.259 Z-0.200
G1 X51.663 Y5.244 Z-0.200
G1 X51.636 Y5.231 Z-0.200
G1 X51.608 Y5.221 Z-0.200
G1 X51.579 Y5.214 Z-0.200
G1 X51.549 Y5.209 Z-0.200
G1 X51.519 Y5.208 Z-0.200
G1 X51.489 Y5.209 Z-0.200
G1 X51.460 Y5.214 Z-0.200
G1 X51.430 Y5.221 Z-0.200
G1 X51.402 Y5.231 Z-0.200
G1 X51.375 Y5.244 Z-0.200
G1 X51.349 Y5.259 Z-0.200
G1 X51.325 Y5.277 Z-0.200
G1 X51.303 Y5.297 Z-0.200
G1 X51.283 Y5.319 Z-0.200
G1 X51.265 Y5.343 Z-0.200
G1 X51.250 Y5.369 Z-0.200
G1 X51.237 Y5.396 Z-0.200
G1 X51.227 Y5.425 Z-0.200
G1 X51.219 Y5.454 Z-0.200
G1 X51.215 Y5.483 Z-0.200
G1 X51.214 Y5.508 Z-0.200
G1 X51.214 Y5.776 Z-0.200
G1 X50.731 Y5.294 Z-0.200
G1 X50.713 Y5.277 Z-0.200
G1 X50.689 Y5.259 Z-0.200
G1 X50.663 Y5.244 Z-0.200
G1 X50.636 Y5.231 Z-0.200
G1 X50.608 Y5.221 Z-0.200
G1 X50.579 Y5.214 Z-0.200
G1 X50.549 Y5.209 Z-0.200
G1 X50.519 Y5.208 Z-0.200
G1 X50.489 Y5.209 Z-0.200
G1 X50.460 Y5.214 Z-0.200
G1 X50.430 Y5.221 Z-0.200
G1 X50.402 Y5.231 Z-0.200
G1 X50.375 Y5.244 Z-0.200
G1 X50.349 Y5.259 Z-0.200
G1 X50.325 Y5.277 Z-0.200
G1 X50.303 Y5.297 Z-0.200
G1 X50.283 Y5.319 Z-0.200
G1 X50.265 Y5.343 Z-0.200
G1 X50.250 Y5.369 Z-0.200
G1 X50.237 Y5.396 Z-0.200
G1 X50.227 Y5.425 Z-0.200
G1 X50.219 Y5.454 Z-0.200
G1 X50.215 Y5.483 Z-0.200
G1 X50.214 Y5.513 Z-0.200
G1 X50.215 Y5.543 Z-0.200
G1 X50.219 Y5.573 Z-0.200
G1 X50.227 Y5.602 Z-0.200
G1 X50.237 Y5.630 Z-0.200
G1 X50.250 Y5.657 Z-0.200
G1 X50.265 Y5.683 Z-0.200
G1 X50.283 Y5.707 Z-0.200
G1 X50.300 Y5.726 Z-0.200
G1 X51.087 Y6.513 Z-0.200
G1 X50.300 Y7.301 Z-0.200
G1 X50.283 Y7.319 Z-0.200
G1 X50.265 Y7.343 Z-0.200
G1 X50.250 Y7.369 Z-0.200
G1 X50.237 Y7.396 Z-0.200
G1 X50.227 Y7.425 Z-0.200
G1 X50.219 Y7.454 Z-0.200
G1 X50.215 Y7.483 Z-0.200
G1 X50.214 Y7.513 Z-0.200
G1 X50.215 Y7.543 Z-0.200
G1 X50.219 Y7.573 Z-0.200
G1 X50.227 Y7.602 Z-0.200
G1 X50.237 Y7.630 Z-0.200
G1 X50.250 Y7.657 Z-0.200
G1 X50.265 Y7.683 Z-0.200
G1 X50.283 Y7.707 Z-0.200
G1 X50.303 Y7.729 Z-0.200
G1 X50.325 Y7.749 Z-0.200
G1 X50.349 Y7.767 Z-0.200
G1 X50.375 Y7.783 Z-0.200
G1 X50.402 Y7.796 Z-0.200
G1 X50.430 Y7.806 Z-0.200
G1 X50.460 Y7.813 Z-0.200
G1 X50.489 Y7.817 Z-0.200
G1 X50.519 Y7.819 Z-0.200
G1 X50.549 Y7.817 Z-0.200
G1 X50.579 Y7.813 Z-0.200
G1 X50.608 Y7.806 Z-0.200
G1 X50.636 Y7.796 Z-0.200
G1 X50.663 Y7.783 Z-0.200
G1 X50.689 Y7.767 Z-0.200
G1 X50.713 Y7.749 Z-0.200
G1 X50.731 Y7.733 Z-0.200
G1 X51.214 Y7.250 Z-0.200
G1 X51.214 Y7.518 Z-0.200
G1 X51.215 Y7.543 Z-0.200
G1 X51.219 Y7.573 Z-0.200
G1 X51.227 Y7.602 Z-0.200
G1 X51.237 Y7.630 Z-0.200
G1 X51.250 Y7.657 Z-0.200
G1 X51.265 Y7.683 Z-0.200
G1 X51.283 Y7.707 Z-0.200
G1 X51.303 Y7.729 Z-0.200
G1 X51.325 Y7.749 Z-0.200
G1 X51.349 Y7.767 Z-0.200
G1 X51.375 Y7.783 Z-0.200
G1 X51.402 Y7.796 Z-0.200
G1 X51.430 Y7.806 Z-0.200
G1 X51.460 Y7.813 Z-0.200
G1 X51.489 Y7.817 Z-0.200
G1 X51.519 Y7.819 Z-0.200
G1 X51.549 Y7.817 Z-0.200
G1 X51.579 Y7.813 Z-0.200
G1 X51.608 Y7.806 Z-0.200
G1 X51.636 Y7.796 Z-0.200
G1 X51.663 Y7.783 Z-0.200
G1 X51.689 Y7.767 Z-0.200
G1 X51.713 Y7.749 Z-0.200
G1 X51.731 Y7.733 Z-0.200
G1 X52.214 Y7.250 Z-0.200
G0 X52.214 Y7.250
G0 Z5.080
G0 X45.207 Y14.958
G0 Z5.080
G1 X45.207 Y14.958 Z-0.200 F1000.0
G1 X45.151 Y14.916 Z-0.200 F3000.0
G1 X45.092 Y14.881 Z-0.200
G1 X45.029 Y14.851 Z-0.200
G1 X44.964 Y14.828 Z-0.200
G1 X44.897 Y14.811 Z-0.200
G1 X44.828 Y14.801 Z-0.200
G1 X44.764 Y14.798 Z-0.200
G1 X42.264 Y14.798 Z-0.200
G1 X42.264 Y14.653 Z-0.200
G1 X42.262 Y14.624 Z-0.200
G1 X42.255 Y14.593 Z-0.200
G1 X42.243 Y14.563 Z-0.200
G1 X42.226 Y14.534 Z-0.200
G1 X42.204 Y14.508 Z-0.200
G1 X42.178 Y14.486 Z-0.200
G1 X42.150 Y14.469 Z-0.200
G1 X42.119 Y14.457 Z-0.200
G1 X42.089 Y14.450 Z-0.200
G1 X42.059 Y14.448 Z-0.200
G1 X38.559 Y14.448 Z-0.200
G1 X38.532 Y14.450 Z-0.200
G1 X38.504 Y14.455 Z-0.200
G1 X38.477 Y14.465 Z-0.200
G1 X38.450 Y14.479 Z-0.200
G1 X38.425 Y14.498 Z-0.200
G1 X38.404 Y14.519 Z-0.200
G1 X38.385 Y14.544 Z-0.200
G1 X38.371 Y14.571 Z-0.200
G1 X38.361 Y14.599 Z-0.200
G1 X38.356 Y14.626 Z-0.200
G1 X38.354 Y14.653 Z-0.200
G1 X38.354 Y16.353 Z-0.200
G1 X38.356 Y16.380 Z-0.200
G1 X38.361 Y16.408 Z-0.200
G1 X38.371 Y16.436 Z-0.200
G1 X38.385 Y16.462 Z-0.200
G1 X38.404 Y16.487 Z-0.200
G1 X38.425 Y16.509 Z-0.200
G1 X38.450 Y16.527 Z-0.200
G1 X38.477 Y16.541 Z-0.200
G1 X38.504 Y16.551 Z-0.200
G1 X38.532 Y16.557 Z-0.200
G1 X38.559 Y16.559 Z-0.200
G1 X42.059 Y16.559 Z-0.200
G1 X42.089 Y16.556 Z-0.200
G1 X42.119 Y16.549 Z-0.200
G1 X42.150 Y16.537 Z-0.200
G1 X42.178 Y16.520 Z-0.200
G1 X42.204 Y16.498 Z-0.200
G1 X42.226 Y16.473 Z-0.200
G1 X42.243 Y16.444 Z-0.200
G1 X42.255 Y16.414 Z-0.200
G1 X42.262 Y16.383 Z-0.200
G1 X42.264 Y16.353 Z-0.200
G1 X42.264 Y16.209 Z-0.200
G1 X44.467 Y16.209 Z-0.200
G1 X49.314 Y21.055 Z-0.200
G1 X49.314 Y22.556 Z-0.200
G1 X49.242 Y22.635 Z-0.200
G1 X49.183 Y22.715 Z-0.200
G1 X49.132 Y22.799 Z-0.200
G1 X49.090 Y22.888 Z-0.200
G1 X49.057 Y22.981 Z-0.200
G1 X49.033 Y23.077 Z-0.200
G1 X49.018 Y23.175 Z-0.200
G1 X49.014 Y23.273 Z-0.200
G1 X49.018 Y23.372 Z-0.200
G1 X49.033 Y23.469 Z-0.200
G1 X49.057 Y23.565 Z-0.200
G1 X49.090 Y23.658 Z-0.200
G1 X49.132 Y23.747 Z-0.200
G1 X49.183 Y23.832 Z-0.200
G1 X49.242 Y23.911 Z-0.200
G1 X49.308 Y23.984 Z-0.200
G1 X49.381 Y24.051 Z-0.200
G1 X49.461 Y24.109 Z-0.200
G1 X49.545 Y24.160 Z-0.200
G1 X49.634 Y24.202 Z-0.200
G1 X49.727 Y24.235 Z-0.200
G1 X49.823 Y24.259 Z-0.200
G1 X49.921 Y24.274 Z-0.200
G1 X50.019 Y24.279 Z-0.200
G1 X50.118 Y24.274 Z-0.200
G1 X50.215 Y24.259 Z-0.200
G1 X50.311 Y24.235 Z-0.200
G1 X50.404 Y24.202 Z-0.200
G1 X50.493 Y24.160 Z-0.200
G1 X50.578 Y24.109 Z-0.200
G1 X50.657 Y24.051 Z-0.200
G1 X50.730 Y23.984 Z-0.200
G1 X50.796 Y23.911 Z-0.200
G1 X50.855 Y23.832 Z-0.200
G1 X50.906 Y23.747 Z-0.200
G1 X50.948 Y23.658 Z-0.200
G1 X50.981 Y23.565 Z-0.200
G1 X51.005 Y23.469 Z-0.200
G1 X51.020 Y23.372 Z-0.200
G1 X51.025 Y23.273 Z-0.200
G1 X51.020 Y23.175 Z-0.200
G1 X51.005 Y23.077 Z-0.200
G1 X50.981 Y22.981 Z-0.200
G1 X50.948 Y22.888 Z-0.200
G1 X50.906 Y22.799 Z-0.200
G1 X50.855 Y22.715 Z-0.200
G1 X50.796 Y22.635 Z-0.200
G1 X50.725 Y22.556 Z-0.200
G1 X50.725 Y20.758 Z-0.200
G1 X50.722 Y20.694 Z-0.200
G1 X50.711 Y20.626 Z-0.200
G1 X50.695 Y20.558 Z-0.200
G1 X50.671 Y20.493 Z-0.200
G1 X50.642 Y20.431 Z-0.200
G1 X50.606 Y20.371 Z-0.200
G1 X50.565 Y20.316 Z-0.200
G1 X50.522 Y20.268 Z-0.200
G1 X45.254 Y15.001 Z-0.200
G1 X45.207 Y14.958 Z-0.200
G0 X45.207 Y14.958
G0 Z5.080
G0 X44.319 Y17.391
G0 Z5.080
G1 X44.319 Y17.391 Z-0.200 F1000.0
G1 X44.254 Y17.368 Z-0.200 F3000.0
G1 X44.187 Y17.351 Z-0.200
G1 X44.118 Y17.341 Z-0.200
G1 X44.054 Y17.338 Z-0.200
G1 X42.264 Y17.338 Z-0.200
G1 X42.264 Y17.193 Z-0.200
G1 X42.262 Y17.164 Z-0.200
G1 X42.255 Y17.133 Z-0.200
G1 X42.243 Y17.103 Z-0.200
G1 X42.226 Y17.074 Z-0.200
G1 X42.204 Y17.048 Z-0.200
G1 X42.178 Y17.026 Z-0.200
G1 X42.150 Y17.009 Z-0.200
G1 X42.119 Y16.997 Z-0.200
G1 X42.089 Y16.990 Z-0.200
G1 X42.059 Y16.988 Z-0.200
G1 X38.559 Y16.988 Z-0.200
G1 X38.532 Y16.990 Z-0.200
G1 X38.504 Y16.995 Z-0.200
G1 X38.477 Y17.005 Z-0.200
G1 X38.450 Y17.019 Z-0.200
G1 X38.425 Y17.038 Z-0.200
G1 X38.404 Y17.059 Z-0.200
G1 X38.385 Y17.084 Z-0.200
G1 X38.371 Y17.111 Z-0.200
G1 X38.361 Y17.139 Z-0.200
G1 X38.356 Y17.166 Z-0.200
G1 X38.354 Y17.193 Z-0.200
G1 X38.354 Y18.893 Z-0.200
G1 X38.356 Y18.920 Z-0.200
G1 X38.361 Y18.948 Z-0.200
G1 X38.371 Y18.976 Z-0.200
G1 X38.385 Y19.002 Z-0.200
G1 X38.404 Y19.027 Z-0.200
G1 X38.425 Y19.049 Z-0.200
G1 X38.450 Y19.067 Z-0.200
G1 X38.477 Y19.081 Z-0.200
G1 X38.504 Y19.091 Z-0.200
G1 X38.532 Y19.097 Z-0.200
G1 X38.559 Y19.099 Z-0.200
G1 X42.059 Y19.099 Z-0.200
G1 X42.089 Y19.096 Z-0.200
G1 X42.119 Y19.089 Z-0.200
G1 X42.150 Y19.077 Z-0.200
G1 X42.178 Y19.060 Z-0.200
G1 X42.204 Y19.038 Z-0.200
G1 X42.226 Y19.013 Z-0.200
G1 X42.243 Y18.984 Z-0.200
G1 X42.255 Y18.954 Z-0.200
G1 X42.262 Y18.923 Z-0.200
G1 X42.264 Y18.893 Z-0.200
G1 X42.264 Y18.749 Z-0.200
G1 X43.757 Y18.749 Z-0.200
G1 X46.314 Y21.305 Z-0.200
G1 X46.314 Y22.556 Z-0.200
G1 X46.242 Y22.635 Z-0.200
G1 X46.183 Y22.715 Z-0.200
G1 X46.132 Y22.799 Z-0.200
G1 X46.090 Y22.888 Z-0.200
G1 X46.057 Y22.981 Z-0.200
G1 X46.033 Y23.077 Z-0.200
G1 X46.018 Y23.175 Z-0.200
G1 X46.014 Y23.273 Z-0.200
G1 X46.018 Y23.372 Z-0.200
G1 X46.033 Y23.469 Z-0.200
G1 X46.057 Y23.565 Z-0.200
G1 X46.090 Y23.658 Z-0.200
G1 X46.132 Y23.747 Z-0.200
G1 X46.183 Y23.832 Z-0.200
G1 X46.242 Y23.911 Z-0.200
G1 X46.308 Y23.984 Z-0.200
G1 X46.381 Y24.051 Z-0.200
G1 X46.461 Y24.109 Z-0.200
G1 X46.545 Y24.160 Z-0.200
G1 X46.634 Y24.202 Z-0.200
G1 X46.727 Y24.235 Z-0.200
G1 X46.823 Y24.259 Z-0.200
G1 X46.921 Y24.274 Z-0.200
G1 X47.019 Y24.279 Z-0.200
G1 X47.118 Y24.274 Z-0.200
G1 X47.215 Y24.259 Z-0.200
G1 X47.311 Y24.235 Z-0.200
G1 X47.404 Y24.202 Z-0.200
G1 X47.493 Y24.160 Z-0.200
G1 X47.578 Y24.109 Z-0.200
G1 X47.657 Y24.051 Z-0.200
G1 X47.730 Y23.984 Z-0.200
G1 X47.796 Y23.911 Z-0.200
G1 X47.855 Y23.832 Z-0.200
G1 X47.906 Y23.747 Z-0.200
G1 X47.948 Y23.658 Z-0.200
G1 X47.981 Y23.565 Z-0.200
G1 X48.005 Y23.469 Z-0.200
G1 X48.020 Y23.372 Z-0.200
G1 X48.025 Y23.273 Z-0.200
G1 X48.020 Y23.175 Z-0.200
G1 X48.005 Y23.077 Z-0.200
G1 X47.981 Y22.981 Z-0.200
G1 X47.948 Y22.888 Z-0.200
G1 X47.906 Y22.799 Z-0.200
G1 X47.855 Y22.715 Z-0.200
G1 X47.796 Y22.635 Z-0.200
G1 X47.725 Y22.556 Z-0.200
G1 X47.725 Y21.008 Z-0.200
G1 X47.722 Y20.944 Z-0.200
G1 X47.711 Y20.876 Z-0.200
G1 X47.695 Y20.808 Z-0.200
G1 X47.671 Y20.743 Z-0.200
G1 X47.642 Y20.681 Z-0.200
G1 X47.606 Y20.621 Z-0.200
G1 X47.565 Y20.566 Z-0.200
G1 X47.522 Y20.518 Z-0.200
G1 X44.544 Y17.541 Z-0.200
G1 X44.497 Y17.498 Z-0.200
G1 X44.441 Y17.456 Z-0.200
G1 X44.382 Y17.421 Z-0.200
G1 X44.319 Y17.391 Z-0.200
G0 X44.319 Y17.391
G0 Z5.080
G0 X43.727 Y19.891
G0 Z5.080
G1 X43.727 Y19.891 Z-0.200 F1000.0
G1 X43.658 Y19.881 Z-0.200 F3000.0
G1 X43.594 Y19.878 Z-0.200
G1 X42.264 Y19.878 Z-0.200
G1 X42.264 Y19.733 Z-0.200
G1 X42.262 Y19.704 Z-0.200
G1 X42.255 Y19.673 Z-0.200
G1 X42.243 Y19.643 Z-0.200
G1 X42.226 Y19.614 Z-0.200
G1 X42.204 Y19.588 Z-0.200
G1 X42.178 Y19.566 Z-0.200
G1 X42.150 Y19.549 Z-0.200
G1 X42.119 Y19.537 Z-0.200
G1 X42.089 Y19.530 Z-0.200
G1 X42.059 Y19.528 Z-0.200
G1 X38.559 Y19.528 Z-0.200
G1 X38.532 Y19.530 Z-0.200
G1 X38.504 Y19.535 Z-0.200
G1 X38.477 Y19.545 Z-0.200
G1 X38.450 Y19.559 Z-0.200
G1 X38.425 Y19.578 Z-0.200
G1 X38.404 Y19.599 Z-0.200
G1 X38.385 Y19.624 Z-0.200
G1 X38.371 Y19.651 Z-0.200
G1 X38.361 Y19.679 Z-0.200
G1 X38.356 Y19.706 Z-0.200
G1 X38.354 Y19.733 Z-0.200
G1 X38.354 Y21.433 Z-0.200
G1 X38.356 Y21.460 Z-0.200
G1 X38.361 Y21.488 Z-0.200
G1 X38.371 Y21.516 Z-0.200
G1 X38.385 Y21.542 Z-0.200
G1 X38.404 Y21.567 Z-0.200
G1 X38.425 Y21.589 Z-0.200
G1 X38.450 Y21.607 Z-0.200
G1 X38.477 Y21.621 Z-0.200
G1 X38.504 Y21.631 Z-0.200
G1 X38.532 Y21.637 Z-0.200
G1 X38.559 Y21.639 Z-0.200
G1 X42.059 Y21.639 Z-0.200
G1 X42.089 Y21.636 Z-0.200
G1 X42.119 Y21.629 Z-0.200
G1 X42.150 Y21.617 Z-0.200
G1 X42.178 Y21.600 Z-0.200
G1 X42.204 Y21.578 Z-0.200
G1 X42.226 Y21.553 Z-0.200
G1 X42.243 Y21.524 Z-0.200
G1 X42.255 Y21.494 Z-0.200
G1 X42.262 Y21.463 Z-0.200
G1 X42.264 Y21.433 Z-0.200
G1 X42.264 Y21.289 Z-0.200
G1 X43.297 Y21.289 Z-0.200
G1 X43.314 Y21.305 Z-0.200
G1 X43.314 Y22.556 Z-0.200
G1 X43.242 Y22.635 Z-0.200
G1 X43.183 Y22.715 Z-0.200
G1 X43.132 Y22.799 Z-0.200
G1 X43.090 Y22.888 Z-0.200
G1 X43.057 Y22.981 Z-0.200
G1 X43.033 Y23.077 Z-0.200
G1 X43.018 Y23.175 Z-0.200
G1 X43.014 Y23.273 Z-0.200
G1 X43.018 Y23.372 Z-0.200
G1 X43.033 Y23.469 Z-0.200
G1 X43.057 Y23.565 Z-0.200
G1 X43.090 Y23.658 Z-0.200
G1 X43.132 Y23.747 Z-0.200
G1 X43.183 Y23.832 Z-0.200
G1 X43.242 Y23.911 Z-0.200
G1 X43.308 Y23.984 Z-0.200
G1 X43.381 Y24.051 Z-0.200
G1 X43.461 Y24.109 Z-0.200
G1 X43.545 Y24.160 Z-0.200
G1 X43.634 Y24.202 Z-0.200
G1 X43.727 Y24.235 Z-0.200
G1 X43.823 Y24.259 Z-0.200
G1 X43.921 Y24.274 Z-0.200
G1 X44.019 Y24.279 Z-0.200
G1 X44.118 Y24.274 Z-0.200
G1 X44.215 Y24.259 Z-0.200
G1 X44.311 Y24.235 Z-0.200
G1 X44.404 Y24.202 Z-0.200
G1 X44.493 Y24.160 Z-0.200
G1 X44.578 Y24.109 Z-0.200
G1 X44.657 Y24.051 Z-0.200
G1 X44.730 Y23.984 Z-0.200
G1 X44.796 Y23.911 Z-0.200
G1 X44.855 Y23.832 Z-0.200
G1 X44.906 Y23.747 Z-0.200
G1 X44.948 Y23.658 Z-0.200
G1 X44.981 Y23.565 Z-0.200
G1 X45.005 Y23.469 Z-0.200
G1 X45.020 Y23.372 Z-0.200
G1 X45.025 Y23.273 Z-0.200
G1 X45.020 Y23.175 Z-0.200
G1 X45.005 Y23.077 Z-0.200
G1 X44.981 Y22.981 Z-0.200
G1 X44.948 Y22.888 Z-0.200
G1 X44.906 Y22.799 Z-0.200
G1 X44.855 Y22.715 Z-0.200
G1 X44.796 Y22.635 Z-0.200
G1 X44.725 Y22.556 Z-0.200
G1 X44.725 Y21.008 Z-0.200
G1 X44.722 Y20.944 Z-0.200
G1 X44.711 Y20.876 Z-0.200
G1 X44.695 Y20.808 Z-0.200
G1 X44.671 Y20.743 Z-0.200
G1 X44.642 Y20.681 Z-0.200
G1 X44.606 Y20.621 Z-0.200
G1 X44.565 Y20.566 Z-0.200
G1 X44.522 Y20.518 Z-0.200
G1 X44.084 Y20.081 Z-0.200
G1 X44.037 Y20.038 Z-0.200
G1 X43.981 Y19.996 Z-0.200
G1 X43.922 Y19.961 Z-0.200
G1 X43.859 Y19.931 Z-0.200
G1 X43.794 Y19.908 Z-0.200
G1 X43.727 Y19.891 Z-0.200
G0 X43.727 Y19.891
G0 Z5.080
G0 X42.059 Y22.068
G0 Z5.080
G1 X42.059 Y22.068 Z-0.200 F1000.0
G1 X38.559 Y22.068 Z-0.200 F3000.0
G1 X38.532 Y22.070 Z-0.200
G1 X38.504 Y22.075 Z-0.200
G1 X38.477 Y22.085 Z-0.200
G1 X38.450 Y22.099 Z-0.200
G1 X38.425 Y22.118 Z-0.200
G1 X38.404 Y22.139 Z-0.200
G1 X38.385 Y22.164 Z-0.200
G1 X38.371 Y22.191 Z-0.200
G1 X38.361 Y22.219 Z-0.200
G1 X38.356 Y22.246 Z-0.200
G1 X38.354 Y22.273 Z-0.200
G1 X38.354 Y23.973 Z-0.200
G1 X38.356 Y24.000 Z-0.200
G1 X38.361 Y24.028 Z-0.200
G1 X38.371 Y24.056 Z-0.200
G1 X38.385 Y24.082 Z-0.200
G1 X38.404 Y24.107 Z-0.200
G1 X38.425 Y24.129 Z-0.200
G1 X38.450 Y24.147 Z-0.200
G1 X38.477 Y24.161 Z-0.200
G1 X38.504 Y24.171 Z-0.200
G1 X38.532 Y24.177 Z-0.200
G1 X38.559 Y24.179 Z-0.200
G1 X42.059 Y24.179 Z-0.200
G1 X42.089 Y24.176 Z-0.200
G1 X42.119 Y24.169 Z-0.200
G1 X42.150 Y24.157 Z-0.200
G1 X42.178 Y24.140 Z-0.200
G1 X42.204 Y24.118 Z-0.200
G1 X42.226 Y24.093 Z-0.200
G1 X42.243 Y24.064 Z-0.200
G1 X42.255 Y24.034 Z-0.200
G1 X42.262 Y24.003 Z-0.200
G1 X42.264 Y23.973 Z-0.200
G1 X42.264 Y22.273 Z-0.200
G1 X42.262 Y22.244 Z-0.200
G1 X42.255 Y22.213 Z-0.200
G1 X42.243 Y22.183 Z-0.200
G1 X42.226 Y22.154 Z-0.200
G1 X42.204 Y22.128 Z-0.200
G1 X42.178 Y22.106 Z-0.200
G1 X42.150 Y22.089 Z-0.200
G1 X42.119 Y22.077 Z-0.200
G1 X42.089 Y22.070 Z-0.200
G1 X42.059 Y22.068 Z-0.200
G0 X42.059 Y22.068
G0 Z5.080
G0 X42.059 Y24.608
G0 Z5.080
G1 X42.059 Y24.608 Z-0.200 F1000.0
G1 X38.559 Y24.608 Z-0.200 F3000.0
G1 X38.532 Y24.610 Z-0.200
G1 X38.504 Y24.615 Z-0.200
G1 X38.477 Y24.625 Z-0.200
G1 X38.450 Y24.639 Z-0.200
G1 X38.425 Y24.658 Z-0.200
G1 X38.404 Y24.679 Z-0.200
G1 X38.385 Y24.704 Z-0.200
G1 X38.371 Y24.731 Z-0.200
G1 X38.361 Y24.759 Z-0.200
G1 X38.356 Y24.786 Z-0.200
G1 X38.354 Y24.813 Z-0.200
G1 X38.354 Y26.513 Z-0.200
G1 X38.356 Y26.540 Z-0.200
G1 X38.361 Y26.568 Z-0.200
G1 X38.371 Y26.596 Z-0.200
G1 X38.385 Y26.622 Z-0.200
G1 X38.404 Y26.647 Z-0.200
G1 X38.425 Y26.669 Z-0.200
G1 X38.450 Y26.687 Z-0.200
G1 X38.477 Y26.701 Z-0.200
G1 X38.504 Y26.711 Z-0.200
G1 X38.532 Y26.717 Z-0.200
G1 X38.559 Y26.719 Z-0.200
G1 X42.059 Y26.719 Z-0.200
G1 X42.089 Y26.716 Z-0.200
G1 X42.119 Y26.709 Z-0.200
G1 X42.150 Y26.697 Z-0.200
G1 X42.178 Y26.680 Z-0.200
G1 X42.204 Y26.658 Z-0.200
G1 X42.226 Y26.633 Z-0.200
G1 X42.243 Y26.604 Z-0.200
G1 X42.255 Y26.574 Z-0.200
G1 X42.262 Y26.543 Z-0.200
G1 X42.264 Y26.513 Z-0.200
G1 X42.264 Y24.813 Z-0.200
G1 X42.262 Y24.784 Z-0.200
G1 X42.255 Y24.753 Z-0.200
G1 X42.243 Y24.723 Z-0.200
G1 X42.226 Y24.694 Z-0.200
G1 X42.204 Y24.668 Z-0.200
G1 X42.178 Y24.646 Z-0.200
G1 X42.150 Y24.629 Z-0.200
G1 X42.119 Y24.617 Z-0.200
G1 X42.089 Y24.610 Z-0.200
G1 X42.059 Y24.608 Z-0.200
G0 X42.059 Y24.608
G0 Z5.080
G0 X42.059 Y27.148
G0 Z5.080
G1 X42.059 Y27.148 Z-0.200 F1000.0
G1 X38.559 Y27.148 Z-0.200 F3000.0
G1 X38.532 Y27.150 Z-0.200
G1 X38.504 Y27.155 Z-0.200
G1 X38.477 Y27.165 Z-0.200
G1 X38.450 Y27.179 Z-0.200
G1 X38.425 Y27.198 Z-0.200
G1 X38.404 Y27.219 Z-0.200
G1 X38.385 Y27.244 Z-0.200
G1 X38.371 Y27.271 Z-0.200
G1 X38.361 Y27.299 Z-0.200
G1 X38.356 Y27.326 Z-0.200
G1 X38.354 Y27.353 Z-0.200
G1 X38.354 Y29.053 Z-0.200
G1 X38.356 Y29.080 Z-0.200
G1 X38.361 Y29.108 Z-0.200
G1 X38.371 Y29.136 Z-0.200
G1 X38.385 Y29.162 Z-0.200
G1 X38.404 Y29.187 Z-0.200
G1 X38.425 Y29.209 Z-0.200
G1 X38.450 Y29.227 Z-0.200
G1 X38.477 Y29.241 Z-0.200
G1 X38.504 Y29.251 Z-0.200
G1 X38.532 Y29.257 Z-0.200
G1 X38.559 Y29.259 Z-0.200
G1 X42.059 Y29.259 Z-0.200
G1 X42.089 Y29.256 Z-0.200
G1 X42.119 Y29.249 Z-0.200
G1 X42.150 Y29.237 Z-0.200
G1 X42.178 Y29.220 Z-0.200
G1 X42.204 Y29.198 Z-0.200
G1 X42.226 Y29.173 Z-0.200
G1 X42.243 Y29.144 Z-0.200
G1 X42.255 Y29.114 Z-0.200
G1 X42.262 Y29.083 Z-0.200
G1 X42.264 Y29.053 Z-0.200
G1 X42.264 Y27.353 Z-0.200
G1 X42.262 Y27.324 Z-0.200
G1 X42.255 Y27.293 Z-0.200
G1 X42.243 Y27.263 Z-0.200
G1 X42.226 Y27.234 Z-0.200
G1 X42.204 Y27.208 Z-0.200
G1 X42.178 Y27.186 Z-0.200
G1 X42.150 Y27.169 Z-0.200
G1 X42.119 Y27.157 Z-0.200
G1 X42.089 Y27.150 Z-0.200
G1 X42.059 Y27.148 Z-0.200
G0 X42.059 Y27.148
G0 Z5.080
G0 X42.059 Y29.688
G0 Z5.080
G1 X42.059 Y29.688 Z-0.200 F1000.0
G1 X38.559 Y29.688 Z-0.200 F3000.0
G1 X38.532 Y29.690 Z-0.200
G1 X38.504 Y29.695 Z-0.200
G1 X38.477 Y29.705 Z-0.200
G1 X38.450 Y29.719 Z-0.200
G1 X38.425 Y29.738 Z-0.200
G1 X38.404 Y29.759 Z-0.200
G1 X38.385 Y29.784 Z-0.200
G1 X38.371 Y29.811 Z-0.200
G1 X38.361 Y29.839 Z-0.200
G1 X38.356 Y29.866 Z-0.200
G1 X38.354 Y29.893 Z-0.200
G1 X38.354 Y31.593 Z-0.200
G1 X38.356 Y31.620 Z-0.200
G1 X38.361 Y31.648 Z-0.200
G1 X38.371 Y31.676 Z-0.200
G1 X38.385 Y31.702 Z-0.200
G1 X38.404 Y31.727 Z-0.200
G1 X38.425 Y31.749 Z-0.200
G1 X38.450 Y31.767 Z-0.200
G1 X38.477 Y31.781 Z-0.200
G1 X38.504 Y31.791 Z-0.200
G1 X38.532 Y31.797 Z-0.200
G1 X38.559 Y31.799 Z-0.200
G1 X42.059 Y31.799 Z-0.200
G1 X42.089 Y31.796 Z-0.200
G1 X42.119 Y31.789 Z-0.200
G1 X42.150 Y31.777 Z-0.200
G1 X42.178 Y31.760 Z-0.200
G1 X42.204 Y31.738 Z-0.200
G1 X42.226 Y31.713 Z-0.200
G1 X42.243 Y31.684 Z-0.200
G1 X42.255 Y31.654 Z-0.200
G1 X42.262 Y31.623 Z-0.200
G1 X42.264 Y31.593 Z-0.200
G1 X42.264 Y29.893 Z-0.200
G1 X42.262 Y29.864 Z-0.200
G1 X42.255 Y29.833 Z-0.200
G1 X42.243 Y29.803 Z-0.200
G1 X42.226 Y29.774 Z-0.200
G1 X42.204 Y29.748 Z-0.200
G1 X42.178 Y29.726 Z-0.200
G1 X42.150 Y29.709 Z-0.200
G1 X42.119 Y29.697 Z-0.200
G1 X42.089 Y29.690 Z-0.200
G1 X42.059 Y29.688 Z-0.200
G0 X42.059 Y29.688
G0 Z5.080
G0 X42.059 Y32.228
G0 Z5.080
G1 X42.059 Y32.228 Z-0.200 F1000.0
G1 X38.559 Y32.228 Z-0.200 F3000.0
G1 X38.532 Y32.230 Z-0.200
G1 X38.504 Y32.235 Z-0.200
G1 X38.477 Y32.245 Z-0.200
G1 X38.450 Y32.259 Z-0.200
G1 X38.425 Y32.278 Z-0.200
G1 X38.404 Y32.299 Z-0.200
G1 X38.385 Y32.324 Z-0.200
G1 X38.371 Y32.351 Z-0.200
G1 X38.361 Y32.379 Z-0.200
G1 X38.356 Y32.406 Z-0.200
G1 X38.354 Y32.433 Z-0.200
G1 X38.354 Y34.133 Z-0.200
G1 X38.356 Y34.160 Z-0.200
G1 X38.361 Y34.188 Z-0.200
G1 X38.371 Y34.216 Z-0.200
G1 X38.385 Y34.242 Z-0.200
G1 X38.404 Y34.267 Z-0.200
G1 X38.425 Y34.289 Z-0.200
G1 X38.450 Y34.307 Z-0.200
G1 X38.477 Y34.321 Z-0.200
G1 X38.504 Y34.331 Z-0.200
G1 X38.532 Y34.337 Z-0.200
G1 X38.559 Y34.339 Z-0.200
G1 X42.059 Y34.339 Z-0.200
G1 X42.089 Y34.336 Z-0.200
G1 X42.119 Y34.329 Z-0.200
G1 X42.150 Y34.317 Z-0.200
G1 X42.178 Y34.300 Z-0.200
G1 X42.204 Y34.278 Z-0.200
G1 X42.226 Y34.253 Z-0.200
G1 X42.243 Y34.224 Z-0.200
G1 X42.255 Y34.194 Z-0.200
G1 X42.262 Y34.163 Z-0.200
G1 X42.264 Y34.133 Z-0.200
G1 X42.264 Y32.433 Z-0.200
G1 X42.262 Y32.404 Z-0.200
G1 X42.255 Y32.373 Z-0.200
G1 X42.243 Y32.343 Z-0.200
G1 X42.226 Y32.314 Z-0.200
G1 X42.204 Y32.288 Z-0.200
G1 X42.178 Y32.266 Z-0.200
G1 X42.150 Y32.249 Z-0.200
G1 X42.119 Y32.237 Z-0.200
G1 X42.089 Y32.230 Z-0.200
G1 X42.059 Y32.228 Z-0.200
G0 X42.059 Y32.228
G0 Z5.080
G0 X42.059 Y34.768
G0 Z5.080
G1 X42.059 Y34.768 Z-0.200 F1000.0
G1 X38.559 Y34.768 Z-0.200 F3000.0
G1 X38.532 Y34.770 Z-0.200
G1 X38.504 Y34.775 Z-0.200
G1 X38.477 Y34.785 Z-0.200
G1 X38.450 Y34.799 Z-0.200
G1 X38.425 Y34.818 Z-0.200
G1 X38.404 Y34.839 Z-0.200
G1 X38.385 Y34.864 Z-0.200
G1 X38.371 Y34.891 Z-0.200
G1 X38.361 Y34.919 Z-0.200
G1 X38.356 Y34.946 Z-0.200
G1 X38.354 Y34.973 Z-0.200
G1 X38.354 Y36.673 Z-0.200
G1 X38.356 Y36.700 Z-0.200
G1 X38.361 Y36.728 Z-0.200
G1 X38.371 Y36.756 Z-0.200
G1 X38.385 Y36.782 Z-0.200
G1 X38.404 Y36.807 Z-0.200
G1 X38.425 Y36.829 Z-0.200
G1 X38.450 Y36.847 Z-0.200
G1 X38.477 Y36.861 Z-0.200
G1 X38.504 Y36.871 Z-0.200
G1 X38.532 Y36.877 Z-0.200
G1 X38.559 Y36.879 Z-0.200
G1 X42.059 Y36.879 Z-0.200
G1 X42.089 Y36.876 Z-0.200
G1 X42.119 Y36.869 Z-0.200
G1 X42.150 Y36.857 Z-0.200
G1 X42.178 Y36.840 Z-0.200
G1 X42.204 Y36.818 Z-0.200
G1 X42.226 Y36.793 Z-0.200
G1 X42.243 Y36.764 Z-0.200
G1 X42.255 Y36.734 Z-0.200
G1 X42.262 Y36.703 Z-0.200
G1 X42.264 Y36.673 Z-0.200
G1 X42.264 Y34.973 Z-0.200
G1 X42.262 Y34.944 Z-0.200
G1 X42.255 Y34.913 Z-0.200
G1 X42.243 Y34.883 Z-0.200
G1 X42.226 Y34.854 Z-0.200
G1 X42.204 Y34.828 Z-0.200
G1 X42.178 Y34.806 Z-0.200
G1 X42.150 Y34.789 Z-0.200
G1 X42.119 Y34.777 Z-0.200
G1 X42.089 Y34.770 Z-0.200
G1 X42.059 Y34.768 Z-0.200
G0 X42.059 Y34.768
G0 Z5.080
G0 X42.059 Y37.308
G0 Z5.080
G1 X42.059 Y37.308 Z-0.200 F1000.0
G1 X38.559 Y37.308 Z-0.200 F3000.0
G1 X38.532 Y37.310 Z-0.200
G1 X38.504 Y37.315 Z-0.200
G1 X38.477 Y37.325 Z-0.200
G1 X38.450 Y37.339 Z-0.200
G1 X38.425 Y37.358 Z-0.200
G1 X38.404 Y37.379 Z-0.200
G1 X38.385 Y37.404 Z-0.200
G1 X38.371 Y37.431 Z-0.200
G1 X38.361 Y37.459 Z-0.200
G1 X38.356 Y37.486 Z-0.200
G1 X38.354 Y37.513 Z-0.200
G1 X38.354 Y39.213 Z-0.200
G1 X38.356 Y39.240 Z-0.200
G1 X38.361 Y39.268 Z-0.200
G1 X38.371 Y39.296 Z-0.200
G1 X38.385 Y39.322 Z-0.200
G1 X38.404 Y39.347 Z-0.200
G1 X38.425 Y39.369 Z-0.200
G1 X38.450 Y39.387 Z-0.200
G1 X38.477 Y39.401 Z-0.200
G1 X38.504 Y39.411 Z-0.200
G1 X38.532 Y39.417 Z-0.200
G1 X38.559 Y39.419 Z-0.200
G1 X42.059 Y39.419 Z-0.200
G1 X42.089 Y39.416 Z-0.200
G1 X42.119 Y39.409 Z-0.200
G1 X42.150 Y39.397 Z-0.200
G1 X42.178 Y39.380 Z-0.200
G1 X42.204 Y39.358 Z-0.200
G1 X42.226 Y39.333 Z-0.200
G1 X42.243 Y39.304 Z-0.200
G1 X42.255 Y39.274 Z-0.200
G1 X42.262 Y39.243 Z-0.200
G1 X42.264 Y39.213 Z-0.200
G1 X42.264 Y37.513 Z-0.200
G1 X42.262 Y37.484 Z-0.200
G1 X42.255 Y37.453 Z-0.200
G1 X42.243 Y37.423 Z-0.200
G1 X42.226 Y37.394 Z-0.200
G1 X42.204 Y37.368 Z-0.200
G1 X42.178 Y37.346 Z-0.200
G1 X42.150 Y37.329 Z-0.200
G1 X42.119 Y37.317 Z-0.200
G1 X42.089 Y37.310 Z-0.200
G1 X42.059 Y37.308 Z-0.200
G0 X42.059 Y37.308
G0 Z5.080
G0 X42.059 Y39.848
G0 Z5.080
G1 X42.059 Y39.848 Z-0.200 F1000.0
G1 X38.559 Y39.848 Z-0.200 F3000.0
G1 X38.532 Y39.850 Z-0.200
G1 X38.504 Y39.855 Z-0.200
G1 X38.477 Y39.865 Z-0.200
G1 X38.450 Y39.879 Z-0.200
G1 X38.425 Y39.898 Z-0.200
G1 X38.404 Y39.919 Z-0.200
G1 X38.385 Y39.944 Z-0.200
G1 X38.371 Y39.971 Z-0.200
G1 X38.361 Y39.999 Z-0.200
G1 X38.356 Y40.026 Z-0.200
G1 X38.354 Y40.053 Z-0.200
G1 X38.354 Y41.753 Z-0.200
G1 X38.356 Y41.780 Z-0.200
G1 X38.361 Y41.808 Z-0.200
G1 X38.371 Y41.836 Z-0.200
G1 X38.385 Y41.862 Z-0.200
G1 X38.404 Y41.887 Z-0.200
G1 X38.425 Y41.909 Z-0.200
G1 X38.450 Y41.927 Z-0.200
G1 X38.477 Y41.941 Z-0.200
G1 X38.504 Y41.951 Z-0.200
G1 X38.532 Y41.957 Z-0.200
G1 X38.559 Y41.959 Z-0.200
G1 X42.059 Y41.959 Z-0.200
G1 X42.089 Y41.956 Z-0.200
G1 X42.119 Y41.949 Z-0.200
G1 X42.150 Y41.937 Z-0.200
G1 X42.178 Y41.920 Z-0.200
G1 X42.204 Y41.898 Z-0.200
G1 X42.226 Y41.873 Z-0.200
G1 X42.243 Y41.844 Z-0.200
G1 X42.255 Y41.814 Z-0.200
G1 X42.262 Y41.783 Z-0.200
G1 X42.264 Y41.753 Z-0.200
G1 X42.264 Y40.053 Z-0.200
G1 X42.262 Y40.024 Z-0.200
G1 X42.255 Y39.993 Z-0.200
G1 X42.243 Y39.963 Z-0.200
G1 X42.226 Y39.934 Z-0.200
G1 X42.204 Y39.908 Z-0.200
G1 X42.178 Y39.886 Z-0.200
G1 X42.150 Y39.869 Z-0.200
G1 X42.119 Y39.857 Z-0.200
G1 X42.089 Y39.850 Z-0.200
G1 X42.059 Y39.848 Z-0.200
G0 X42.059 Y39.848
G0 Z5.080
G0 X42.059 Y42.388
G0 Z5.080
G1 X42.059 Y42.388 Z-0.200 F1000.0
G1 X38.559 Y42.388 Z-0.200 F3000.0
G1 X38.532 Y42.390 Z-0.200
G1 X38.504 Y42.395 Z-0.200
G1 X38.477 Y42.405 Z-0.200
G1 X38.450 Y42.419 Z-0.200
G1 X38.425 Y42.438 Z-0.200
G1 X38.404 Y42.459 Z-0.200
G1 X38.385 Y42.484 Z-0.200
G1 X38.371 Y42.511 Z-0.200
G1 X38.361 Y42.539 Z-0.200
G1 X38.356 Y42.566 Z-0.200
G1 X38.354 Y42.593 Z-0.200
G1 X38.354 Y44.293 Z-0.200
G1 X38.356 Y44.320 Z-0.200
G1 X38.361 Y44.348 Z-0.200
G1 X38.371 Y44.376 Z-0.200
G1 X38.385 Y44.402 Z-0.200
G1 X38.404 Y44.427 Z-0.200
G1 X38.425 Y44.449 Z-0.200
G1 X38.450 Y44.467 Z-0.200
G1 X38.477 Y44.481 Z-0.200
G1 X38.504 Y44.491 Z-0.200
G1 X38.532 Y44.497 Z-0.200
G1 X38.559 Y44.499 Z-0.200
G1 X42.059 Y44.499 Z-0.200
G1 X42.089 Y44.496 Z-0.200
G1 X42.119 Y44.489 Z-0.200
G1 X42.150 Y44.477 Z-0.200
G1 X42.178 Y44.460 Z-0.200
G1 X42.204 Y44.438 Z-0.200
G1 X42.226 Y44.413 Z-0.200
G1 X42.243 Y44.384 Z-0.200
G1 X42.255 Y44.354 Z-0.200
G1 X42.262 Y44.323 Z-0.200
G1 X42.264 Y44.293 Z-0.200
G1 X42.264 Y42.593 Z-0.200
G1 X42.262 Y42.564 Z-0.200
G1 X42.255 Y42.533 Z-0.200
G1 X42.243 Y42.503 Z-0.200
G1 X42.226 Y42.474 Z-0.200
G1 X42.204 Y42.448 Z-0.200
G1 X42.178 Y42.426 Z-0.200
G1 X42.150 Y42.409 Z-0.200
G1 X42.119 Y42.397 Z-0.200
G1 X42.089 Y42.390 Z-0.200
G1 X42.059 Y42.388 Z-0.200
G0 X42.059 Y42.388
G0 Z5.080
G0 X42.059 Y44.928
G0 Z5.080
G1 X42.059 Y44.928 Z-0.200 F1000.0
G1 X38.559 Y44.928 Z-0.200 F3000.0
G1 X38.532 Y44.930 Z-0.200
G1 X38.504 Y44.935 Z-0.200
G1 X38.477 Y44.945 Z-0.200
G1 X38.450 Y44.959 Z-0.200
G1 X38.425 Y44.978 Z-0.200
G1 X38.404 Y44.999 Z-0.200
G1 X38.385 Y45.024 Z-0.200
G1 X38.371 Y45.051 Z-0.200
G1 X38.361 Y45.079 Z-0.200
G1 X38.356 Y45.106 Z-0.200
G1 X38.354 Y45.133 Z-0.200
G1 X38.354 Y46.833 Z-0.200
G1 X38.356 Y46.860 Z-0.200
G1 X38.361 Y46.888 Z-0.200
G1 X38.371 Y46.916 Z-0.200
G1 X38.385 Y46.942 Z-0.200
G1 X38.404 Y46.967 Z-0.200
G1 X38.425 Y46.989 Z-0.200
G1 X38.450 Y47.007 Z-0.200
G1 X38.477 Y47.021 Z-0.200
G1 X38.504 Y47.031 Z-0.200
G1 X38.532 Y47.037 Z-0.200
G1 X38.559 Y47.039 Z-0.200
G1 X42.059 Y47.039 Z-0.200
G1 X42.089 Y47.036 Z-0.200
G1 X42.119 Y47.029 Z-0.200
G1 X42.150 Y47.017 Z-0.200
G1 X42.178 Y47.000 Z-0.200
G1 X42.204 Y46.978 Z-0.200
G1 X42.226 Y46.953 Z-0.200
G1 X42.243 Y46.924 Z-0.200
G1 X42.255 Y46.894 Z-0.200
G1 X42.262 Y46.863 Z-0.200
G1 X42.264 Y46.833 Z-0.200
G1 X42.264 Y45.133 Z-0.200
G1 X42.262 Y45.104 Z-0.200
G1 X42.255 Y45.073 Z-0.200
G1 X42.243 Y45.043 Z-0.200
G1 X42.226 Y45.014 Z-0.200
G1 X42.204 Y44.988 Z-0.200
G1 X42.178 Y44.966 Z-0.200
G1 X42.150 Y44.949 Z-0.200
G1 X42.119 Y44.937 Z-0.200
G1 X42.089 Y44.930 Z-0.200
G1 X42.059 Y44.928 Z-0.200
G0 X42.059 Y44.928
G0 Z5.080
G0 X42.059 Y47.468
G0 Z5.080
G1 X42.059 Y47.468 Z-0.200 F1000.0
G1 X38.559 Y47.468 Z-0.200 F3000.0
G1 X38.532 Y47.470 Z-0.200
G1 X38.504 Y47.475 Z-0.200
G1 X38.477 Y47.485 Z-0.200
G1 X38.450 Y47.499 Z-0.200
G1 X38.425 Y47.518 Z-0.200
G1 X38.404 Y47.539 Z-0.200
G1 X38.385 Y47.564 Z-0.200
G1 X38.371 Y47.591 Z-0.200
G1 X38.361 Y47.619 Z-0.200
G1 X38.356 Y47.646 Z-0.200
G1 X38.354 Y47.673 Z-0.200
G1 X38.354 Y49.373 Z-0.200
G1 X38.356 Y49.400 Z-0.200
G1 X38.361 Y49.428 Z-0.200
G1 X38.371 Y49.456 Z-0.200
G1 X38.385 Y49.482 Z-0.200
G1 X38.404 Y49.507 Z-0.200
G1 X38.425 Y49.529 Z-0.200
G1 X38.450 Y49.547 Z-0.200
G1 X38.477 Y49.561 Z-0.200
G1 X38.504 Y49.571 Z-0.200
G1 X38.532 Y49.577 Z-0.200
G1 X38.559 Y49.579 Z-0.200
G1 X42.059 Y49.579 Z-0.200
G1 X42.089 Y49.576 Z-0.200
G1 X42.119 Y49.569 Z-0.200
G1 X42.150 Y49.557 Z-0.200
G1 X42.178 Y49.540 Z-0.200
G1 X42.204 Y49.518 Z-0.200
G1 X42.226 Y49.493 Z-0.200
G1 X42.243 Y49.464 Z-0.200
G1 X42.255 Y49.434 Z-0.200
G1 X42.262 Y49.403 Z-0.200
G1 X42.264 Y49.373 Z-0.200
G1 X42.264 Y47.673 Z-0.200
G1 X42.262 Y47.644 Z-0.200
G1 X42.255 Y47.613 Z-0.200
G1 X42.243 Y47.583 Z-0.200
G1 X42.226 Y47.554 Z-0.200
G1 X42.204 Y47.528 Z-0.200
G1 X42.178 Y47.506 Z-0.200
G1 X42.150 Y47.489 Z-0.200
G1 X42.119 Y47.477 Z-0.200
G1 X42.089 Y47.470 Z-0.200
G1 X42.059 Y47.468 Z-0.200
G0 X42.059 Y47.468
G0 Z5.080
G0 X42.059 Y50.008
G0 Z5.080
G1 X42.059 Y50.008 Z-0.200 F1000.0
G1 X38.559 Y50.008 Z-0.200 F3000.0
G1 X38.532 Y50.010 Z-0.200
G1 X38.504 Y50.015 Z-0.200
G1 X38.477 Y50.025 Z-0.200
G1 X38.450 Y50.039 Z-0.200
G1 X38.425 Y50.058 Z-0.200
G1 X38.404 Y50.079 Z-0.200
G1 X38.385 Y50.104 Z-0.200
G1 X38.371 Y50.131 Z-0.200
G1 X38.361 Y50.159 Z-0.200
G1 X38.356 Y50.186 Z-0.200
G1 X38.354 Y50.213 Z-0.200
G1 X38.354 Y51.913 Z-0.200
G1 X38.356 Y51.940 Z-0.200
G1 X38.361 Y51.968 Z-0.200
G1 X38.371 Y51.996 Z-0.200
G1 X38.385 Y52.022 Z-0.200
G1 X38.404 Y52.047 Z-0.200
G1 X38.425 Y52.069 Z-0.200
G1 X38.450 Y52.087 Z-0.200
G1 X38.477 Y52.101 Z-0.200
G1 X38.504 Y52.111 Z-0.200
G1 X38.532 Y52.117 Z-0.200
G1 X38.559 Y52.119 Z-0.200
G1 X42.059 Y52.119 Z-0.200
G1 X42.089 Y52.116 Z-0.200
G1 X42.119 Y52.109 Z-0.200
G1 X42.150 Y52.097 Z-0.200
G1 X42.178 Y52.080 Z-0.200
G1 X42.204 Y52.058 Z-0.200
G1 X42.226 Y52.033 Z-0.200
G1 X42.243 Y52.004 Z-0.200
G1 X42.255 Y51.974 Z-0.200
G1 X42.262 Y51.943 Z-0.200
G1 X42.264 Y51.913 Z-0.200
G1 X42.264 Y50.213 Z-0.200
G1 X42.262 Y50.184 Z-0.200
G1 X42.255 Y50.153 Z-0.200
G1 X42.243 Y50.123 Z-0.200
G1 X42.226 Y50.094 Z-0.200
G1 X42.204 Y50.068 Z-0.200
G1 X42.178 Y50.046 Z-0.200
G1 X42.150 Y50.029 Z-0.200
G1 X42.119 Y50.017 Z-0.200
G1 X42.089 Y50.010 Z-0.200
G1 X42.059 Y50.008 Z-0.200
G0 X42.059 Y50.008
G0 Z5.080
G0 X50.251 Y40.739
G0 Z5.080
G1 X50.251 Y40.739 Z-0.200 F1000.0
G1 X50.307 Y40.780 Z-0.200 F3000.0
G1 X50.366 Y40.816 Z-0.200
G1 X50.429 Y40.845 Z-0.200
G1 X50.494 Y40.869 Z-0.200
G1 X50.561 Y40.885 Z-0.200
G1 X50.630 Y40.896 Z-0.200
G1 X50.694 Y40.899 Z-0.200
G1 X53.211 Y40.899 Z-0.200
G1 X53.248 Y40.940 Z-0.200
G1 X53.325 Y41.009 Z-0.200
G1 X53.408 Y41.071 Z-0.200
G1 X53.497 Y41.124 Z-0.200
G1 X53.590 Y41.168 Z-0.200
G1 X53.688 Y41.203 Z-0.200
G1 X53.788 Y41.228 Z-0.200
G1 X53.891 Y41.244 Z-0.200
G1 X53.994 Y41.249 Z-0.200
G1 X54.098 Y41.244 Z-0.200
G1 X54.200 Y41.228 Z-0.200
G1 X54.301 Y41.203 Z-0.200
G1 X54.398 Y41.168 Z-0.200
G1 X54.492 Y41.124 Z-0.200
G1 X54.581 Y41.071 Z-0.200
G1 X54.664 Y41.009 Z-0.200
G1 X54.741 Y40.940 Z-0.200
G1 X54.810 Y40.863 Z-0.200
G1 X54.872 Y40.780 Z-0.200
G1 X54.925 Y40.691 Z-0.200
G1 X54.969 Y40.597 Z-0.200
G1 X55.004 Y40.500 Z-0.200
G1 X55.029 Y40.399 Z-0.200
G1 X55.045 Y40.297 Z-0.200
G1 X55.050 Y40.193 Z-0.200
G1 X55.045 Y40.090 Z-0.200
G1 X55.029 Y39.987 Z-0.200
G1 X55.004 Y39.887 Z-0.200
G1 X54.969 Y39.789 Z-0.200
G1 X54.925 Y39.696 Z-0.200
G1 X54.872 Y39.607 Z-0.200
G1 X54.810 Y39.524 Z-0.200
G1 X54.741 Y39.447 Z-0.200
G1 X54.664 Y39.377 Z-0.200
G1 X54.581 Y39.316 Z-0.200
G1 X54.492 Y39.262 Z-0.200
G1 X54.398 Y39.218 Z-0.200
G1 X54.301 Y39.183 Z-0.200
G1 X54.200 Y39.158 Z-0.200
G1 X54.098 Y39.143 Z-0.200
G1 X53.994 Y39.138 Z-0.200
G1 X53.891 Y39.143 Z-0.200
G1 X53.788 Y39.158 Z-0.200
G1 X53.688 Y39.183 Z-0.200
G1 X53.590 Y39.218 Z-0.200
G1 X53.497 Y39.262 Z-0.200
G1 X53.408 Y39.316 Z-0.200
G1 X53.325 Y39.377 Z-0.200
G1 X53.248 Y39.447 Z-0.200
G1 X53.211 Y39.488 Z-0.200
G1 X50.991 Y39.488 Z-0.200
G1 X50.729 Y39.225 Z-0.200
G1 X50.796 Y39.151 Z-0.200
G1 X50.855 Y39.072 Z-0.200
G1 X50.906 Y38.987 Z-0.200
G1 X50.948 Y38.898 Z-0.200
G1 X50.981 Y38.805 Z-0.200
G1 X51.005 Y38.709 Z-0.200
G1 X51.020 Y38.612 Z-0.200
G1 X51.025 Y38.513 Z-0.200
G1 X51.020 Y38.415 Z-0.200
G1 X51.005 Y38.317 Z-0.200
G1 X50.981 Y38.221 Z-0.200
G1 X50.948 Y38.128 Z-0.200
G1 X50.906 Y38.039 Z-0.200
G1 X50.855 Y37.955 Z-0.200
G1 X50.796 Y37.875 Z-0.200
G1 X50.730 Y37.802 Z-0.200
G1 X50.657 Y37.736 Z-0.200
G1 X50.578 Y37.677 Z-0.200
G1 X50.493 Y37.626 Z-0.200
G1 X50.404 Y37.584 Z-0.200
G1 X50.311 Y37.551 Z-0.200
G1 X50.215 Y37.527 Z-0.200
G1 X50.118 Y37.513 Z-0.200
G1 X50.019 Y37.508 Z-0.200
G1 X49.921 Y37.513 Z-0.200
G1 X49.823 Y37.527 Z-0.200
G1 X49.727 Y37.551 Z-0.200
G1 X49.634 Y37.584 Z-0.200
G1 X49.545 Y37.626 Z-0.200
G1 X49.461 Y37.677 Z-0.200
G1 X49.381 Y37.736 Z-0.200
G1 X49.308 Y37.802 Z-0.200
G1 X49.242 Y37.875 Z-0.200
G1 X49.183 Y37.955 Z-0.200
G1 X49.132 Y38.039 Z-0.200
G1 X49.090 Y38.128 Z-0.200
G1 X49.057 Y38.221 Z-0.200
G1 X49.033 Y38.317 Z-0.200
G1 X49.018 Y38.415 Z-0.200
G1 X49.014 Y38.513 Z-0.200
G1 X49.018 Y38.612 Z-0.200
G1 X49.033 Y38.709 Z-0.200
G1 X49.057 Y38.805 Z-0.200
G1 X49.090 Y38.898 Z-0.200
G1 X49.132 Y38.987 Z-0.200
G1 X49.183 Y39.072 Z-0.200
G1 X49.242 Y39.151 Z-0.200
G1 X49.314 Y39.230 Z-0.200
G1 X49.314 Y39.518 Z-0.200
G1 X49.317 Y39.582 Z-0.200
G1 X49.327 Y39.651 Z-0.200
G1 X49.344 Y39.718 Z-0.200
G1 X49.367 Y39.783 Z-0.200
G1 X49.397 Y39.846 Z-0.200
G1 X49.432 Y39.905 Z-0.200
G1 X49.474 Y39.961 Z-0.200
G1 X49.517 Y40.009 Z-0.200
G1 X50.204 Y40.696 Z-0.200
G1 X50.251 Y40.739 Z-0.200
G0 X50.251 Y40.739
G0 Z5.080
G0 X49.031 Y42.028
G0 Z5.080
G1 X49.031 Y42.028 Z-0.200 F1000.0
G1 X47.725 Y40.721 Z-0.200 F3000.0
G1 X47.725 Y39.230 Z-0.200
G1 X47.796 Y39.151 Z-0.200
G1 X47.855 Y39.072 Z-0.200
G1 X47.906 Y38.987 Z-0.200
G1 X47.948 Y38.898 Z-0.200
G1 X47.981 Y38.805 Z-0.200
G1 X48.005 Y38.709 Z-0.200
G1 X48.020 Y38.612 Z-0.200
G1 X48.025 Y38.513 Z-0.200
G1 X48.020 Y38.415 Z-0.200
G1 X48.005 Y38.317 Z-0.200
G1 X47.981 Y38.221 Z-0.200
G1 X47.948 Y38.128 Z-0.200
G1 X47.906 Y38.039 Z-0.200
G1 X47.855 Y37.955 Z-0.200
G1 X47.796 Y37.875 Z-0.200
G1 X47.730 Y37.802 Z-0.200
G1 X47.657 Y37.736 Z-0.200
G1 X47.578 Y37.677 Z-0.200
G1 X47.493 Y37.626 Z-0.200
G1 X47.404 Y37.584 Z-0.200
G1 X47.311 Y37.551 Z-0.200
G1 X47.215 Y37.527 Z-0.200
G1 X47.118 Y37.513 Z-0.200
G1 X47.019 Y37.508 Z-0.200
G1 X46.921 Y37.513 Z-0.200
G1 X46.823 Y37.527 Z-0.200
G1 X46.727 Y37.551 Z-0.200
G1 X46.634 Y37.584 Z-0.200
G1 X46.545 Y37.626 Z-0.200
G1 X46.461 Y37.677 Z-0.200
G1 X46.381 Y37.736 Z-0.200
G1 X46.308 Y37.802 Z-0.200
G1 X46.242 Y37.875 Z-0.200
G1 X46.183 Y37.955 Z-0.200
G1 X46.132 Y38.039 Z-0.200
G1 X46.090 Y38.128 Z-0.200
G1 X46.057 Y38.221 Z-0.200
G1 X46.033 Y38.317 Z-0.200
G1 X46.018 Y38.415 Z-0.200
G1 X46.014 Y38.513 Z-0.200
G1 X46.018 Y38.612 Z-0.200
G1 X46.033 Y38.709 Z-0.200
G1 X46.057 Y38.805 Z-0.200
G1 X46.090 Y38.898 Z-0.200
G1 X46.132 Y38.987 Z-0.200
G1 X46.183 Y39.072 Z-0.200
G1 X46.242 Y39.151 Z-0.200
G1 X46.314 Y39.230 Z-0.200
G1 X46.314 Y41.018 Z-0.200
G1 X46.317 Y41.082 Z-0.200
G1 X46.327 Y41.151 Z-0.200
G1 X46.344 Y41.218 Z-0.200
G1 X46.367 Y41.283 Z-0.200
G1 X46.397 Y41.346 Z-0.200
G1 X46.432 Y41.405 Z-0.200
G1 X46.474 Y41.461 Z-0.200
G1 X46.517 Y41.509 Z-0.200
G1 X48.244 Y43.236 Z-0.200
G1 X48.291 Y43.279 Z-0.200
G1 X48.347 Y43.320 Z-0.200
G1 X48.406 Y43.356 Z-0.200
G1 X48.469 Y43.385 Z-0.200
G1 X48.534 Y43.409 Z-0.200
G1 X48.601 Y43.425 Z-0.200
G1 X48.670 Y43.436 Z-0.200
G1 X48.734 Y43.439 Z-0.200
G1 X53.211 Y43.439 Z-0.200
G1 X53.248 Y43.480 Z-0.200
G1 X53.325 Y43.549 Z-0.200
G1 X53.408 Y43.611 Z-0.200
G1 X53.497 Y43.664 Z-0.200
G1 X53.590 Y43.708 Z-0.200
G1 X53.688 Y43.743 Z-0.200
G1 X53.788 Y43.768 Z-0.200
G1 X53.891 Y43.784 Z-0.200
G1 X53.994 Y43.789 Z-0.200
G1 X54.098 Y43.784 Z-0.200
G1 X54.200 Y43.768 Z-0.200
G1 X54.301 Y43.743 Z-0.200
G1 X54.398 Y43.708 Z-0.200
G1 X54.492 Y43.664 Z-0.200
G1 X54.581 Y43.611 Z-0.200
G1 X54.664 Y43.549 Z-0.200
G1 X54.741 Y43.480 Z-0.200
G1 X54.810 Y43.403 Z-0.200
G1 X54.872 Y43.320 Z-0.200
G1 X54.925 Y43.231 Z-0.200
G1 X54.969 Y43.137 Z-0.200
G1 X55.004 Y43.040 Z-0.200
G1 X55.029 Y42.939 Z-0.200
G1 X55.045 Y42.837 Z-0.200
G1 X55.050 Y42.733 Z-0.200
G1 X55.045 Y42.630 Z-0.200
G1 X55.029 Y42.527 Z-0.200
G1 X55.004 Y42.427 Z-0.200
G1 X54.969 Y42.329 Z-0.200
G1 X54.925 Y42.236 Z-0.200
G1 X54.872 Y42.147 Z-0.200
G1 X54.810 Y42.064 Z-0.200
G1 X54.741 Y41.987 Z-0.200
G1 X54.664 Y41.917 Z-0.200
G1 X54.581 Y41.856 Z-0.200
G1 X54.492 Y41.802 Z-0.200
G1 X54.398 Y41.758 Z-0.200
G1 X54.301 Y41.723 Z-0.200
G1 X54.200 Y41.698 Z-0.200
G1 X54.098 Y41.683 Z-0.200
G1 X53.994 Y41.678 Z-0.200
G1 X53.891 Y41.683 Z-0.200
G1 X53.788 Y41.698 Z-0.200
G1 X53.688 Y41.723 Z-0.200
G1 X53.590 Y41.758 Z-0.200
G1 X53.497 Y41.802 Z-0.200
G1 X53.408 Y41.856 Z-0.200
G1 X53.325 Y41.917 Z-0.200
G1 X53.248 Y41.987 Z-0.200
G1 X53.211 Y42.028 Z-0.200
G1 X49.031 Y42.028 Z-0.200
G0 X49.031 Y42.028
G0 Z5.080
G0 X53.117 Y44.687
G0 Z5.080
G1 X53.117 Y44.687 Z-0.200 F1000.0
G1 X53.063 Y44.776 Z-0.200 F3000.0
G1 X53.019 Y44.869 Z-0.200
G1 X52.984 Y44.967 Z-0.200
G1 X52.959 Y45.067 Z-0.200
G1 X52.944 Y45.170 Z-0.200
G1 X52.939 Y45.273 Z-0.200
G1 X52.944 Y45.377 Z-0.200
G1 X52.959 Y45.479 Z-0.200
G1 X52.984 Y45.580 Z-0.200
G1 X53.019 Y45.677 Z-0.200
G1 X53.063 Y45.771 Z-0.200
G1 X53.117 Y45.860 Z-0.200
G1 X53.178 Y45.943 Z-0.200
G1 X53.248 Y46.020 Z-0.200
G1 X53.325 Y46.089 Z-0.200
G1 X53.408 Y46.151 Z-0.200
G1 X53.497 Y46.204 Z-0.200
G1 X53.590 Y46.248 Z-0.200
G1 X53.688 Y46.283 Z-0.200
G1 X53.788 Y46.308 Z-0.200
G1 X53.891 Y46.324 Z-0.200
G1 X53.994 Y46.329 Z-0.200
G1 X54.098 Y46.324 Z-0.200
G1 X54.200 Y46.308 Z-0.200
G1 X54.301 Y46.283 Z-0.200
G1 X54.398 Y46.248 Z-0.200
G1 X54.492 Y46.204 Z-0.200
G1 X54.581 Y46.151 Z-0.200
G1 X54.664 Y46.089 Z-0.200
G1 X54.741 Y46.020 Z-0.200
G1 X54.778 Y45.979 Z-0.200
G1 X55.487 Y45.979 Z-0.200
G1 X55.814 Y46.305 Z-0.200
G1 X55.814 Y49.721 Z-0.200
G1 X55.227 Y50.308 Z-0.200
G1 X54.514 Y50.308 Z-0.200
G1 X54.450 Y50.311 Z-0.200
G1 X54.381 Y50.321 Z-0.200
G1 X54.314 Y50.338 Z-0.200
G1 X54.249 Y50.361 Z-0.200
G1 X54.186 Y50.391 Z-0.200
G1 X54.127 Y50.426 Z-0.200
G1 X54.071 Y50.468 Z-0.200
G1 X54.024 Y50.511 Z-0.200
G1 X53.017 Y51.518 Z-0.200
G1 X52.974 Y51.566 Z-0.200
G1 X52.932 Y51.621 Z-0.200
G1 X52.897 Y51.681 Z-0.200
G1 X52.867 Y51.743 Z-0.200
G1 X52.844 Y51.808 Z-0.200
G1 X52.827 Y51.876 Z-0.200
G1 X52.817 Y51.944 Z-0.200
G1 X52.814 Y52.008 Z-0.200
G1 X52.814 Y55.308 Z-0.200
G1 X52.114 Y55.308 Z-0.200
G1 X52.114 Y55.163 Z-0.200
G1 X52.112 Y55.134 Z-0.200
G1 X52.105 Y55.103 Z-0.200
G1 X52.093 Y55.073 Z-0.200
G1 X52.076 Y55.044 Z-0.200
G1 X52.054 Y55.018 Z-0.200
G1 X52.028 Y54.996 Z-0.200
G1 X52.000 Y54.979 Z-0.200
G1 X51.969 Y54.967 Z-0.200
G1 X51.939 Y54.960 Z-0.200
G1 X51.909 Y54.958 Z-0.200
G1 X50.209 Y54.958 Z-0.200
G1 X50.179 Y54.960 Z-0.200
G1 X50.149 Y54.967 Z-0.200
G1 X50.119 Y54.979 Z-0.200
G1 X50.090 Y54.996 Z-0.200
G1 X50.064 Y55.018 Z-0.200
G1 X50.042 Y55.044 Z-0.200
G1 X50.025 Y55.073 Z-0.200
G1 X50.013 Y55.103 Z-0.200
G1 X50.006 Y55.134 Z-0.200
G1 X50.004 Y55.163 Z-0.200
G1 X50.004 Y56.863 Z-0.200
G1 X50.006 Y56.893 Z-0.200
G1 X50.013 Y56.924 Z-0.200
G1 X50.025 Y56.954 Z-0.200
G1 X50.042 Y56.983 Z-0.200
G1 X50.064 Y57.008 Z-0.200
G1 X50.090 Y57.030 Z-0.200
G1 X50.119 Y57.047 Z-0.200
G1 X50.149 Y57.059 Z-0.200
G1 X50.179 Y57.066 Z-0.200
G1 X50.209 Y57.069 Z-0.200
G1 X51.909 Y57.069 Z-0.200
G1 X51.939 Y57.066 Z-0.200
G1 X51.969 Y57.059 Z-0.200
G1 X52.000 Y57.047 Z-0.200
G1 X52.028 Y57.030 Z-0.200
G1 X52.054 Y57.008 Z-0.200
G1 X52.076 Y56.983 Z-0.200
G1 X52.093 Y56.954 Z-0.200
G1 X52.105 Y56.924 Z-0.200
G1 X52.112 Y56.893 Z-0.200
G1 X52.114 Y56.863 Z-0.200
G1 X52.114 Y56.719 Z-0.200
G1 X52.814 Y56.719 Z-0.200
G1 X52.814 Y57.721 Z-0.200
G1 X52.727 Y57.808 Z-0.200
G1 X26.561 Y57.808 Z-0.200
G1 X25.725 Y56.971 Z-0.200
G1 X25.725 Y47.508 Z-0.200
G1 X25.722 Y47.444 Z-0.200
G1 X25.711 Y47.376 Z-0.200
G1 X25.695 Y47.308 Z-0.200
G1 X25.671 Y47.243 Z-0.200
G1 X25.642 Y47.181 Z-0.200
G1 X25.606 Y47.121 Z-0.200
G1 X25.565 Y47.066 Z-0.200
G1 X25.522 Y47.018 Z-0.200
G1 X23.984 Y45.481 Z-0.200
G1 X23.937 Y45.438 Z-0.200
G1 X23.881 Y45.396 Z-0.200
G1 X23.822 Y45.361 Z-0.200
G1 X23.759 Y45.331 Z-0.200
G1 X23.694 Y45.308 Z-0.200
G1 X23.627 Y45.291 Z-0.200
G1 X23.558 Y45.281 Z-0.200
G1 X23.494 Y45.278 Z-0.200
G1 X22.684 Y45.278 Z-0.200
G1 X22.684 Y45.133 Z-0.200
G1 X22.682 Y45.104 Z-0.200
G1 X22.675 Y45.073 Z-0.200
G1 X22.663 Y45.043 Z-0.200
G1 X22.646 Y45.014 Z-0.200
G1 X22.624 Y44.988 Z-0.200
G1 X22.598 Y44.966 Z-0.200
G1 X22.570 Y44.949 Z-0.200
G1 X22.539 Y44.937 Z-0.200
G1 X22.509 Y44.930 Z-0.200
G1 X22.479 Y44.928 Z-0.200
G1 X18.979 Y44.928 Z-0.200
G1 X18.949 Y44.930 Z-0.200
G1 X18.919 Y44.937 Z-0.200
G1 X18.889 Y44.949 Z-0.200
G1 X18.860 Y44.966 Z-0.200
G1 X18.834 Y44.988 Z-0.200
G1 X18.812 Y45.014 Z-0.200
G1 X18.795 Y45.043 Z-0.200
G1 X18.783 Y45.073 Z-0.200
G1 X18.776 Y45.104 Z-0.200
G1 X18.774 Y45.133 Z-0.200
G1 X18.774 Y45.278 Z-0.200
G1 X18.341 Y45.278 Z-0.200
G1 X18.105 Y45.041 Z-0.200
G1 X18.105 Y29.128 Z-0.200
G1 X18.102 Y29.064 Z-0.200
G1 X18.091 Y28.996 Z-0.200
G1 X18.075 Y28.928 Z-0.200
G1 X18.051 Y28.863 Z-0.200
G1 X18.022 Y28.801 Z-0.200
G1 X17.986 Y28.741 Z-0.200
G1 X17.945 Y28.686 Z-0.200
G1 X17.902 Y28.638 Z-0.200
G1 X14.394 Y25.131 Z-0.200
G1 X14.347 Y25.088 Z-0.200
G1 X14.291 Y25.046 Z-0.200
G1 X14.232 Y25.011 Z-0.200
G1 X14.169 Y24.981 Z-0.200
G1 X14.104 Y24.958 Z-0.200
G1 X14.037 Y24.941 Z-0.200
G1 X13.968 Y24.931 Z-0.200
G1 X13.904 Y24.928 Z-0.200
G1 X12.954 Y24.928 Z-0.200
G1 X12.954 Y24.783 Z-0.200
G1 X12.952 Y24.754 Z-0.200
G1 X12.945 Y24.723 Z-0.200
G1 X12.933 Y24.693 Z-0.200
G1 X12.916 Y24.664 Z-0.200
G1 X12.894 Y24.638 Z-0.200
G1 X12.868 Y24.616 Z-0.200
G1 X12.840 Y24.599 Z-0.200
G1 X12.809 Y24.587 Z-0.200
G1 X12.779 Y24.580 Z-0.200
G1 X12.749 Y24.578 Z-0.200
G1 X11.049 Y24.578 Z-0.200
G1 X11.022 Y24.580 Z-0.200
G1 X10.994 Y24.585 Z-0.200
G1 X10.967 Y24.595 Z-0.200
G1 X10.940 Y24.609 Z-0.200
G1 X10.915 Y24.628 Z-0.200
G1 X10.894 Y24.649 Z-0.200
G1 X10.875 Y24.674 Z-0.200
G1 X10.861 Y24.701 Z-0.200
G1 X10.851 Y24.729 Z-0.200
G1 X10.846 Y24.756 Z-0.200
G1 X10.844 Y24.783 Z-0.200
G1 X10.844 Y26.483 Z-0.200
G1 X10.846 Y26.510 Z-0.200
G1 X10.851 Y26.538 Z-0.200
G1 X10.861 Y26.566 Z-0.200
G1 X10.875 Y26.592 Z-0.200
G1 X10.894 Y26.617 Z-0.200
G1 X10.915 Y26.639 Z-0.200
G1 X10.940 Y26.657 Z-0.200
G1 X10.967 Y26.671 Z-0.200
G1 X10.994 Y26.681 Z-0.200
G1 X11.022 Y26.687 Z-0.200
G1 X11.049 Y26.689 Z-0.200
G1 X12.749 Y26.689 Z-0.200
G1 X12.779 Y26.686 Z-0.200
G1 X12.809 Y26.679 Z-0.200
G1 X12.840 Y26.667 Z-0.200
G1 X12.868 Y26.650 Z-0.200
G1 X12.894 Y26.628 Z-0.200
G1 X12.916 Y26.603 Z-0.200
G1 X12.933 Y26.574 Z-0.200
G1 X12.945 Y26.544 Z-0.200
G1 X12.952 Y26.513 Z-0.200
G1 X12.954 Y26.483 Z-0.200
G1 X12.954 Y26.339 Z-0.200
G1 X13.607 Y26.339 Z-0.200
G1 X16.694 Y29.425 Z-0.200
G1 X16.694 Y45.338 Z-0.200
G1 X16.697 Y45.402 Z-0.200
G1 X16.707 Y45.471 Z-0.200
G1 X16.724 Y45.538 Z-0.200
G1 X16.747 Y45.603 Z-0.200
G1 X16.777 Y45.666 Z-0.200
G1 X16.812 Y45.725 Z-0.200
G1 X16.854 Y45.781 Z-0.200
G1 X16.897 Y45.829 Z-0.200
G1 X17.051 Y45.983 Z-0.200
G1 X15.147 Y47.888 Z-0.200
G1 X12.683 Y47.888 Z-0.200
G1 X12.646 Y47.847 Z-0.200
G1 X12.569 Y47.777 Z-0.200
G1 X12.486 Y47.716 Z-0.200
G1 X12.397 Y47.662 Z-0.200
G1 X12.303 Y47.618 Z-0.200
G1 X12.206 Y47.583 Z-0.200
G1 X12.105 Y47.558 Z-0.200
G1 X12.003 Y47.543 Z-0.200
G1 X11.899 Y47.538 Z-0.200
G1 X11.796 Y47.543 Z-0.200
G1 X11.693 Y47.558 Z-0.200
G1 X11.593 Y47.583 Z-0.200
G1 X11.495 Y47.618 Z-0.200
G1 X11.402 Y47.662 Z-0.200
G1 X11.313 Y47.716 Z-0.200
G1 X11.230 Y47.777 Z-0.200
G1 X11.153 Y47.847 Z-0.200
G1 X11.083 Y47.924 Z-0.200
G1 X11.022 Y48.007 Z-0.200
G1 X10.968 Y48.096 Z-0.200
G1 X10.924 Y48.189 Z-0.200
G1 X10.889 Y48.287 Z-0.200
G1 X10.864 Y48.387 Z-0.200
G1 X10.849 Y48.490 Z-0.200
G1 X10.844 Y48.593 Z-0.200
G1 X10.849 Y48.697 Z-0.200
G1 X10.864 Y48.799 Z-0.200
G1 X10.889 Y48.900 Z-0.200
G1 X10.924 Y48.997 Z-0.200
